app/src/main/assets/luts/film_warm_vintage.cube
# V-Cam procedural LUT — film_warm_vintage
# Generated by LutBaker. Do not edit by hand.
TITLE "V-Cam film_warm_vintage"
LUT_3D_SIZE 33
DOMAIN_MIN 0.0 0.0 0.0
DOMAIN_MAX 1.0 1.0 1.0
0.257668 0.244239 0.315215
0.257695 0.244241 0.315216
0.257817 0.244252 0.315220
0.258161 0.244284 0.315230
0.258934 0.244355 0.315253
0.260424 0.244492 0.315297
0.263004 0.244732 0.315375
0.267122 0.245122 0.315501
0.273268 0.245718 0.315696
0.281935 0.246589 0.315984
0.293561 0.247813 0.316393
0.308476 0.249480 0.316961
0.326864 0.251690 0.317730
0.348745 0.254550 0.318755
0.373985 0.258174 0.320099
0.402324 0.262680 0.321838
0.433403 0.268184 0.324060
0.466797 0.274797 0.326866
0.502032 0.282615 0.330368
0.538597 0.291724 0.334690
0.575947 0.302186 0.339963
0.613498 0.314045 0.346329
0.650617 0.327323 0.353927
0.686660 0.341969 0.362854
0.721613 0.357173 0.372490
0.754564 0.372924 0.382942
0.784910 0.388758 0.393885
0.812021 0.404076 0.404849
0.835207 0.418132 0.415206
0.853676 0.430009 0.424162
0.866450 0.438601 0.430748
0.872211 0.442582 0.433829
0.872368 0.442691 0.433914
0.257672 0.244265 0.315217
0.257699 0.244268 0.315218
0.257821 0.244279 0.315221
0.258166 0.244310 0.315231
0.258939 0.244381 0.315254
0.260428 0.244519 0.315298
0.263009 0.244759 0.315376
0.267126 0.245149 0.315503
0.273272 0.245745 0.315698
0.281939 0.246615 0.315985
0.293565 0.247840 0.316394
0.308480 0.249507 0.316962
0.326868 0.251716 0.317732
0.348748 0.254575 0.318757
0.373988 0.258199 0.320101
0.402327 0.262705 0.321840
0.433406 0.268208 0.324061
0.466799 0.274820 0.326867
0.502034 0.282638 0.330369
0.538599 0.291745 0.334691
0.575949 0.302206 0.339965
0.613500 0.314064 0.346331
0.650619 0.327341 0.353929
0.686661 0.341986 0.362856
0.721615 0.357189 0.372492
0.754565 0.372939 0.382944
0.784912 0.388772 0.393887
0.812022 0.404090 0.404851
0.835208 0.418145 0.415208
0.853677 0.430022 0.424164
0.866452 0.438613 0.430750
0.872213 0.442594 0.433831
0.872369 0.442703 0.433916
0.257693 0.244388 0.315223
0.257720 0.244390 0.315224
0.257842 0.244401 0.315227
0.258186 0.244433 0.315238
0.258959 0.244504 0.315260
0.260448 0.244641 0.315305
0.263029 0.244881 0.315382
0.267146 0.245271 0.315509
0.273291 0.245866 0.315704
0.281957 0.246737 0.315991
0.293582 0.247960 0.316401
0.308496 0.249626 0.316968
0.326883 0.251834 0.317738
0.348763 0.254691 0.318763
0.374002 0.258313 0.320107
0.402339 0.262816 0.321846
0.433417 0.268317 0.324069
0.466810 0.274925 0.326875
0.502044 0.282739 0.330377
0.538608 0.291842 0.334699
0.575958 0.302299 0.339973
0.613508 0.314152 0.346339
0.650627 0.327424 0.353938
0.686668 0.342064 0.362865
0.721622 0.357263 0.372501
0.754572 0.373009 0.382954
0.784918 0.388838 0.393897
0.812029 0.404152 0.404861
0.835214 0.418204 0.415219
0.853683 0.430078 0.424174
0.866458 0.438668 0.430761
0.872219 0.442648 0.433842
0.872376 0.442757 0.433927
0.257750 0.244735 0.315241
0.257777 0.244738 0.315241
0.257899 0.244749 0.315245
0.258244 0.244780 0.315255
0.259016 0.244851 0.315278
0.260505 0.244988 0.315322
0.263085 0.245227 0.315400
0.267201 0.245616 0.315527
0.273345 0.246211 0.315722
0.282009 0.247080 0.316009
0.293632 0.248301 0.316419
0.308544 0.249964 0.316987
0.326927 0.252168 0.317757
0.348804 0.255021 0.318782
0.374040 0.258636 0.320127
0.402374 0.263132 0.321866
0.433450 0.268624 0.324089
0.466840 0.275223 0.326896
0.502072 0.283026 0.330399
0.538634 0.292118 0.334721
0.575983 0.302561 0.339996
0.613531 0.314401 0.346363
0.650649 0.327659 0.353963
0.686689 0.342286 0.362892
0.721641 0.357472 0.372529
0.754591 0.373206 0.382982
0.784937 0.389023 0.393926
0.812047 0.404328 0.404890
0.835232 0.418371 0.415248
0.853701 0.430239 0.424204
0.866476 0.438824 0.430791
0.872237 0.442802 0.433872
0.872393 0.442911 0.433957
0.257880 0.245515 0.315280
0.257907 0.245518 0.315281
0.258029 0.245529 0.315285
0.258373 0.245560 0.315295
0.259145 0.245630 0.315318
0.260633 0.245767 0.315362
0.263211 0.246006 0.315440
0.267325 0.246393 0.315567
0.273466 0.246985 0.315762
0.282126 0.247850 0.316049
0.293744 0.249066 0.316459
0.308650 0.250723 0.317028
0.327027 0.252919 0.317798
0.348897 0.255761 0.318825
0.374126 0.259363 0.320170
0.402454 0.263843 0.321911
0.433523 0.269316 0.324135
0.466908 0.275893 0.326943
0.502135 0.283672 0.330447
0.538693 0.292737 0.334772
0.576038 0.303152 0.340048
0.613584 0.314962 0.346417
0.650698 0.328190 0.354019
0.686735 0.342787 0.362951
0.721686 0.357943 0.372590
0.754634 0.373649 0.383045
0.784979 0.389441 0.393990
0.812088 0.404723 0.404956
0.835273 0.418748 0.415315
0.853742 0.430600 0.424271
0.866515 0.439175 0.430858
0.872276 0.443148 0.433939
0.872433 0.443257 0.434024
0.258131 0.247020 0.315357
0.258158 0.247023 0.315358
0.258280 0.247034 0.315362
0.258623 0.247065 0.315372
0.259394 0.247135 0.315395
0.260881 0.247270 0.315439
0.263457 0.247507 0.315517
0.267567 0.247891 0.315644
0.273702 0.248479 0.315839
0.282354 0.249338 0.316128
0.293961 0.250545 0.316538
0.308855 0.252189 0.317108
0.327220 0.254368 0.317879
0.349076 0.257189 0.318907
0.374292 0.260766 0.320254
0.402607 0.265216 0.321997
0.433665 0.270653 0.324223
0.467039 0.277188 0.327034
0.502257 0.284921 0.330541
0.538807 0.293934 0.334869
0.576145 0.304295 0.340149
0.613685 0.316047 0.346521
0.650795 0.329215 0.354128
0.686826 0.343755 0.363067
0.721773 0.358855 0.372710
0.754718 0.374508 0.383167
0.785061 0.390251 0.394115
0.812168 0.405489 0.405083
0.835352 0.419477 0.415444
0.853819 0.431300 0.424401
0.866593 0.439855 0.430989
0.872354 0.443819 0.434070
0.872510 0.443928 0.434155
0.258570 0.249629 0.315492
0.258597 0.249631 0.315493
0.258719 0.249642 0.315497
0.259062 0.249673 0.315507
0.259831 0.249742 0.315530
0.261315 0.249876 0.315574
0.263885 0.250110 0.315652
0.267988 0.250489 0.315779
0.274113 0.251069 0.315975
0.282751 0.251916 0.316264
0.294341 0.253107 0.316676
0.309215 0.254730 0.317247
0.327557 0.256882 0.318021
0.349390 0.259668 0.319051
0.374583 0.263201 0.320402
0.402876 0.267598 0.322148
0.433913 0.272973 0.324378
0.467269 0.279437 0.327193
0.502470 0.287090 0.330706
0.539007 0.296016 0.335039
0.576332 0.306282 0.340325
0.613862 0.317935 0.346704
0.650964 0.331000 0.354318
0.686983 0.345441 0.363270
0.721924 0.360444 0.372918
0.754865 0.376004 0.383381
0.785204 0.391663 0.394334
0.812308 0.406825 0.405306
0.835490 0.420749 0.415669
0.853956 0.432521 0.424629
0.866728 0.441041 0.431218
0.872489 0.444990 0.434300
0.872646 0.445098 0.434385
0.259283 0.253793 0.315713
0.259310 0.253795 0.315713
0.259431 0.253806 0.315717
0.259773 0.253836 0.315727
0.260539 0.253904 0.315750
0.262018 0.254035 0.315794
0.264580 0.254265 0.315872
0.268670 0.254637 0.315998
0.274778 0.255205 0.316195
0.283394 0.256034 0.316486
0.294956 0.257201 0.316900
0.309797 0.258790 0.317473
0.328103 0.260898 0.318251
0.349899 0.263630 0.319285
0.375054 0.267095 0.320640
0.403312 0.271409 0.322392
0.434316 0.276687 0.324629
0.467641 0.283040 0.327452
0.502816 0.290567 0.330972
0.539330 0.299354 0.335314
0.576636 0.309471 0.340610
0.614150 0.320968 0.347000
0.651238 0.333871 0.354626
0.687239 0.348155 0.363598
0.722170 0.363002 0.373257
0.755103 0.378416 0.383728
0.785435 0.393939 0.394688
0.812535 0.408981 0.405666
0.835713 0.422802 0.416034
0.854177 0.434493 0.424997
0.866948 0.442957 0.431588
0.872708 0.446881 0.434671
0.872865 0.446988 0.434756
0.260371 0.260007 0.316051
0.260398 0.260010 0.316052
0.260518 0.260020 0.316056
0.260858 0.260050 0.316066
0.261621 0.260116 0.316089
0.263091 0.260244 0.316134
0.265640 0.260467 0.316211
0.269710 0.260830 0.316337
0.275791 0.261381 0.316532
0.284373 0.262185 0.316825
0.295893 0.263317 0.317241
0.310685 0.264858 0.317819
0.328936 0.266904 0.318601
0.350675 0.269556 0.319642
0.375773 0.272923 0.321004
0.403976 0.277118 0.322765
0.434930 0.282255 0.325012
0.468210 0.288446 0.327846
0.503345 0.295789 0.331379
0.539824 0.304375 0.335735
0.577101 0.314274 0.341045
0.614589 0.325539 0.347451
0.651656 0.338203 0.355096
0.687629 0.352254 0.364100
0.722545 0.366871 0.373773
0.755466 0.382066 0.384258
0.785789 0.397387 0.395229
0.812882 0.412249 0.406217
0.836055 0.425916 0.416592
0.854515 0.437486 0.425560
0.867284 0.445866 0.432154
0.873043 0.449752 0.435238
0.873199 0.449858 0.435323
0.261956 0.268769 0.316550
0.261982 0.268771 0.316551
0.262102 0.268781 0.316555
0.262439 0.268810 0.316565
0.263196 0.268873 0.316588
0.264655 0.268997 0.316633
0.267184 0.269213 0.316711
0.271224 0.269562 0.316838
0.277263 0.270094 0.317031
0.285795 0.270867 0.317317
0.297254 0.271951 0.317739
0.311974 0.273429 0.318322
0.330147 0.275391 0.319111
0.351803 0.277936 0.320161
0.376819 0.281170 0.321535
0.404943 0.285205 0.323308
0.435823 0.290152 0.325570
0.469038 0.296122 0.328420
0.504114 0.303216 0.331971
0.540543 0.311525 0.336346
0.577777 0.321124 0.341677
0.615229 0.332071 0.348107
0.652266 0.344402 0.355778
0.688201 0.358127 0.364827
0.723092 0.372426 0.374525
0.755996 0.387314 0.385029
0.786305 0.402350 0.396017
0.813388 0.416958 0.407018
0.836553 0.430408 0.417403
0.855008 0.441805 0.426378
0.867773 0.450066 0.432977
0.873531 0.453898 0.436064
0.873687 0.454003 0.436149
0.264175 0.280518 0.317260
0.264201 0.280520 0.317261
0.264319 0.280529 0.317264
0.264653 0.280556 0.317275
0.265401 0.280617 0.317298
0.266845 0.280735 0.317343
0.269348 0.280941 0.317422
0.273346 0.281274 0.317549
0.279325 0.281782 0.317744
0.287777 0.282520 0.318027
0.299150 0.283550 0.318435
0.313772 0.284947 0.319025
0.331836 0.286804 0.319825
0.353378 0.289215 0.320887
0.378280 0.292283 0.322276
0.406294 0.296114 0.324067
0.437073 0.300820 0.326349
0.470195 0.306509 0.329222
0.505191 0.313284 0.332797
0.541549 0.321237 0.337199
0.578723 0.330448 0.342561
0.616125 0.340981 0.349023
0.653121 0.352878 0.356732
0.689021 0.366156 0.365823
0.723859 0.380051 0.375576
0.756738 0.394531 0.386108
0.787028 0.409187 0.397119
0.814096 0.423454 0.408138
0.837250 0.436611 0.418538
0.855698 0.447775 0.427524
0.868459 0.455876 0.434129
0.874215 0.459635 0.437218
0.874371 0.459739 0.437303
0.267179 0.295583 0.318241
0.267205 0.295585 0.318242
0.267321 0.295595 0.318245
0.267650 0.295620 0.318256
0.268388 0.295677 0.318279
0.269811 0.295789 0.318325
0.272278 0.295983 0.318404
0.276222 0.296297 0.318533
0.282121 0.296777 0.318729
0.290466 0.297474 0.319014
0.301706 0.298447 0.319414
0.316194 0.299760 0.319978
0.334113 0.301493 0.320791
0.355502 0.303746 0.321870
0.380252 0.306615 0.323279
0.408120 0.310205 0.325094
0.438762 0.314623 0.327402
0.471761 0.319975 0.330305
0.506648 0.326365 0.333914
0.542912 0.333886 0.338352
0.580005 0.342623 0.343753
0.617340 0.352645 0.350259
0.654280 0.364003 0.358018
0.690134 0.376723 0.367167
0.724898 0.390111 0.376998
0.757744 0.404075 0.387566
0.788009 0.418249 0.398608
0.815057 0.432079 0.409653
0.838197 0.444861 0.420072
0.856634 0.455725 0.429072
0.869389 0.463617 0.435687
0.875142 0.467283 0.438780
0.875299 0.467384 0.438865
0.271130 0.314151 0.319566
0.271155 0.314153 0.319567
0.271269 0.314161 0.319570
0.271592 0.314185 0.319581
0.272316 0.314239 0.319605
0.273713 0.314343 0.319650
0.276135 0.314524 0.319731
0.280007 0.314818 0.319860
0.285804 0.315266 0.320059
0.294011 0.315918 0.320347
0.305076 0.316829 0.320751
0.319361 0.318059 0.321297
0.337091 0.319669 0.322060
0.358284 0.321745 0.323161
0.382837 0.324393 0.324595
0.410514 0.327712 0.326441
0.440979 0.331804 0.328784
0.473817 0.336774 0.331725
0.508562 0.342723 0.335376
0.544703 0.349747 0.339861
0.581692 0.357934 0.345313
0.618939 0.367359 0.351877
0.655806 0.378081 0.359701
0.691601 0.390136 0.368926
0.726268 0.402919 0.378865
0.759070 0.416261 0.389481
0.789301 0.429848 0.400564
0.816323 0.443144 0.411642
0.839444 0.455465 0.422087
0.857869 0.465958 0.431106
0.870615 0.473592 0.437733
0.876365 0.477141 0.440830
0.876522 0.477239 0.440916
0.276192 0.336245 0.321320
0.276217 0.336247 0.321321
0.276329 0.336255 0.321325
0.276644 0.336277 0.321335
0.277351 0.336327 0.321359
0.278715 0.336423 0.321406
0.281080 0.336591 0.321487
0.284865 0.336864 0.321618
0.290534 0.337280 0.321819
0.298569 0.337884 0.322111
0.309415 0.338730 0.322519
0.323440 0.339872 0.323072
0.340883 0.341371 0.323799
0.361829 0.343281 0.324812
0.386133 0.345694 0.326279
0.413571 0.348723 0.328162
0.443812 0.352465 0.330548
0.476447 0.357021 0.333537
0.511012 0.362491 0.337242
0.546997 0.368970 0.341785
0.583853 0.376549 0.347301
0.620990 0.385308 0.353938
0.657766 0.395314 0.361844
0.693487 0.406613 0.371166
0.728027 0.418704 0.381253
0.760774 0.431328 0.391931
0.790962 0.444231 0.403066
0.817951 0.456902 0.414187
0.841047 0.468678 0.424665
0.859455 0.478731 0.433708
0.872191 0.486059 0.440349
0.877937 0.489469 0.443454
0.878093 0.489562 0.443539
0.282529 0.361745 0.323603
0.282553 0.361747 0.323604
0.282661 0.361754 0.323608
0.282967 0.361775 0.323619
0.283653 0.361821 0.323643
0.284977 0.361909 0.323690
0.287276 0.362065 0.323772
0.290955 0.362316 0.323906
0.296470 0.362699 0.324109
0.304296 0.363257 0.324404
0.314877 0.364037 0.324818
0.328583 0.365092 0.325378
0.345665 0.366477 0.326115
0.366236 0.368248 0.327058
0.390238 0.370451 0.328382
0.417382 0.373183 0.330310
0.447348 0.376566 0.332747
0.479733 0.380695 0.335795
0.514075 0.385665 0.339563
0.549868 0.391572 0.344176
0.586561 0.398507 0.349771
0.623561 0.406553 0.356496
0.660226 0.415785 0.364505
0.695858 0.426259 0.373946
0.730237 0.437592 0.384237
0.762915 0.449418 0.394991
0.793048 0.461558 0.406191
0.819995 0.473524 0.417365
0.843061 0.484681 0.427885
0.861448 0.494231 0.436958
0.874172 0.501207 0.443619
0.879912 0.504457 0.446731
0.880068 0.504547 0.446817
0.290288 0.390413 0.326529
0.290311 0.390414 0.326530
0.290416 0.390421 0.326534
0.290711 0.390439 0.326545
0.291373 0.390482 0.326570
0.292652 0.390563 0.326617
0.294871 0.390706 0.326701
0.298426 0.390937 0.326836
0.303762 0.391289 0.327042
0.311342 0.391802 0.327342
0.321610 0.392520 0.327761
0.334939 0.393490 0.328329
0.351590 0.394765 0.329075
0.371692 0.396396 0.330031
0.395231 0.398437 0.331227
0.422028 0.400918 0.332930
0.451663 0.403944 0.335428
0.483747 0.407646 0.338542
0.517822 0.412115 0.342385
0.553383 0.417443 0.347081
0.589879 0.423719 0.352769
0.626716 0.431031 0.359598
0.663249 0.439457 0.367729
0.698776 0.449063 0.377315
0.732955 0.459591 0.387883
0.765549 0.470567 0.398730
0.795616 0.481883 0.410011
0.822513 0.493082 0.421250
0.845541 0.503561 0.431821
0.863903 0.512559 0.440930
0.876611 0.519145 0.447615
0.882344 0.522217 0.450737
0.882500 0.522302 0.450823
0.299597 0.421922 0.330222
0.299620 0.421923 0.330223
0.299720 0.421929 0.330227
0.300003 0.421946 0.330238
0.300638 0.421985 0.330263
0.301865 0.422060 0.330311
0.303995 0.422191 0.330396
0.307410 0.422403 0.330533
0.312541 0.422727 0.330742
0.319842 0.423198 0.331046
0.329750 0.423857 0.331471
0.342642 0.424749 0.332046
0.358793 0.425921 0.332802
0.378347 0.427422 0.333771
0.401312 0.429300 0.334982
0.427566 0.431600 0.336466
0.456822 0.434338 0.338625
0.488552 0.437627 0.341814
0.522312 0.441608 0.345741
0.557600 0.446367 0.350530
0.593865 0.451992 0.356323
0.630511 0.458569 0.363273
0.666891 0.466182 0.371547
0.702299 0.474900 0.381303
0.736236 0.484603 0.392251
0.768729 0.494699 0.403209
0.798716 0.505155 0.414584
0.825553 0.515547 0.425902
0.848537 0.525308 0.436534
0.866868 0.533714 0.445688
0.879557 0.539882 0.452401
0.885283 0.542764 0.455536
0.885439 0.542843 0.455622
0.310552 0.455893 0.334813
0.310573 0.455894 0.334814
0.310669 0.455900 0.334818
0.310939 0.455916 0.334829
0.311544 0.455951 0.334855
0.312714 0.456020 0.334904
0.314746 0.456141 0.334989
0.318006 0.456336 0.335128
0.322910 0.456633 0.335339
0.329901 0.457066 0.335647
0.339408 0.457673 0.336078
0.351810 0.458493 0.336660
0.367393 0.459571 0.337425
0.386321 0.460953 0.338405
0.408625 0.462682 0.339630
0.434206 0.464801 0.341131
0.462854 0.467348 0.342931
0.494191 0.470316 0.345630
0.527588 0.473833 0.349646
0.562561 0.478048 0.354536
0.598560 0.483044 0.360444
0.634989 0.488906 0.367529
0.671195 0.495717 0.375963
0.706471 0.503552 0.385914
0.740126 0.512423 0.397381
0.772501 0.521635 0.408469
0.802395 0.531220 0.419957
0.829160 0.540787 0.431367
0.852092 0.549807 0.442071
0.870387 0.557601 0.451278
0.883054 0.563333 0.458025
0.888770 0.566015 0.461175
0.888926 0.566089 0.461261
0.323206 0.491910 0.340434
0.323227 0.491912 0.340435
0.323317 0.491917 0.340439
0.323573 0.491931 0.340450
0.324146 0.491964 0.340476
0.325255 0.492028 0.340525
0.327182 0.492139 0.340612
0.330276 0.492318 0.340752
0.334937 0.492593 0.340966
0.341591 0.492992 0.341277
0.350661 0.493551 0.341712
0.362526 0.494307 0.342300
0.377483 0.495302 0.343073
0.395713 0.496576 0.344062
0.417274 0.498172 0.345299
0.442091 0.500129 0.346812
0.469980 0.502482 0.348627
0.500661 0.505258 0.350763
0.533670 0.508427 0.354094
0.568287 0.512131 0.359087
0.603988 0.516532 0.365115
0.640173 0.521711 0.372344
0.676189 0.527749 0.380954
0.711324 0.534723 0.391123
0.744809 0.542694 0.402988
0.776898 0.551111 0.414536
0.806684 0.559833 0.426152
0.833368 0.568577 0.437668
0.856240 0.576853 0.448457
0.874492 0.584028 0.457725
0.887134 0.589318 0.464512
0.892839 0.591797 0.467678
0.892995 0.591865 0.467765
0.337567 0.529537 0.347208
0.337586 0.529538 0.347209
0.337672 0.529542 0.347213
0.337912 0.529556 0.347225
0.338453 0.529586 0.347251
0.339498 0.529645 0.347301
0.341316 0.529748 0.347388
0.344236 0.529914 0.347529
0.348641 0.530168 0.347744
0.354940 0.530537 0.348058
0.363548 0.531055 0.348496
0.374839 0.531755 0.349088
0.389120 0.532675 0.349866
0.406592 0.533855 0.350862
0.427335 0.535334 0.352107
0.451306 0.537147 0.353629
0.478344 0.539328 0.355454
0.508194 0.541902 0.357601
0.540518 0.544887 0.360078
0.574774 0.548223 0.364142
0.610144 0.552070 0.370289
0.646063 0.556607 0.377664
0.681875 0.561911 0.386459
0.716864 0.568061 0.396862
0.750255 0.575119 0.409021
0.781939 0.582790 0.421408
0.811605 0.590675 0.433169
0.838195 0.598615 0.444806
0.860999 0.606160 0.455690
0.879204 0.612722 0.465029
0.891816 0.617573 0.471861
0.897510 0.619850 0.475048
0.897665 0.619913 0.475135
0.353594 0.568316 0.355244
0.353612 0.568316 0.355245
0.353692 0.568321 0.355249
0.353918 0.568333 0.355261
0.354425 0.568362 0.355287
0.355405 0.568416 0.355337
0.357111 0.568512 0.355424
0.359854 0.568666 0.355566
0.363997 0.568902 0.355782
0.369931 0.569246 0.356097
0.378059 0.569727 0.356537
0.388752 0.570378 0.357131
0.402321 0.571234 0.357912
0.418986 0.572332 0.358912
0.438851 0.573708 0.360160
0.461902 0.575396 0.361687
0.488007 0.577426 0.363517
0.516936 0.579824 0.365668
0.548373 0.582605 0.368149
0.581936 0.585776 0.370960
0.616995 0.589238 0.375879
0.652629 0.593181 0.383393
0.688227 0.597798 0.392372
0.723070 0.603167 0.403019
0.756377 0.609353 0.415494
0.787626 0.616278 0.429057
0.817157 0.623365 0.440980
0.843644 0.630533 0.452752
0.866372 0.637372 0.463743
0.884524 0.643340 0.473161
0.897105 0.647763 0.480045
0.902785 0.649842 0.483253
0.902939 0.649900 0.483341
0.371202 0.607773 0.364628
0.371219 0.607774 0.364629
0.371294 0.607778 0.364633
0.371504 0.607790 0.364645
0.371978 0.607816 0.364671
0.372894 0.607867 0.364721
0.374488 0.607956 0.364808
0.377054 0.608101 0.364950
0.380933 0.608322 0.365167
0.386501 0.608643 0.365482
0.394142 0.609093 0.365922
0.404223 0.609701 0.366517
0.417060 0.610502 0.367299
0.432884 0.611529 0.368299
0.451825 0.612816 0.369548
0.473897 0.614395 0.371075
0.498998 0.616296 0.372905
0.526926 0.618540 0.375055
0.557389 0.621145 0.377534
0.590023 0.624116 0.380342
0.624406 0.627446 0.383464
0.659804 0.630990 0.389395
0.695183 0.634974 0.398545
0.729886 0.639612 0.409434
0.763125 0.644973 0.422234
0.794073 0.651098 0.436994
0.823321 0.657473 0.449525
0.849695 0.663911 0.461444
0.872340 0.670078 0.472553
0.890435 0.675479 0.482058
0.902980 0.679492 0.488999
0.908645 0.681380 0.492232
0.908800 0.681433 0.492321
0.390270 0.647409 0.375426
0.390285 0.647410 0.375427
0.390354 0.647414 0.375431
0.390551 0.647425 0.375442
0.390992 0.647450 0.375468
0.391844 0.647498 0.375518
0.393330 0.647582 0.375606
0.395722 0.647718 0.375747
0.399342 0.647925 0.375964
0.404546 0.648228 0.376278
0.411703 0.648651 0.376718
0.421172 0.649224 0.377312
0.433268 0.649977 0.378093
0.448235 0.650944 0.379092
0.466223 0.652155 0.380339
0.487272 0.653642 0.381865
0.511314 0.655431 0.383692
0.538174 0.657545 0.385839
0.567586 0.660000 0.388314
0.599208 0.662800 0.391117
0.632632 0.665939 0.394233
0.667396 0.669399 0.397634
0.702642 0.672974 0.404783
0.737214 0.676937 0.415897
0.770407 0.681526 0.429020
0.801383 0.686788 0.444209
0.830051 0.692525 0.458712
0.856304 0.698280 0.470789
0.878860 0.703817 0.482025
0.896893 0.708683 0.491625
0.909400 0.712308 0.498628
0.915050 0.714017 0.501888
0.915204 0.714064 0.501978
0.410645 0.686694 0.387679
0.410660 0.686695 0.387680
0.410724 0.686698 0.387684
0.410906 0.686709 0.387695
0.411316 0.686732 0.387721
0.412108 0.686778 0.387771
0.413488 0.686857 0.387858
0.415712 0.686986 0.388000
0.419082 0.687182 0.388216
0.423932 0.687469 0.388530
0.430617 0.687869 0.388969
0.439483 0.688412 0.389563
0.450843 0.689126 0.390343
0.464950 0.690041 0.391340
0.481971 0.691189 0.392587
0.501972 0.692597 0.394111
0.524915 0.694293 0.395936
0.550655 0.696298 0.398082
0.578953 0.698626 0.400556
0.609490 0.701282 0.403358
0.641876 0.704262 0.406474
0.675663 0.707548 0.409875
0.710347 0.711105 0.413518
0.744915 0.714654 0.422155
0.778088 0.718528 0.435582
0.809129 0.722981 0.451198
0.837273 0.728008 0.468413
0.863398 0.733133 0.480658
0.885860 0.738085 0.492028
0.903828 0.742453 0.501729
0.916295 0.745717 0.508798
0.921928 0.747258 0.512087
0.922081 0.747300 0.512178
0.432152 0.725053 0.401402
0.432165 0.725054 0.401402
0.432225 0.725058 0.401406
0.432394 0.725068 0.401418
0.432773 0.725090 0.401444
0.433507 0.725133 0.401494
0.434787 0.725209 0.401581
0.436852 0.725332 0.401723
0.439982 0.725519 0.401939
0.444493 0.725792 0.402254
0.450723 0.726174 0.402693
0.459003 0.726692 0.403288
0.469645 0.727373 0.404069
0.482903 0.728246 0.405068
0.498960 0.729341 0.406317
0.517905 0.730685 0.407844
0.539727 0.732304 0.409675
0.564310 0.734218 0.411826
0.591445 0.736442 0.414309
0.620838 0.738981 0.417122
0.652118 0.741831 0.420252
0.684853 0.744974 0.423671
0.718550 0.748379 0.427335
0.752663 0.751998 0.431185
0.785985 0.755456 0.441619
0.817089 0.759154 0.457939
0.845309 0.763371 0.476110
0.870872 0.767919 0.490884
0.893236 0.772335 0.502393
0.911137 0.776245 0.512200
0.923562 0.779174 0.519339
0.929178 0.780560 0.522659
0.929331 0.780598 0.522750
0.454570 0.761869 0.416563
0.454583 0.761869 0.416564
0.454638 0.761873 0.416568
0.454794 0.761882 0.416580
0.455146 0.761904 0.416606
0.455826 0.761945 0.416656
0.457012 0.762018 0.416744
0.458926 0.762136 0.416887
0.461830 0.762316 0.417104
0.466021 0.762578 0.417421
0.471817 0.762945 0.417863
0.479539 0.763442 0.418462
0.489487 0.764096 0.419248
0.501920 0.764935 0.420255
0.517031 0.765988 0.421513
0.534929 0.767280 0.423052
0.555625 0.768838 0.424898
0.579035 0.770679 0.427069
0.604976 0.772820 0.429576
0.633181 0.775266 0.432420
0.663302 0.778013 0.435586
0.694922 0.781044 0.439049
0.727564 0.784331 0.442765
0.760691 0.787789 0.447071
0.793620 0.791348 0.452393
0.824943 0.794645 0.465644
0.853394 0.798157 0.483681
0.878585 0.802042 0.501264
0.900850 0.805971 0.512916
0.918682 0.809465 0.522831
0.931066 0.812090 0.530041
0.936664 0.813334 0.533392
0.936816 0.813369 0.533484
0.477605 0.796470 0.433041
0.477616 0.796471 0.433042
0.477667 0.796474 0.433046
0.477812 0.796483 0.433058
0.478138 0.796504 0.433084
0.478768 0.796544 0.433135
0.479867 0.796615 0.433224
0.481641 0.796729 0.433369
0.484335 0.796903 0.433589
0.488227 0.797157 0.433910
0.493617 0.797512 0.434359
0.500812 0.797993 0.434966
0.510103 0.798626 0.435763
0.521747 0.799438 0.436784
0.535945 0.800458 0.438061
0.552820 0.801710 0.439625
0.572407 0.803219 0.441501
0.594648 0.805005 0.443710
0.619387 0.807083 0.446263
0.646382 0.809457 0.449162
0.675309 0.812126 0.452394
0.705855 0.814990 0.456465
0.737458 0.818063 0.461285
0.769504 0.821375 0.466442
