app/src/main/assets/luts/film_muted_frame.cube
# V-Cam procedural LUT — film_muted_frame
# Generated by LutBaker. Do not edit by hand.
TITLE "V-Cam film_muted_frame"
LUT_3D_SIZE 9
DOMAIN_MIN 0.0 0.0 0.0
DOMAIN_MAX 1.0 1.0 1.0
0.039200 0.039200 0.039200
0.146940 0.043452 0.045564
0.254681 0.047705 0.051929
0.362421 0.051957 0.058293
0.470161 0.056209 0.064657
0.577902 0.060462 0.071022
0.685642 0.064714 0.077386
0.793382 0.068966 0.083750
0.901123 0.073219 0.090115
0.049682 0.151058 0.047570
0.157422 0.155310 0.053934
0.265162 0.159562 0.060299
0.372903 0.163815 0.066663
0.480643 0.168067 0.073027
0.588383 0.172319 0.079391
0.696124 0.176572 0.085756
0.803864 0.180824 0.092120
0.911604 0.185076 0.098484
0.060164 0.262916 0.055940
0.167904 0.267168 0.062304
0.275644 0.271420 0.068668
0.383385 0.275673 0.075033
0.491125 0.279925 0.081397
0.598865 0.284177 0.087761
0.706606 0.288430 0.094126
0.814346 0.292682 0.100490
0.922086 0.296934 0.106854
0.070646 0.374774 0.064310
0.178386 0.379026 0.070674
0.286126 0.383278 0.077038
0.393867 0.387531 0.083403
0.501607 0.391783 0.089767
0.609347 0.396035 0.096131
0.717088 0.400288 0.102495
0.824828 0.404540 0.108860
0.932568 0.408792 0.115224
0.081127 0.486631 0.072679
0.188868 0.490884 0.079044
0.296608 0.495136 0.085408
0.404348 0.499388 0.091772
0.512089 0.503641 0.098137
0.619829 0.507893 0.104501
0.727569 0.512145 0.110865
0.835310 0.516398 0.117230
0.943050 0.520650 0.123594
0.091609 0.598489 0.081049
0.199350 0.602742 0.087414
0.307090 0.606994 0.093778
0.414830 0.611246 0.100142
0.522571 0.615499 0.106507
0.630311 0.619751 0.112871
0.738051 0.624003 0.119235
0.845792 0.628255 0.125600
0.953532 0.632508 0.131964
0.102091 0.710347 0.089419
0.209831 0.714599 0.095783
0.317572 0.718852 0.102148
0.425312 0.723104 0.108512
0.533052 0.727356 0.114876
0.640793 0.731609 0.121241
0.748533 0.735861 0.127605
0.856273 0.740113 0.133969
0.964014 0.744366 0.140334
0.112573 0.822205 0.097789
0.220313 0.826457 0.104153
0.328054 0.830710 0.110518
0.435794 0.834962 0.116882
0.543534 0.839214 0.123246
0.651275 0.843467 0.129611
0.759015 0.847719 0.135975
0.866755 0.851971 0.142339
0.974496 0.856224 0.148704
0.123055 0.934063 0.106159
0.230795 0.938315 0.112523
0.338536 0.942567 0.118888
0.446276 0.946820 0.125252
0.554016 0.951072 0.131616
0.661756 0.955324 0.137980
0.769497 0.959577 0.144345
0.877237 0.963829 0.150709
0.984977 0.968081 0.157073
0.040978 0.043090 0.144466
0.148718 0.047342 0.150830
0.256458 0.051594 0.157194
0.364199 0.055847 0.163559
0.471939 0.060099 0.169923
0.579679 0.064351 0.176287
0.687420 0.068604 0.182652
0.795160 0.072856 0.189016
0.902900 0.077108 0.195380
0.051460 0.154948 0.152836
0.159200 0.159200 0.159200
0.266940 0.163452 0.165564
0.374681 0.167705 0.171929
0.482421 0.171957 0.178293
0.590161 0.176209 0.184657
0.697902 0.180462 0.191022
0.805642 0.184714 0.197386
0.913382 0.188966 0.203750
0.061942 0.266806 0.161206
0.169682 0.271058 0.167570
0.277422 0.275310 0.173934
0.385163 0.279563 0.180298
0.492903 0.283815 0.186663
0.600643 0.288067 0.193027
0.708383 0.292319 0.199391
0.816124 0.296572 0.205756
0.923864 0.300824 0.212120
0.072423 0.378663 0.169575
0.180164 0.382916 0.175940
0.287904 0.387168 0.182304
0.395644 0.391420 0.188668
0.503385 0.395673 0.195033
0.611125 0.399925 0.201397
0.718865 0.404177 0.207761
0.826606 0.408430 0.214126
0.934346 0.412682 0.220490
0.082905 0.490521 0.177945
0.190646 0.494774 0.184310
0.298386 0.499026 0.190674
0.406126 0.503278 0.197038
0.513867 0.507531 0.203403
0.621607 0.511783 0.209767
0.729347 0.516035 0.216131
0.837088 0.520288 0.222495
0.944828 0.524540 0.228860
0.093387 0.602379 0.186315
0.201127 0.606631 0.192679
0.308868 0.610884 0.199044
0.416608 0.615136 0.205408
0.524348 0.619388 0.211772
0.632089 0.623641 0.218137
0.739829 0.627893 0.224501
0.847569 0.632145 0.230865
0.955310 0.636398 0.237230
0.103869 0.714237 0.194685
0.211609 0.718489 0.201049
0.319350 0.722742 0.207414
0.427090 0.726994 0.213778
0.534830 0.731246 0.220142
0.642570 0.735499 0.226507
0.750311 0.739751 0.232871
0.858051 0.744003 0.239235
0.965791 0.748256 0.245600
0.114351 0.826095 0.203055
0.222091 0.830347 0.209419
0.329831 0.834599 0.215783
0.437572 0.838852 0.222148
0.545312 0.843104 0.228512
0.653052 0.847356 0.234876
0.760793 0.851609 0.241241
0.868533 0.855861 0.247605
0.976273 0.860113 0.253969
0.124833 0.937953 0.211425
0.232573 0.942205 0.217789
0.340313 0.946457 0.224153
0.448054 0.950710 0.230518
0.555794 0.954962 0.236882
0.663534 0.959214 0.243246
0.771275 0.963467 0.249611
0.879015 0.967719 0.255975
0.986755 0.971971 0.262339
0.042756 0.046980 0.249732
0.150496 0.051232 0.256096
0.258236 0.055484 0.262460
0.365977 0.059737 0.268825
0.473717 0.063989 0.275189
0.581457 0.068241 0.281553
0.689198 0.072494 0.287918
0.796938 0.076746 0.294282
0.904678 0.080998 0.300646
0.053238 0.158837 0.258102
0.160978 0.163090 0.264466
0.268718 0.167342 0.270830
0.376458 0.171594 0.277194
0.484199 0.175847 0.283559
0.591939 0.180099 0.289923
0.699679 0.184351 0.296287
0.807420 0.188604 0.302652
0.915160 0.192856 0.309016
0.063719 0.270695 0.266471
0.171460 0.274948 0.272836
0.279200 0.279200 0.279200
0.386940 0.283452 0.285564
0.494681 0.287705 0.291929
0.602421 0.291957 0.298293
0.710161 0.296209 0.304657
0.817902 0.300462 0.311022
0.925642 0.304714 0.317386
0.074201 0.382553 0.274841
0.181942 0.386806 0.281206
0.289682 0.391058 0.287570
0.397422 0.395310 0.293934
0.505162 0.399563 0.300299
0.612903 0.403815 0.306663
0.720643 0.408067 0.313027
0.828383 0.412319 0.319391
0.936124 0.416572 0.325756
0.084683 0.494411 0.283211
0.192423 0.498663 0.289575
0.300164 0.502916 0.295940
0.407904 0.507168 0.302304
0.515644 0.511420 0.308668
0.623385 0.515673 0.315033
0.731125 0.519925 0.321397
0.838865 0.524177 0.327761
0.946606 0.528430 0.334126
0.095165 0.606269 0.291581
0.202905 0.610521 0.297945
0.310646 0.614774 0.304310
0.418386 0.619026 0.310674
0.526126 0.623278 0.317038
0.633866 0.627531 0.323403
0.741607 0.631783 0.329767
0.849347 0.636035 0.336131
0.957087 0.640287 0.342496
0.105647 0.718127 0.299951
0.213387 0.722379 0.306315
0.321127 0.726631 0.312679
0.428868 0.730884 0.319044
0.536608 0.735136 0.325408
0.644348 0.739388 0.331772
0.752089 0.743641 0.338137
0.859829 0.747893 0.344501
0.967569 0.752145 0.350865
0.116129 0.829985 0.308321
0.223869 0.834237 0.314685
0.331609 0.838489 0.321049
0.439350 0.842742 0.327414
0.547090 0.846994 0.333778
0.654830 0.851246 0.340142
0.762571 0.855499 0.346507
0.870311 0.859751 0.352871
0.978051 0.864003 0.359235
0.126611 0.941842 0.316691
0.234351 0.946095 0.323055
0.342091 0.950347 0.329419
0.449832 0.954599 0.335783
0.557572 0.958852 0.342148
0.665312 0.963104 0.348512
0.773052 0.967356 0.354876
0.880793 0.971609 0.361241
0.988533 0.975861 0.367605
0.044533 0.050869 0.354998
0.152274 0.055122 0.361362
0.260014 0.059374 0.367726
0.367754 0.063626 0.374090
0.475495 0.067879 0.380455
0.583235 0.072131 0.386819
0.690975 0.076383 0.393183
0.798716 0.080636 0.399548
0.906456 0.084888 0.405912
0.055015 0.162727 0.363367
0.162756 0.166980 0.369732
0.270496 0.171232 0.376096
0.378236 0.175484 0.382460
0.485977 0.179737 0.388825
0.593717 0.183989 0.395189
0.701457 0.188241 0.401553
0.809198 0.192494 0.407918
0.916938 0.196746 0.414282
0.065497 0.274585 0.371737
0.173238 0.278838 0.378102
0.280978 0.283090 0.384466
0.388718 0.287342 0.390830
0.496458 0.291595 0.397195
0.604199 0.295847 0.403559
0.711939 0.300099 0.409923
0.819679 0.304351 0.416287
0.927420 0.308604 0.422652
0.075979 0.386443 0.380107
0.183719 0.390695 0.386471
0.291460 0.394948 0.392836
0.399200 0.399200 0.399200
0.506940 0.403452 0.405564
0.614681 0.407705 0.411929
0.722421 0.411957 0.418293
0.830161 0.416209 0.424657
0.937902 0.420462 0.431022
0.086461 0.498301 0.388477
0.194201 0.502553 0.394841
0.301942 0.506806 0.401206
0.409682 0.511058 0.407570
0.517422 0.515310 0.413934
0.625162 0.519562 0.420299
0.732903 0.523815 0.426663
0.840643 0.528067 0.433027
0.948383 0.532319 0.439391
0.096943 0.610159 0.396847
0.204683 0.614411 0.403211
0.312423 0.618663 0.409575
0.420164 0.622916 0.415940
0.527904 0.627168 0.422304
0.635644 0.631420 0.428668
0.743385 0.635673 0.435033
0.851125 0.639925 0.441397
0.958865 0.644177 0.447761
0.107425 0.722017 0.405217
0.215165 0.726269 0.411581
0.322905 0.730521 0.417945
0.430646 0.734774 0.424310
0.538386 0.739026 0.430674
0.646126 0.743278 0.437038
0.753866 0.747531 0.443403
0.861607 0.751783 0.449767
0.969347 0.756035 0.456131
0.117906 0.833874 0.413586
0.225647 0.838127 0.419951
0.333387 0.842379 0.426315
0.441127 0.846631 0.432679
0.548868 0.850884 0.439044
0.656608 0.855136 0.445408
0.764348 0.859388 0.451772
0.872089 0.863641 0.458137
0.979829 0.867893 0.464501
0.128388 0.945732 0.421956
0.236129 0.949985 0.428321
0.343869 0.954237 0.434685
0.451609 0.958489 0.441049
0.559350 0.962742 0.447414
0.667090 0.966994 0.453778
0.774830 0.971246 0.460142
0.882571 0.975499 0.466507
0.990311 0.979751 0.472871
0.046311 0.054759 0.460263
0.154052 0.059012 0.466628
0.261792 0.063264 0.472992
0.369532 0.067516 0.479356
0.477273 0.071769 0.485721
0.585013 0.076021 0.492085
0.692753 0.080273 0.498449
0.800494 0.084526 0.504814
0.908234 0.088778 0.511178
0.056793 0.166617 0.468633
0.164533 0.170869 0.474997
0.272274 0.175122 0.481362
0.380014 0.179374 0.487726
0.487754 0.183626 0.494090
0.595495 0.187879 0.500455
0.703235 0.192131 0.506819
0.810975 0.196383 0.513183
0.918716 0.200636 0.519548
0.067275 0.278475 0.477003
0.175015 0.282727 0.483367
0.282756 0.286980 0.489732
0.390496 0.291232 0.496096
0.498236 0.295484 0.502460
0.605977 0.299737 0.508825
0.713717 0.303989 0.515189
0.821457 0.308241 0.521553
0.929198 0.312494 0.527918
0.077757 0.390333 0.485373
0.185497 0.394585 0.491737
0.293238 0.398838 0.498102
0.400978 0.403090 0.504466
0.508718 0.407342 0.510830
0.616458 0.411595 0.517194
0.724199 0.415847 0.523559
0.831939 0.420099 0.529923
0.939679 0.424351 0.536287
0.088239 0.502191 0.493743
0.195979 0.506443 0.500107
0.303719 0.510695 0.506471
0.411460 0.514948 0.512836
0.519200 0.519200 0.519200
0.626940 0.523452 0.525564
0.734681 0.527705 0.531929
0.842421 0.531957 0.538293
0.950161 0.536209 0.544657
0.098721 0.614049 0.502113
0.206461 0.618301 0.508477
0.314201 0.622553 0.514841
0.421942 0.626806 0.521206
0.529682 0.631058 0.527570
0.637422 0.635310 0.533934
0.745162 0.639562 0.540298
0.852903 0.643815 0.546663
0.960643 0.648067 0.553027
0.109202 0.725906 0.510482
0.216943 0.730159 0.516847
0.324683 0.734411 0.523211
0.432423 0.738663 0.529575
0.540164 0.742916 0.535940
0.647904 0.747168 0.542304
0.755644 0.751420 0.548668
0.863385 0.755673 0.555033
0.971125 0.759925 0.561397
0.119684 0.837764 0.518852
0.227425 0.842017 0.525217
0.335165 0.846269 0.531581
0.442905 0.850521 0.537945
0.550646 0.854774 0.544310
0.658386 0.859026 0.550674
0.766126 0.863278 0.557038
0.873867 0.867531 0.563403
0.981607 0.871783 0.569767
0.130166 0.949622 0.527222
0.237906 0.953874 0.533587
0.345647 0.958127 0.539951
0.453387 0.962379 0.546315
0.561127 0.966631 0.552679
0.668868 0.970884 0.559044
0.776608 0.975136 0.565408
0.884348 0.979388 0.571772
0.992089 0.983641 0.578137
0.048089 0.058649 0.565529
0.155829 0.062901 0.571893
0.263570 0.067154 0.578258
0.371310 0.071406 0.584622
0.479050 0.075658 0.590986
0.586791 0.079911 0.597351
0.694531 0.084163 0.603715
0.802271 0.088415 0.610079
0.910012 0.092668 0.616444
0.058571 0.170507 0.573899
0.166311 0.174759 0.580263
0.274052 0.179012 0.586628
0.381792 0.183264 0.592992
0.489532 0.187516 0.599356
0.597273 0.191769 0.605721
0.705013 0.196021 0.612085
0.812753 0.200273 0.618449
0.920494 0.204526 0.624813
0.069053 0.282365 0.582269
0.176793 0.286617 0.588633
0.284534 0.290869 0.594997
0.392274 0.295122 0.601362
0.500014 0.299374 0.607726
0.607754 0.303626 0.614090
0.715495 0.307879 0.620455
0.823235 0.312131 0.626819
0.930975 0.316383 0.633183
0.079535 0.394223 0.590639
0.187275 0.398475 0.597003
0.295015 0.402727 0.603367
0.402756 0.406980 0.609732
0.510496 0.411232 0.616096
0.618236 0.415484 0.622460
0.725977 0.419737 0.628825
0.833717 0.423989 0.635189
0.941457 0.428241 0.641553
0.090017 0.506081 0.599009
0.197757 0.510333 0.605373
0.305497 0.514585 0.611737
0.413238 0.518838 0.618101
0.520978 0.523090 0.624466
0.628718 0.527342 0.630830
0.736458 0.531594 0.637194
0.844199 0.535847 0.643559
0.951939 0.540099 0.649923
0.100498 0.617938 0.607378
0.208239 0.622191 0.613743
0.315979 0.626443 0.620107
0.423719 0.630695 0.626471
0.531460 0.634948 0.632836
0.639200 0.639200 0.639200
0.746940 0.643452 0.645564
0.854681 0.647705 0.651929
0.962421 0.651957 0.658293
0.110980 0.729796 0.615748
0.218721 0.734049 0.622113
0.326461 0.738301 0.628477
0.434201 0.742553 0.634841
0.541942 0.746806 0.641206
0.649682 0.751058 0.647570
0.757422 0.755310 0.653934
0.865162 0.759562 0.660298
0.972903 0.763815 0.666663
0.121462 0.841654 0.624118
0.229202 0.845906 0.630482
0.336943 0.850159 0.636847
0.444683 0.854411 0.643211
0.552423 0.858663 0.649575
0.660164 0.862916 0.655940
0.767904 0.867168 0.662304
0.875644 0.871420 0.668668
0.983385 0.875673 0.675033
0.131944 0.953512 0.632488
0.239684 0.957764 0.638852
0.347425 0.962017 0.645217
0.455165 0.966269 0.651581
0.562905 0.970521 0.657945
0.670646 0.974774 0.664310
0.778386 0.979026 0.670674
0.886126 0.983278 0.677038
0.993867 0.987531 0.683403
0.049867 0.062539 0.670795
0.157607 0.066791 0.677159
0.265348 0.071044 0.683524
0.373088 0.075296 0.689888
0.480828 0.079548 0.696252
0.588569 0.083801 0.702617
0.696309 0.088053 0.708981
0.804049 0.092305 0.715345
0.911789 0.096558 0.721709
0.060349 0.174397 0.679165
0.168089 0.178649 0.685529
0.275829 0.182901 0.691893
0.383570 0.187154 0.698258
0.491310 0.191406 0.704622
0.599050 0.195658 0.710986
0.706791 0.199911 0.717351
0.814531 0.204163 0.723715
0.922271 0.208415 0.730079
0.070831 0.286255 0.687535
0.178571 0.290507 0.693899
0.286311 0.294759 0.700263
0.394052 0.299012 0.706628
0.501792 0.303264 0.712992
0.609532 0.307516 0.719356
0.717273 0.311769 0.725721
0.825013 0.316021 0.732085
0.932753 0.320273 0.738449
0.081313 0.398113 0.695904
0.189053 0.402365 0.702269
0.296793 0.406617 0.708633
0.404534 0.410870 0.714997
0.512274 0.415122 0.721362
0.620014 0.419374 0.727726
0.727754 0.423626 0.734090
0.835495 0.427879 0.740455
0.943235 0.432131 0.746819
0.091794 0.509970 0.704274
0.199535 0.514223 0.710639
0.307275 0.518475 0.717003
0.415015 0.522727 0.723367
0.522756 0.526980 0.729732
0.630496 0.531232 0.736096
0.738236 0.535484 0.742460
0.845977 0.539737 0.748825
0.953717 0.543989 0.755189
0.102276 0.621828 0.712644
0.210017 0.626081 0.719009
0.317757 0.630333 0.725373
0.425497 0.634585 0.731737
0.533238 0.638837 0.738101
0.640978 0.643090 0.744466
0.748718 0.647342 0.750830
0.856458 0.651594 0.757194
0.964199 0.655847 0.763559
0.112758 0.733686 0.721014
0.220498 0.737938 0.727378
0.328239 0.742191 0.733743
0.435979 0.746443 0.740107
0.543719 0.750695 0.746471
0.651460 0.754948 0.752836
0.759200 0.759200 0.759200
0.866940 0.763452 0.765564
0.974681 0.767705 0.771929
0.123240 0.845544 0.729384
0.230980 0.849796 0.735748
0.338721 0.854049 0.742113
0.446461 0.858301 0.748477
0.554201 0.862553 0.754841
0.661942 0.866806 0.761206
0.769682 0.871058 0.767570
0.877422 0.875310 0.773934
0.985162 0.879562 0.780298
0.133722 0.957402 0.737754
0.241462 0.961654 0.744118
0.349202 0.965906 0.750482
0.456943 0.970159 0.756847
0.564683 0.974411 0.763211
0.672423 0.978663 0.769575
0.780164 0.982916 0.775940
0.887904 0.987168 0.782304
0.995644 0.991420 0.788668
0.051645 0.066429 0.776061
0.159385 0.070681 0.782425
0.267125 0.074933 0.788789
0.374866 0.079186 0.795154
0.482606 0.083438 0.801518
0.590346 0.087690 0.807882
0.698087 0.091943 0.814247
0.805827 0.096195 0.820611
0.913567 0.100447 0.826975
0.062127 0.178287 0.784431
0.169867 0.182539 0.790795
0.277607 0.186791 0.797159
0.385348 0.191044 0.803524
0.493088 0.195296 0.809888
0.600828 0.199548 0.816252
0.708569 0.203801 0.822617
0.816309 0.208053 0.828981
0.924049 0.212305 0.835345
0.072609 0.290145 0.792800
0.180349 0.294397 0.799165
0.288089 0.298649 0.805529
0.395829 0.302901 0.811893
0.503570 0.307154 0.818258
0.611310 0.311406 0.824622
0.719050 0.315658 0.830986
0.826791 0.319911 0.837351
0.934531 0.324163 0.843715
0.083090 0.402002 0.801170
0.190831 0.406255 0.807535
0.298571 0.410507 0.813899
0.406311 0.414759 0.820263
0.514052 0.419012 0.826628
0.621792 0.423264 0.832992
0.729532 0.427516 0.839356
0.837273 0.431769 0.845721
0.945013 0.436021 0.852085
0.093572 0.513860 0.809540
0.201313 0.518113 0.815905
0.309053 0.522365 0.822269
0.416793 0.526617 0.828633
0.524534 0.530869 0.834998
0.632274 0.535122 0.841362
0.740014 0.539374 0.847726
0.847754 0.543626 0.854090
0.955495 0.547879 0.860455
0.104054 0.625718 0.817910
0.211794 0.629970 0.824274
0.319535 0.634223 0.830639
0.427275 0.638475 0.837003
0.535015 0.642727 0.843367
0.642756 0.646980 0.849732
0.750496 0.651232 0.856096
0.858236 0.655484 0.862460
0.965977 0.659737 0.868825
0.114536 0.737576 0.826280
0.222276 0.741828 0.832644
0.330017 0.746081 0.839009
0.437757 0.750333 0.845373
0.545497 0.754585 0.851737
0.653237 0.758838 0.858102
0.760978 0.763090 0.864466
0.868718 0.767342 0.870830
0.976458 0.771594 0.877194
0.125018 0.849434 0.834650
0.232758 0.853686 0.841014
0.340498 0.857938 0.847378
0.448239 0.862191 0.853743
0.555979 0.866443 0.860107
0.663719 0.870695 0.866471
0.771460 0.874948 0.872836
0.879200 0.879200 0.879200
0.986940 0.883452 0.885564
0.135500 0.961292 0.843020
0.243240 0.965544 0.849384
0.350980 0.969796 0.855748
0.458721 0.974049 0.862113
0.566461 0.978301 0.868477
0.674201 0.982553 0.874841
0.781942 0.986806 0.881206
0.889682 0.991058 0.887570
0.997422 0.995310 0.893934
0.053423 0.070319 0.881327
0.161163 0.074571 0.887691
0.268903 0.078823 0.894055
0.376644 0.083076 0.900420
0.484384 0.087328 0.906784
0.592124 0.091580 0.913148
0.699865 0.095833 0.919512
0.807605 0.100085 0.925877
0.915345 0.104337 0.932241
0.063904 0.182176 0.889696
0.171645 0.186429 0.896061
0.279385 0.190681 0.902425
0.387125 0.194933 0.908789
0.494866 0.199186 0.915154
0.602606 0.203438 0.921518
0.710346 0.207690 0.927882
0.818087 0.211943 0.934247
0.925827 0.216195 0.940611
0.074386 0.294034 0.898066
0.182127 0.298287 0.904431
0.289867 0.302539 0.910795
0.397607 0.306791 0.917159
0.505348 0.311044 0.923524
0.613088 0.315296 0.929888
0.720828 0.319548 0.936252
0.828569 0.323801 0.942617
0.936309 0.328053 0.948981
0.084868 0.405892 0.906436
0.192608 0.410145 0.912801
0.300349 0.414397 0.919165
0.408089 0.418649 0.925529
0.515829 0.422901 0.931893
0.623570 0.427154 0.938258
0.731310 0.431406 0.944622
0.839050 0.435658 0.950986
0.946791 0.439911 0.957351
0.095350 0.517750 0.914806
0.203090 0.522002 0.921170
0.310831 0.526255 0.927535
0.418571 0.530507 0.933899
0.526311 0.534759 0.940263
0.634052 0.539012 0.946628
0.741792 0.543264 0.952992
0.849532 0.547516 0.959356
0.957273 0.551769 0.965721
0.105832 0.629608 0.923176
0.213572 0.633860 0.929540
0.321313 0.638112 0.935905
0.429053 0.642365 0.942269
0.536793 0.646617 0.948633
0.644533 0.650869 0.954997
0.752274 0.655122 0.961362
0.860014 0.659374 0.967726
0.967754 0.663626 0.974090
0.116314 0.741466 0.931546
0.224054 0.745718 0.937910
0.331794 0.749970 0.944274
0.439535 0.754223 0.950639
0.547275 0.758475 0.957003
0.655015 0.762727 0.963367
0.762756 0.766980 0.969732
0.870496 0.771232 0.976096
0.978236 0.775484 0.982460
0.126796 0.853324 0.939916
0.234536 0.857576 0.946280
0.342276 0.861828 0.952644
0.450017 0.866081 0.959009
0.557757 0.870333 0.965373
0.665497 0.874585 0.971737
0.773238 0.878838 0.978101
0.880978 0.883090 0.984466
0.988718 0.887342 0.990830
0.137277 0.965181 0.948285
0.245018 0.969434 0.954650
0.352758 0.973686 0.961014
0.460498 0.977938 0.967378
0.568239 0.982191 0.973743
0.675979 0.986443 0.980107
0.783719 0.990695 0.986471
0.891460 0.994948 0.992836
0.999200 0.999200 0.999200
