app/src/main/assets/luts/film_soft.cube
# V-Cam procedural LUT — film_soft
# Generated by LutBaker. Do not edit by hand.
TITLE "V-Cam film_soft"
LUT_3D_SIZE 5
DOMAIN_MIN 0.0 0.0 0.0
DOMAIN_MAX 1.0 1.0 1.0
0.123418 0.123418 0.123418
0.217018 0.123530 0.123530
0.462290 0.128463 0.128463
0.779346 0.176644 0.176644
0.963157 0.245078 0.245078
0.123637 0.217079 0.123637
0.217141 0.217141 0.123745
0.462657 0.219393 0.129781
0.779965 0.248387 0.180328
0.963948 0.298261 0.249411
0.132534 0.463509 0.132534
0.221401 0.463677 0.133109
0.464611 0.464611 0.136215
0.783580 0.473592 0.200420
0.968561 0.495262 0.273206
0.202209 0.788314 0.202209
0.265668 0.788606 0.203266
0.479539 0.790265 0.209104
0.794489 0.794489 0.226125
0.981662 0.800364 0.330917
0.317214 0.978666 0.317214
0.356981 0.979055 0.318863
0.524265 0.981331 0.328325
0.808340 0.987854 0.353927
0.994142 0.994142 0.376833
0.123461 0.123461 0.216979
0.217042 0.123573 0.217042
0.462366 0.128715 0.218768
0.779466 0.177366 0.246320
0.963311 0.245926 0.295439
0.123679 0.217103 0.217103
0.217164 0.217164 0.217164
0.463063 0.219191 0.219191
0.780792 0.247636 0.247636
0.965021 0.297206 0.297206
0.132790 0.463568 0.221203
0.220884 0.463929 0.220884
0.464718 0.464718 0.222472
0.784358 0.473379 0.261191
0.969512 0.494889 0.316427
0.203428 0.788319 0.265736
0.263553 0.789153 0.263553
0.478872 0.790727 0.267666
0.794697 0.794697 0.280136
0.982272 0.800462 0.365153
0.318727 0.978667 0.356831
0.353535 0.979974 0.353535
0.522645 0.982140 0.361760
0.808160 0.988384 0.384395
0.994451 0.994451 0.405079
0.125402 0.125402 0.461506
0.217277 0.126132 0.461704
0.462809 0.130106 0.462809
0.780173 0.181519 0.467056
0.964210 0.250826 0.484781
0.126826 0.217679 0.461888
0.217951 0.217951 0.462516
0.463433 0.219866 0.463433
0.781569 0.250198 0.468091
0.965895 0.301053 0.486172
0.134324 0.463911 0.463911
0.221635 0.464218 0.464218
0.464998 0.464998 0.464998
0.788502 0.471793 0.471793
0.974905 0.492327 0.492327
0.210888 0.788358 0.478967
0.268727 0.789189 0.478507
0.474925 0.793056 0.474925
0.795656 0.795656 0.479553
0.985685 0.800837 0.517804
0.322362 0.979547 0.520819
0.358631 0.980450 0.520389
0.513331 0.986416 0.513331
0.806981 0.991187 0.526572
0.996058 0.996058 0.539624
0.145222 0.145222 0.775602
0.226612 0.147353 0.775987
0.460953 0.158933 0.778192
0.784045 0.185624 0.784045
0.966788 0.264337 0.780778
0.149431 0.227928 0.776295
0.228683 0.228683 0.777651
0.462244 0.235685 0.779749
0.785297 0.252799 0.785297
0.968403 0.311803 0.782195
0.172032 0.464745 0.779921
0.242726 0.465306 0.781143
0.467329 0.467329 0.787436
0.791182 0.472512 0.791182
0.977011 0.497404 0.789391
0.228651 0.789309 0.789309
0.282845 0.789916 0.789916
0.480179 0.793293 0.793293
0.796614 0.796614 0.796614
0.994403 0.799816 0.799816
0.332548 0.982072 0.800900
0.367400 0.982908 0.801295
0.521733 0.987394 0.803083
0.802531 0.996894 0.802531
0.999060 0.999060 0.806389
0.180385 0.180385 0.953221
0.247636 0.183476 0.953635
0.464148 0.200526 0.956049
0.775506 0.242271 0.962927
0.969498 0.275936 0.969498
0.186523 0.249811 0.953920
0.250960 0.250960 0.955821
0.466132 0.262845 0.958212
0.777254 0.293734 0.964992
0.971426 0.320080 0.971426
0.218270 0.470916 0.958596
0.274234 0.471759 0.960055
0.475013 0.475013 0.970110
0.786029 0.487312 0.976049
0.981280 0.498498 0.981280
0.289000 0.787504 0.971875
0.330443 0.788245 0.972980
0.502192 0.792044 0.979016
0.797589 0.797589 0.994359
0.995834 0.800546 0.995834
0.342066 0.984509 0.984509
0.375655 0.985282 0.985282
0.526306 0.989399 0.989399
0.804397 0.997520 0.997520
1.000000 1.000000 1.000000
