app/src/main/assets/luts/film_faded_negative.cube
# V-Cam procedural LUT — film_faded_negative
# Generated by LutBaker. Do not edit by hand.
TITLE "V-Cam film_faded_negative"
LUT_3D_SIZE 9
DOMAIN_MIN 0.0 0.0 0.0
DOMAIN_MAX 1.0 1.0 1.0
0.363303 0.357304 0.355646
0.369896 0.357313 0.355657
0.390974 0.357385 0.355737
0.439010 0.357867 0.356243
0.521471 0.360266 0.358696
0.631375 0.369080 0.367630
0.747916 0.392630 0.391396
0.844670 0.428812 0.427809
0.883921 0.450239 0.449344
0.363308 0.362726 0.355651
0.369906 0.362731 0.355667
0.390997 0.362791 0.355763
0.439062 0.363236 0.356306
0.521572 0.365530 0.358834
0.631540 0.374082 0.367893
0.748129 0.397136 0.391866
0.844943 0.432714 0.428425
0.884221 0.453844 0.450015
0.363368 0.381602 0.355744
0.369954 0.381613 0.355755
0.391080 0.381649 0.355853
0.439251 0.381972 0.356531
0.521934 0.383921 0.359327
0.632137 0.391603 0.368839
0.748905 0.413000 0.393570
0.845936 0.446536 0.430655
0.885309 0.466656 0.452443
0.364007 0.428165 0.356485
0.370527 0.428193 0.356517
0.391474 0.428286 0.356626
0.439753 0.428508 0.357125
0.522907 0.429713 0.360626
0.633770 0.435496 0.371342
0.751042 0.453219 0.398224
0.848668 0.482114 0.436731
0.888301 0.499878 0.459059
0.367671 0.512470 0.360417
0.374004 0.512524 0.360488
0.394385 0.512706 0.360724
0.441574 0.513163 0.361317
0.524902 0.514047 0.363146
0.637271 0.517078 0.376269
0.755762 0.529273 0.408314
0.854692 0.551064 0.449847
0.894896 0.565075 0.473325
0.381057 0.629602 0.374397
0.386939 0.629689 0.374516
0.405952 0.629977 0.374915
0.450388 0.630707 0.375916
0.529988 0.632195 0.377921
0.642876 0.634549 0.382482
0.765536 0.640043 0.421567
0.865513 0.654463 0.472519
0.906722 0.664271 0.497943
0.415373 0.761135 0.409775
0.420418 0.761259 0.409956
0.436853 0.761672 0.410558
0.475951 0.762724 0.412079
0.547862 0.764899 0.415176
0.652750 0.768565 0.420237
0.778075 0.773252 0.430539
0.881211 0.779591 0.503712
0.923835 0.785726 0.531744
0.478932 0.873465 0.474733
0.482938 0.873606 0.475075
0.496107 0.874082 0.476224
0.528086 0.875309 0.479174
0.588842 0.877929 0.485404
0.680574 0.882618 0.496339
0.793000 0.889553 0.512050
0.898704 0.897283 0.530187
0.942401 0.900206 0.566483
0.523873 0.918265 0.520416
0.527252 0.918445 0.520770
0.538422 0.919050 0.521959
0.565902 0.920604 0.525003
0.619314 0.923892 0.531392
0.702319 0.929674 0.542477
0.806727 0.938007 0.558133
0.906507 0.947089 0.574813
0.951608 0.951608 0.582978
0.363305 0.357305 0.360646
0.369901 0.357313 0.360650
0.390986 0.357386 0.360705
0.439037 0.357868 0.361142
0.521522 0.360267 0.363431
0.631462 0.369079 0.372003
0.748031 0.392641 0.395133
0.844817 0.428827 0.430855
0.884082 0.450255 0.452066
0.363310 0.362727 0.360648
0.369913 0.362731 0.360655
0.391021 0.362786 0.360721
0.439122 0.363220 0.361183
0.521686 0.365490 0.363521
0.631729 0.373997 0.372176
0.748399 0.397004 0.395451
0.845289 0.432540 0.431274
0.884600 0.453655 0.452523
0.363360 0.381613 0.360710
0.369951 0.381622 0.360719
0.391093 0.381652 0.360798
0.439301 0.381965 0.361394
0.522040 0.383891 0.363996
0.632319 0.391530 0.373098
0.749170 0.412883 0.397125
0.846277 0.446376 0.433475
0.885683 0.466479 0.454925
0.363972 0.428198 0.361357
0.370498 0.428224 0.361387
0.391462 0.428311 0.361488
0.439776 0.428520 0.361949
0.522991 0.429706 0.365249
0.633933 0.435452 0.375540
0.751292 0.453133 0.401697
0.848995 0.481985 0.439475
0.888663 0.499732 0.461471
0.367582 0.512536 0.365058
0.373921 0.512589 0.365126
0.394322 0.512766 0.365354
0.441551 0.513211 0.365924
0.524938 0.514073 0.367682
0.637392 0.517075 0.380352
0.755979 0.529235 0.411616
0.854990 0.550986 0.452434
0.895229 0.564980 0.475591
0.380868 0.629710 0.378548
0.386758 0.629795 0.378664
0.405795 0.630080 0.379054
0.450283 0.630800 0.380030
0.529956 0.632269 0.381985
0.642925 0.634589 0.386428
0.765717 0.640051 0.424584
0.865758 0.654446 0.474853
0.907004 0.664238 0.499977
0.415011 0.761309 0.413056
0.420065 0.761432 0.413233
0.436531 0.761842 0.413824
0.475696 0.762885 0.415315
0.547707 0.765043 0.418353
0.652710 0.768677 0.423313
0.778145 0.773316 0.433451
0.881382 0.779633 0.505731
0.924045 0.785755 0.533493
0.478342 0.873741 0.476872
0.482360 0.873881 0.477210
0.495566 0.874353 0.478347
0.527629 0.875569 0.481266
0.588520 0.878166 0.487434
0.680412 0.882816 0.498266
0.792988 0.889699 0.513845
0.898802 0.897378 0.531845
0.942534 0.900283 0.567970
0.523224 0.918587 0.522012
0.526614 0.918765 0.522363
0.537818 0.919366 0.523544
0.565379 0.920907 0.526568
0.618926 0.924169 0.532916
0.702100 0.929909 0.543936
0.806670 0.938187 0.559513
0.906567 0.947215 0.576125
0.951710 0.951710 0.584262
0.363302 0.357322 0.378699
0.369894 0.357332 0.378708
0.391000 0.357402 0.378715
0.439072 0.357910 0.378936
0.521593 0.360356 0.380697
0.631593 0.369235 0.388090
0.748174 0.392954 0.409087
0.845000 0.429238 0.442436
0.884283 0.450703 0.462517
0.363315 0.362734 0.378729
0.369912 0.362741 0.378736
0.391042 0.362796 0.378744
0.439177 0.363246 0.378982
0.521795 0.365548 0.380775
0.631924 0.374095 0.388220
0.748639 0.397222 0.409321
0.845596 0.432827 0.442740
0.884937 0.453968 0.462848
0.363362 0.381626 0.378767
0.369944 0.381639 0.378776
0.391133 0.381656 0.378793
0.439481 0.381928 0.379103
0.522432 0.383769 0.381033
0.632999 0.391248 0.388704
0.750161 0.412430 0.410243
0.847557 0.445763 0.443962
0.887089 0.465804 0.464187
0.363980 0.428238 0.379187
0.370454 0.428293 0.379174
0.391408 0.428399 0.379191
0.439856 0.428558 0.379524
0.523297 0.429671 0.382125
0.634542 0.435276 0.390935
0.752228 0.452798 0.414525
0.850224 0.481493 0.449688
0.890019 0.499174 0.470478
0.367600 0.512615 0.382292
0.373798 0.512734 0.382228
0.394076 0.512984 0.382248
0.441458 0.513385 0.382740
0.525065 0.514161 0.384251
0.637843 0.517060 0.395342
0.756812 0.529074 0.423805
0.856108 0.550689 0.462077
0.896478 0.564616 0.484069
0.380930 0.629822 0.394473
0.386504 0.630026 0.394288
0.405201 0.630460 0.394236
0.449881 0.631144 0.395127
0.529832 0.632538 0.396910
0.643103 0.634737 0.400939
0.766392 0.640077 0.435804
0.866678 0.654379 0.483574
0.908061 0.664110 0.507605
0.415272 0.761414 0.426734
0.419652 0.761764 0.426262
0.435317 0.762473 0.425932
0.474731 0.763485 0.427320
0.547121 0.765575 0.430144
0.652555 0.769089 0.434747
0.778405 0.773553 0.444298
0.882021 0.779790 0.513302
0.924831 0.785858 0.540067
0.479110 0.873748 0.487772
0.481877 0.874319 0.486896
0.493532 0.875359 0.486341
0.525910 0.876534 0.489147
0.587308 0.879046 0.495083
0.679802 0.883552 0.505535
0.792940 0.890243 0.520622
0.899165 0.897734 0.538113
0.943033 0.900570 0.573576
0.523875 0.918674 0.531045
0.526031 0.919299 0.530190
0.535548 0.920539 0.529561
0.563410 0.922035 0.532507
0.617465 0.925202 0.538700
0.701273 0.930785 0.549474
0.806452 0.938855 0.564750
0.906792 0.947685 0.581102
0.952092 0.952092 0.589134
0.363379 0.357469 0.424288
0.369918 0.357502 0.424315
0.390919 0.357609 0.424408
0.439171 0.358025 0.424519
0.521793 0.360603 0.425079
0.631969 0.369670 0.429781
0.748580 0.393843 0.445766
0.845520 0.430404 0.473392
0.884853 0.451974 0.490671
0.363421 0.362846 0.424389
0.369963 0.362876 0.424415
0.390978 0.362973 0.424500
0.439269 0.363353 0.424603
0.521989 0.365784 0.425193
0.632295 0.374517 0.429941
0.749041 0.398092 0.446018
0.846113 0.433974 0.473710
0.885503 0.455221 0.491016
0.363585 0.381648 0.424539
0.370105 0.381673 0.424620
0.391138 0.381734 0.424782
0.439575 0.381994 0.424858
0.522659 0.383937 0.425552
0.633443 0.391555 0.430469
0.750691 0.413117 0.446886
0.848242 0.446685 0.474820
0.887843 0.466819 0.492223
0.364068 0.428313 0.424909
0.370532 0.428360 0.424952
0.391396 0.428486 0.425064
0.440012 0.428596 0.425156
0.524101 0.429505 0.426158
0.636203 0.434713 0.431568
0.754839 0.451777 0.449027
0.853669 0.480026 0.477709
0.893826 0.497522 0.495418
0.367826 0.512761 0.426741
0.374010 0.512874 0.426740
0.394021 0.513225 0.426703
0.441133 0.513820 0.426624
0.525370 0.514358 0.427563
0.639059 0.516963 0.435032
0.759407 0.528399 0.456419
0.859239 0.549788 0.488654
0.899980 0.563528 0.507645
0.381485 0.630002 0.436091
0.387036 0.630203 0.435986
0.405116 0.630850 0.435602
0.448701 0.632063 0.435051
0.529438 0.633248 0.436433
0.643561 0.635110 0.439502
0.768231 0.640104 0.466531
0.869252 0.654142 0.507787
0.911024 0.663702 0.528960
0.416814 0.761450 0.463415
0.421147 0.761800 0.463058
0.435456 0.762944 0.461829
0.471978 0.765114 0.459945
0.545441 0.767015 0.462260
0.652088 0.770196 0.466006
0.779088 0.774177 0.474112
0.883800 0.780197 0.534510
0.927027 0.786116 0.558627
0.482687 0.873304 0.518175
0.485380 0.873880 0.517437
0.494511 0.875757 0.514967
0.521062 0.879164 0.511496
0.583891 0.881444 0.516812
0.678069 0.885559 0.526236
0.792773 0.891722 0.539975
0.900149 0.898695 0.556051
0.944416 0.901354 0.589529
0.524921 0.919213 0.554948
0.527612 0.919636 0.554686
0.536437 0.921101 0.553628
0.557845 0.925123 0.549713
0.613340 0.928033 0.555469
0.698927 0.933186 0.565539
0.805810 0.940690 0.579943
0.907391 0.948972 0.595518
0.953134 0.953134 0.603228
0.364043 0.358299 0.506788
0.370451 0.358381 0.506849
0.391056 0.358654 0.507054
0.438675 0.359341 0.507572
0.522241 0.361140 0.508296
0.632822 0.370594 0.508955
0.749495 0.395840 0.516940
0.846691 0.433019 0.535186
0.886136 0.454824 0.547664
0.364146 0.363588 0.507009
0.370557 0.363666 0.507069
0.391172 0.363926 0.507267
0.438814 0.364582 0.507768
0.522425 0.366298 0.508469
0.633138 0.375412 0.509168
0.749949 0.400049 0.517228
0.847277 0.436550 0.535534
0.886780 0.458034 0.548037
0.364585 0.382149 0.507357
0.370950 0.382201 0.507557
0.391536 0.382382 0.507992
0.439265 0.382932 0.508434
0.523049 0.384373 0.509049
0.634246 0.392356 0.509896
0.751579 0.414929 0.518232
0.849382 0.449125 0.536758
0.889096 0.469502 0.549353
0.365765 0.428312 0.508244
0.372064 0.428383 0.508410
0.392427 0.428585 0.508939
0.440097 0.428905 0.509895
0.524418 0.429746 0.510294
0.636997 0.435239 0.511543
0.756158 0.452857 0.520562
0.854978 0.481946 0.539810
0.895274 0.499671 0.552668
0.368343 0.513087 0.510028
0.374497 0.513188 0.510125
0.394417 0.513498 0.510422
0.441178 0.514096 0.510987
0.525768 0.514517 0.511361
0.641474 0.516475 0.513460
0.764840 0.526597 0.523879
0.866076 0.547445 0.545097
0.907649 0.560771 0.558603
0.382794 0.630410 0.515035
0.388291 0.630603 0.515056
0.406207 0.631223 0.515101
0.448914 0.632627 0.515034
0.528359 0.634567 0.514508
0.644346 0.635713 0.516116
0.771976 0.639924 0.530954
0.874851 0.653366 0.559941
0.917496 0.662541 0.575751
0.420456 0.761546 0.534500
0.424682 0.761894 0.534334
0.438651 0.763032 0.533746
0.473093 0.765728 0.532053
0.541606 0.769893 0.528887
0.650905 0.772356 0.531303
0.780367 0.775329 0.536948
0.887727 0.780897 0.580722
0.931794 0.786498 0.600007
0.490634 0.872452 0.578389
0.493166 0.873038 0.577900
0.501776 0.874946 0.576255
0.524471 0.879451 0.572040
0.576308 0.886343 0.565628
0.674150 0.889659 0.572991
0.792240 0.894735 0.583960
0.902126 0.900623 0.597056
0.947427 0.902964 0.625364
0.527270 0.920427 0.604644
0.529934 0.920842 0.604489
0.538834 0.922224 0.603945
0.561310 0.925678 0.602361
0.604141 0.933896 0.594738
0.693642 0.938166 0.603240
0.804244 0.944496 0.615630
0.908549 0.951632 0.629325
0.955275 0.955275 0.636215
0.366978 0.361563 0.618178
0.373114 0.361731 0.618288
0.392890 0.362292 0.618655
0.438815 0.363708 0.619586
0.520335 0.366578 0.621500
0.634396 0.372063 0.624099
0.752441 0.397912 0.622945
0.848833 0.437765 0.629759
0.888484 0.459994 0.636364
0.367186 0.366660 0.618562
0.373324 0.366823 0.618670
0.393105 0.367367 0.619031
0.439042 0.368738 0.619947
0.520585 0.371519 0.621829
0.634690 0.376834 0.624384
0.752914 0.402031 0.623292
0.849407 0.441225 0.630157
0.889116 0.463137 0.636786
0.368108 0.384680 0.619183
0.374155 0.384778 0.619546
0.393823 0.385165 0.620355
0.439810 0.386390 0.621217
0.521445 0.388875 0.622985
0.635718 0.393622 0.625380
0.754599 0.416621 0.624515
0.851469 0.453556 0.631569
0.891388 0.474373 0.638287
0.370600 0.429672 0.620771
0.376557 0.429783 0.621106
0.395874 0.430122 0.622204
0.441485 0.430840 0.624380
0.523448 0.432676 0.625844
0.638243 0.436175 0.627814
0.758985 0.454184 0.627574
0.856945 0.485799 0.635194
0.897448 0.503983 0.642159
0.375876 0.512774 0.624021
0.381636 0.512910 0.624297
0.400356 0.513337 0.625196
0.444687 0.514225 0.627309
0.526081 0.515227 0.630530
0.642290 0.516925 0.631652
0.767309 0.527335 0.632744
0.868021 0.550175 0.641857
0.909836 0.563935 0.649374
0.385418 0.631173 0.629248
0.390808 0.631352 0.629424
0.408396 0.631925 0.629987
0.450435 0.633209 0.631248
0.528695 0.635082 0.633074
0.645007 0.636081 0.634013
0.777453 0.638871 0.636925
0.884380 0.651061 0.649347
0.928623 0.659541 0.657929
0.427733 0.761781 0.639212
0.431750 0.762127 0.639284
0.445061 0.763256 0.639497
0.478071 0.765928 0.639847
0.543429 0.770520 0.639745
0.648466 0.775204 0.637956
0.781902 0.776662 0.640543
0.895134 0.781176 0.660651
0.939876 0.786484 0.674602
0.495010 0.874376 0.666084
0.498099 0.874743 0.666113
0.508380 0.875961 0.666194
0.534131 0.878982 0.666257
0.581505 0.886627 0.663248
0.666981 0.895811 0.657660
0.790762 0.899218 0.664475
0.904960 0.903373 0.672924
0.952614 0.905320 0.690667
0.531544 0.922647 0.684798
0.534159 0.923050 0.684792
0.542898 0.924388 0.684754
0.565018 0.927721 0.684516
0.609811 0.934544 0.682940
0.683994 0.945895 0.675451
0.800970 0.950405 0.684283
0.910022 0.955712 0.694422
0.958507 0.958507 0.699666
0.375336 0.370467 0.735636
0.381001 0.370757 0.735800
0.399329 0.371727 0.736353
0.442257 0.374182 0.737760
0.519382 0.379208 0.740686
0.629125 0.387515 0.745659
0.757178 0.399497 0.751713
0.852003 0.444694 0.745197
0.891955 0.467538 0.746140
0.375692 0.375218 0.736217
0.381356 0.375501 0.736380
0.399682 0.376448 0.736928
0.442609 0.378844 0.738324
0.519741 0.383750 0.741223
0.629509 0.391861 0.746153
0.757619 0.403563 0.752148
0.852560 0.448054 0.745665
0.892570 0.470586 0.746632
0.377310 0.392237 0.737120
0.382814 0.392396 0.737696
0.400898 0.393064 0.738984
0.443827 0.395264 0.740336
0.520994 0.399769 0.743143
0.630864 0.407220 0.747910
0.759186 0.417978 0.753695
0.854555 0.460038 0.747341
0.894777 0.481493 0.748394
0.381735 0.435035 0.739412
0.387114 0.435201 0.739970
0.404654 0.435718 0.741822
0.446705 0.436976 0.745599
0.524053 0.440590 0.748149
0.634275 0.446562 0.752465
0.763220 0.455173 0.757670
0.859855 0.491451 0.751734
0.900663 0.510302 0.753025
0.391359 0.514861 0.744059
0.396460 0.515048 0.744578
0.413143 0.515642 0.746297
0.453254 0.516931 0.750522
0.528832 0.518752 0.757713
0.640172 0.522522 0.761034
0.770663 0.527882 0.764980
0.870803 0.554204 0.760418
0.912678 0.568883 0.762123
0.409205 0.629504 0.751451
0.413777 0.629740 0.751903
0.428824 0.630504 0.753391
0.465512 0.632255 0.756999
0.536109 0.634986 0.763592
0.645566 0.637045 0.771382
0.779191 0.639127 0.773277
0.888776 0.651797 0.772406
0.931005 0.662706 0.774650
0.435670 0.763294 0.762711
0.439786 0.763551 0.762967
0.453357 0.764397 0.763810
0.486596 0.766447 0.765853
0.548417 0.770940 0.770323
0.649705 0.775614 0.774963
0.782731 0.777257 0.776577
0.903021 0.780081 0.779448
0.951121 0.784336 0.783737
0.500891 0.877401 0.775934
0.503899 0.877748 0.776126
0.513916 0.878898 0.776753
0.539053 0.881747 0.778243
0.589876 0.887261 0.780825
0.671144 0.896430 0.782798
0.787554 0.903828 0.781808
0.907562 0.905861 0.785172
0.958373 0.907223 0.792666
0.537813 0.925932 0.787448
0.540357 0.926315 0.787607
0.548865 0.927588 0.788124
0.570434 0.930757 0.789334
0.614900 0.936974 0.791331
0.689062 0.946910 0.792461
0.795189 0.957064 0.789764
0.910804 0.960146 0.795096
0.961848 0.961848 0.797963
0.390354 0.386165 0.827738
0.395415 0.386592 0.827935
0.411871 0.388020 0.828596
0.450831 0.391655 0.830290
0.521922 0.399173 0.833848
0.624547 0.411880 0.840024
0.745902 0.429137 0.848742
0.858835 0.447252 0.857637
0.895806 0.475773 0.850777
0.390873 0.390465 0.828504
0.395931 0.390883 0.828700
0.412379 0.392284 0.829359
0.451324 0.395847 0.831046
0.522406 0.403220 0.834589
0.625045 0.415687 0.840738
0.746455 0.432626 0.849413
0.859458 0.450416 0.858258
0.896401 0.478721 0.851336
0.393296 0.406169 0.829502
0.398109 0.406385 0.830320
0.414152 0.407357 0.832106
0.453056 0.410679 0.833768
0.524114 0.417560 0.837256
0.626817 0.429210 0.843304
0.748428 0.445062 0.851819
0.861687 0.461731 0.860482
0.898538 0.489278 0.853343
0.400004 0.446025 0.831968
0.404655 0.446245 0.832783
0.419929 0.446941 0.835502
0.457319 0.448770 0.841068
0.528403 0.454529 0.844394
0.631362 0.464293 0.850142
0.753580 0.477597 0.858196
0.867556 0.491595 0.866336
0.904231 0.517233 0.858673
0.414969 0.521309 0.836816
0.419258 0.521550 0.837624
0.433402 0.522319 0.840314
0.468069 0.524023 0.847055
0.535732 0.526695 0.858964
0.639658 0.533515 0.863974
0.763451 0.542749 0.870913
0.879077 0.552375 0.877822
0.916429 0.573672 0.869895
0.439685 0.630766 0.847772
0.443635 0.631035 0.848322
0.456678 0.631918 0.850154
0.488728 0.634032 0.854738
0.549537 0.637663 0.866788
0.648655 0.640795 0.884005
0.775941 0.645600 0.888777
0.893573 0.651501 0.892266
0.936360 0.663589 0.887447
0.473280 0.760314 0.863697
0.476685 0.760612 0.864139
0.487986 0.761593 0.865606
0.516095 0.763990 0.869260
0.572023 0.768467 0.876454
0.660199 0.774795 0.890103
0.783380 0.778189 0.901690
0.904422 0.780730 0.903059
0.953574 0.785337 0.901860
0.507474 0.880730 0.881032
0.510393 0.881055 0.881358
0.520122 0.882131 0.882436
0.544582 0.884791 0.885099
0.594219 0.889911 0.890227
0.676714 0.897267 0.897598
0.788989 0.904501 0.904859
0.908566 0.906746 0.907127
0.962589 0.907393 0.907761
0.544697 0.929575 0.886712
0.547166 0.929937 0.887009
0.555425 0.931139 0.887991
0.576399 0.934126 0.890408
0.619781 0.939965 0.895024
0.693858 0.948681 0.901514
0.797440 0.958130 0.907215
0.909815 0.963160 0.908431
0.963737 0.963737 0.909157
0.400205 0.396377 0.861537
0.404940 0.396875 0.861734
0.420377 0.398544 0.862398
0.457133 0.402797 0.864101
0.524760 0.411637 0.867702
0.623134 0.426720 0.874028
0.739865 0.447522 0.883126
0.848886 0.469119 0.893019
0.897932 0.479500 0.897932
0.400808 0.400435 0.862379
0.405540 0.400924 0.862576
0.420966 0.402562 0.863238
0.457702 0.406739 0.864939
0.525313 0.415425 0.868532
0.623696 0.430252 0.874843
0.740481 0.450713 0.883913
0.849579 0.471969 0.893769
0.898661 0.482189 0.898661
0.403637 0.415410 0.863379
0.408099 0.415673 0.864255
0.423033 0.416799 0.866278
0.459707 0.420719 0.867966
0.527267 0.428878 0.871530
0.625692 0.442827 0.877782
0.742684 0.462116 0.886749
0.852065 0.482188 0.896466
0.901279 0.491848 0.901279
0.411216 0.453469 0.866449
0.415573 0.453759 0.867195
0.429903 0.454701 0.869682
0.464716 0.456821 0.876158
0.532226 0.463759 0.879627
0.630855 0.475652 0.885689
0.748470 0.492148 0.894335
0.858641 0.509351 0.903638
0.908221 0.517638 0.908221
0.427435 0.526002 0.873216
0.431505 0.526287 0.873919
0.444925 0.527219 0.876263
0.477799 0.529419 0.882154
0.540965 0.532533 0.896525
0.640468 0.541130 0.902050
0.759728 0.553031 0.909837
0.871720 0.565385 0.918089
0.921970 0.571468 0.921970
0.455073 0.632725 0.885348
0.458697 0.633018 0.885975
0.470695 0.633978 0.888066
0.500388 0.636292 0.893316
0.558671 0.640423 0.904361
0.651519 0.644073 0.926978
0.774520 0.650768 0.932878
0.888745 0.658893 0.937242
0.939327 0.663269 0.939327
0.492417 0.759792 0.902903
0.495511 0.760109 0.903423
0.505809 0.761158 0.905156
0.531596 0.763726 0.909492
0.583540 0.768564 0.918133
0.667655 0.775252 0.933527
0.784517 0.779527 0.951344
0.902552 0.783579 0.953399
0.954591 0.785813 0.954591
0.530202 0.878293 0.921949
0.532833 0.878636 0.922355
0.541622 0.879773 0.923707
0.563861 0.882585 0.927076
0.609540 0.888025 0.933708
0.686753 0.895931 0.943781
0.793535 0.903876 0.955525
0.908757 0.906999 0.962319
0.962813 0.907638 0.962813
0.548092 0.931385 0.931385
0.550523 0.931737 0.931737
0.558662 0.932904 0.932904
0.579347 0.935800 0.935800
0.622200 0.941452 0.941452
0.695545 0.949847 0.949847
0.798733 0.958662 0.958662
0.910063 0.963390 0.963390
0.963976 0.963976 0.963976
