app/src/main/assets/luts/film_muted_frame.cube
# V-Cam procedural LUT — film_muted_frame
# Generated by LutBaker. Do not edit by hand.
TITLE "V-Cam film_muted_frame"
LUT_3D_SIZE 33
DOMAIN_MIN 0.0 0.0 0.0
DOMAIN_MAX 1.0 1.0 1.0
0.039200 0.039200 0.039200
0.066135 0.040263 0.040791
0.093070 0.041326 0.042382
0.120005 0.042389 0.043973
0.146940 0.043452 0.045564
0.173875 0.044515 0.047155
0.200810 0.045578 0.048746
0.227746 0.046642 0.050338
0.254681 0.047705 0.051929
0.281616 0.048768 0.053520
0.308551 0.049831 0.055111
0.335486 0.050894 0.056702
0.362421 0.051957 0.058293
0.389356 0.053020 0.059884
0.416291 0.054083 0.061475
0.443226 0.055146 0.063066
0.470161 0.056209 0.064657
0.497096 0.057272 0.066248
0.524031 0.058335 0.067839
0.550967 0.059399 0.069431
0.577902 0.060462 0.071022
0.604837 0.061525 0.072613
0.631772 0.062588 0.074204
0.658707 0.063651 0.075795
0.685642 0.064714 0.077386
0.712577 0.065777 0.078977
0.739512 0.066840 0.080568
0.766447 0.067903 0.082159
0.793382 0.068966 0.083750
0.820317 0.070029 0.085341
0.847252 0.071092 0.086932
0.874188 0.072155 0.088523
0.901123 0.073219 0.090115
0.041820 0.067164 0.041292
0.068756 0.068228 0.042884
0.095691 0.069291 0.044475
0.122626 0.070354 0.046066
0.149561 0.071417 0.047657
0.176496 0.072480 0.049248
0.203431 0.073543 0.050839
0.230366 0.074606 0.052430
0.257301 0.075669 0.054021
0.284236 0.076732 0.055612
0.311171 0.077795 0.057203
0.338106 0.078858 0.058794
0.365041 0.079921 0.060385
0.391977 0.080985 0.061977
0.418912 0.082048 0.063568
0.445847 0.083111 0.065159
0.472782 0.084174 0.066750
0.499717 0.085237 0.068341
0.526652 0.086300 0.069932
0.553587 0.087363 0.071523
0.580522 0.088426 0.073114
0.607457 0.089489 0.074705
0.634392 0.090552 0.076296
0.661327 0.091615 0.077887
0.688262 0.092678 0.079478
0.715197 0.093741 0.081069
0.742133 0.094805 0.082661
0.769068 0.095868 0.084252
0.796003 0.096931 0.085843
0.822938 0.097994 0.087434
0.849873 0.099057 0.089025
0.876808 0.100120 0.090616
0.903743 0.101183 0.092207
0.044441 0.095129 0.043385
0.071376 0.096192 0.044976
0.098311 0.097255 0.046567
0.125246 0.098318 0.048158
0.152181 0.099381 0.049749
0.179116 0.100444 0.051340
0.206051 0.101507 0.052931
0.232986 0.102570 0.054522
0.259922 0.103634 0.056114
0.286857 0.104697 0.057705
0.313792 0.105760 0.059296
0.340727 0.106823 0.060887
0.367662 0.107886 0.062478
0.394597 0.108949 0.064069
0.421532 0.110012 0.065660
0.448467 0.111075 0.067251
0.475402 0.112138 0.068842
0.502337 0.113201 0.070433
0.529272 0.114264 0.072024
0.556207 0.115327 0.073615
0.583143 0.116391 0.075207
0.610078 0.117454 0.076798
0.637013 0.118517 0.078389
0.663948 0.119580 0.079980
0.690883 0.120643 0.081571
0.717818 0.121706 0.083162
0.744753 0.122769 0.084753
0.771688 0.123832 0.086344
0.798623 0.124895 0.087935
0.825558 0.125958 0.089526
0.852493 0.127021 0.091117
0.879428 0.128084 0.092708
0.906363 0.129147 0.094299
0.047061 0.123093 0.045477
0.073996 0.124156 0.047068
0.100932 0.125220 0.048660
0.127867 0.126283 0.050251
0.154802 0.127346 0.051842
0.181737 0.128409 0.053433
0.208672 0.129472 0.055024
0.235607 0.130535 0.056615
0.262542 0.131598 0.058206
0.289477 0.132661 0.059797
0.316412 0.133724 0.061388
0.343347 0.134787 0.062979
0.370282 0.135850 0.064570
0.397217 0.136913 0.066161
0.424153 0.137976 0.067753
0.451088 0.139040 0.069344
0.478023 0.140103 0.070935
0.504958 0.141166 0.072526
0.531893 0.142229 0.074117
0.558828 0.143292 0.075708
0.585763 0.144355 0.077299
0.612698 0.145418 0.078890
0.639633 0.146481 0.080481
0.666568 0.147544 0.082072
0.693503 0.148607 0.083663
0.720438 0.149670 0.085254
0.747373 0.150733 0.086845
0.774309 0.151797 0.088437
0.801244 0.152860 0.090028
0.828179 0.153923 0.091619
0.855114 0.154986 0.093210
0.882049 0.156049 0.094801
0.908984 0.157112 0.096392
0.049682 0.151058 0.047570
0.076617 0.152121 0.049161
0.103552 0.153184 0.050752
0.130487 0.154247 0.052343
0.157422 0.155310 0.053934
0.184357 0.156373 0.055525
0.211292 0.157436 0.057116
0.238227 0.158499 0.058707
0.265162 0.159562 0.060299
0.292098 0.160626 0.061890
0.319033 0.161689 0.063481
0.345968 0.162752 0.065072
0.372903 0.163815 0.066663
0.399838 0.164878 0.068254
0.426773 0.165941 0.069845
0.453708 0.167004 0.071436
0.480643 0.168067 0.073027
0.507578 0.169130 0.074618
0.534513 0.170193 0.076209
0.561448 0.171256 0.077800
0.588383 0.172319 0.079391
0.615319 0.173383 0.080983
0.642254 0.174446 0.082574
0.669189 0.175509 0.084165
0.696124 0.176572 0.085756
0.723059 0.177635 0.087347
0.749994 0.178698 0.088938
0.776929 0.179761 0.090529
0.803864 0.180824 0.092120
0.830799 0.181887 0.093711
0.857734 0.182950 0.095302
0.884669 0.184013 0.096893
0.911604 0.185076 0.098484
0.052302 0.179022 0.049662
0.079237 0.180085 0.051253
0.106172 0.181148 0.052844
0.133108 0.182212 0.054436
0.160043 0.183275 0.056027
0.186978 0.184338 0.057618
0.213913 0.185401 0.059209
0.240848 0.186464 0.060800
0.267783 0.187527 0.062391
0.294718 0.188590 0.063982
0.321653 0.189653 0.065573
0.348588 0.190716 0.067164
0.375523 0.191779 0.068755
0.402458 0.192842 0.070346
0.429393 0.193905 0.071937
0.456329 0.194968 0.073529
0.483264 0.196032 0.075120
0.510199 0.197095 0.076711
0.537134 0.198158 0.078302
0.564069 0.199221 0.079893
0.591004 0.200284 0.081484
0.617939 0.201347 0.083075
0.644874 0.202410 0.084666
0.671809 0.203473 0.086257
0.698744 0.204536 0.087848
0.725679 0.205599 0.089439
0.752614 0.206662 0.091030
0.779549 0.207725 0.092622
0.806485 0.208789 0.094213
0.833420 0.209852 0.095804
0.860355 0.210915 0.097395
0.887290 0.211978 0.098986
0.914225 0.213041 0.100577
0.054923 0.206987 0.051755
0.081858 0.208050 0.053346
0.108793 0.209113 0.054937
0.135728 0.210176 0.056528
0.162663 0.211239 0.058119
0.189598 0.212302 0.059710
0.216533 0.213365 0.061301
0.243468 0.214428 0.062892
0.270403 0.215491 0.064483
0.297339 0.216554 0.066075
0.324274 0.217618 0.067666
0.351209 0.218681 0.069257
0.378144 0.219744 0.070848
0.405079 0.220807 0.072439
0.432014 0.221870 0.074030
0.458949 0.222933 0.075621
0.485884 0.223996 0.077212
0.512819 0.225059 0.078803
0.539754 0.226122 0.080394
0.566689 0.227185 0.081985
0.593624 0.228248 0.083576
0.620559 0.229311 0.085167
0.647495 0.230375 0.086759
0.674430 0.231438 0.088350
0.701365 0.232501 0.089941
0.728300 0.233564 0.091532
0.755235 0.234627 0.093123
0.782170 0.235690 0.094714
0.809105 0.236753 0.096305
0.836040 0.237816 0.097896
0.862975 0.238879 0.099487
0.889910 0.239942 0.101078
0.916845 0.241005 0.102669
0.057543 0.234951 0.053847
0.084478 0.236014 0.055438
0.111413 0.237077 0.057029
0.138348 0.238140 0.058620
0.165284 0.239204 0.060212
0.192219 0.240267 0.061803
0.219154 0.241330 0.063394
0.246089 0.242393 0.064985
0.273024 0.243456 0.066576
0.299959 0.244519 0.068167
0.326894 0.245582 0.069758
0.353829 0.246645 0.071349
0.380764 0.247708 0.072940
0.407699 0.248771 0.074531
0.434634 0.249834 0.076122
0.461569 0.250897 0.077713
0.488505 0.251961 0.079305
0.515440 0.253024 0.080896
0.542375 0.254087 0.082487
0.569310 0.255150 0.084078
0.596245 0.256213 0.085669
0.623180 0.257276 0.087260
0.650115 0.258339 0.088851
0.677050 0.259402 0.090442
0.703985 0.260465 0.092033
0.730920 0.261528 0.093624
0.757855 0.262591 0.095215
0.784790 0.263654 0.096806
0.811725 0.264717 0.098397
0.838661 0.265781 0.099989
0.865596 0.266844 0.101580
0.892531 0.267907 0.103171
0.919466 0.268970 0.104762
0.060164 0.262916 0.055940
0.087099 0.263979 0.057531
0.114034 0.265042 0.059122
0.140969 0.266105 0.060713
0.167904 0.267168 0.062304
0.194839 0.268231 0.063895
0.221774 0.269294 0.065486
0.248709 0.270357 0.067077
0.275644 0.271420 0.068668
0.302579 0.272483 0.070259
0.329515 0.273547 0.071851
0.356450 0.274610 0.073442
0.383385 0.275673 0.075033
0.410320 0.276736 0.076624
0.437255 0.277799 0.078215
0.464190 0.278862 0.079806
0.491125 0.279925 0.081397
0.518060 0.280988 0.082988
0.544995 0.282051 0.084579
0.571930 0.283114 0.086170
0.598865 0.284177 0.087761
0.625800 0.285240 0.089352
0.652735 0.286303 0.090943
0.679671 0.287367 0.092535
0.706606 0.288430 0.094126
0.733541 0.289493 0.095717
0.760476 0.290556 0.097308
0.787411 0.291619 0.098899
0.814346 0.292682 0.100490
0.841281 0.293745 0.102081
0.868216 0.294808 0.103672
0.895151 0.295871 0.105263
0.922086 0.296934 0.106854
0.062784 0.290880 0.058032
0.089719 0.291943 0.059623
0.116654 0.293006 0.061214
0.143589 0.294069 0.062805
0.170524 0.295133 0.064397
0.197460 0.296196 0.065988
0.224395 0.297259 0.067579
0.251330 0.298322 0.069170
0.278265 0.299385 0.070761
0.305200 0.300448 0.072352
0.332135 0.301511 0.073943
0.359070 0.302574 0.075534
0.386005 0.303637 0.077125
0.412940 0.304700 0.078716
0.439875 0.305763 0.080307
0.466810 0.306826 0.081898
0.493745 0.307889 0.083489
0.520681 0.308953 0.085081
0.547616 0.310016 0.086672
0.574551 0.311079 0.088263
0.601486 0.312142 0.089854
0.628421 0.313205 0.091445
0.655356 0.314268 0.093036
0.682291 0.315331 0.094627
0.709226 0.316394 0.096218
0.736161 0.317457 0.097809
0.763096 0.318520 0.099400
0.790031 0.319583 0.100991
0.816966 0.320646 0.102582
0.843901 0.321710 0.104174
0.870837 0.322773 0.105765
0.897772 0.323836 0.107356
0.924707 0.324899 0.108947
0.065405 0.318845 0.060125
0.092340 0.319908 0.061716
0.119275 0.320971 0.063307
0.146210 0.322034 0.064898
0.173145 0.323097 0.066489
0.200080 0.324160 0.068080
0.227015 0.325223 0.069671
0.253950 0.326286 0.071262
0.280885 0.327349 0.072853
0.307820 0.328412 0.074444
0.334755 0.329475 0.076035
0.361690 0.330539 0.077627
0.388626 0.331602 0.079218
0.415561 0.332665 0.080809
0.442496 0.333728 0.082400
0.469431 0.334791 0.083991
0.496366 0.335854 0.085582
0.523301 0.336917 0.087173
0.550236 0.337980 0.088764
0.577171 0.339043 0.090355
0.604106 0.340106 0.091946
0.631041 0.341169 0.093537
0.657976 0.342232 0.095128
0.684911 0.343296 0.096719
0.711847 0.344359 0.098311
0.738782 0.345422 0.099902
0.765717 0.346485 0.101493
0.792652 0.347548 0.103084
0.819587 0.348611 0.104675
0.846522 0.349674 0.106266
0.873457 0.350737 0.107857
0.900392 0.351800 0.109448
0.927327 0.352863 0.111039
0.068025 0.346809 0.062217
0.094960 0.347872 0.063808
0.121895 0.348935 0.065399
0.148830 0.349998 0.066990
0.175765 0.351061 0.068581
0.202700 0.352125 0.070173
0.229636 0.353188 0.071764
0.256571 0.354251 0.073355
0.283506 0.355314 0.074946
0.310441 0.356377 0.076537
0.337376 0.357440 0.078128
0.364311 0.358503 0.079719
0.391246 0.359566 0.081310
0.418181 0.360629 0.082901
0.445116 0.361692 0.084492
0.472051 0.362755 0.086083
0.498986 0.363818 0.087674
0.525921 0.364881 0.089265
0.552857 0.365945 0.090857
0.579792 0.367008 0.092448
0.606727 0.368071 0.094039
0.633662 0.369134 0.095630
0.660597 0.370197 0.097221
0.687532 0.371260 0.098812
0.714467 0.372323 0.100403
0.741402 0.373386 0.101994
0.768337 0.374449 0.103585
0.795272 0.375512 0.105176
0.822207 0.376575 0.106767
0.849142 0.377638 0.108358
0.876078 0.378702 0.109950
0.903013 0.379765 0.111541
0.929948 0.380828 0.113132
0.070646 0.374774 0.064310
0.097581 0.375837 0.065901
0.124516 0.376900 0.067492
0.151451 0.377963 0.069083
0.178386 0.379026 0.070674
0.205321 0.380089 0.072265
0.232256 0.381152 0.073856
0.259191 0.382215 0.075447
0.286126 0.383278 0.077038
0.313061 0.384341 0.078629
0.339996 0.385404 0.080220
0.366931 0.386467 0.081811
0.393867 0.387531 0.083403
0.420802 0.388594 0.084994
0.447737 0.389657 0.086585
0.474672 0.390720 0.088176
0.501607 0.391783 0.089767
0.528542 0.392846 0.091358
0.555477 0.393909 0.092949
0.582412 0.394972 0.094540
0.609347 0.396035 0.096131
0.636282 0.397098 0.097722
0.663217 0.398161 0.099313
0.690152 0.399224 0.100904
0.717088 0.400288 0.102495
0.744023 0.401351 0.104087
0.770958 0.402414 0.105678
0.797893 0.403477 0.107269
0.824828 0.404540 0.108860
0.851763 0.405603 0.110451
0.878698 0.406666 0.112042
0.905633 0.407729 0.113633
0.932568 0.408792 0.115224
0.073266 0.402738 0.066402
0.100201 0.403801 0.067993
0.127136 0.404864 0.069584
0.154071 0.405927 0.071175
0.181006 0.406990 0.072766
0.207941 0.408053 0.074357
0.234876 0.409117 0.075949
0.261812 0.410180 0.077540
0.288747 0.411243 0.079131
0.315682 0.412306 0.080722
0.342617 0.413369 0.082313
0.369552 0.414432 0.083904
0.396487 0.415495 0.085495
0.423422 0.416558 0.087086
0.450357 0.417621 0.088677
0.477292 0.418684 0.090268
0.504227 0.419747 0.091859
0.531162 0.420810 0.093450
0.558097 0.421873 0.095041
0.585033 0.422937 0.096633
0.611968 0.424000 0.098224
0.638903 0.425063 0.099815
0.665838 0.426126 0.101406
0.692773 0.427189 0.102997
0.719708 0.428252 0.104588
0.746643 0.429315 0.106179
0.773578 0.430378 0.107770
0.800513 0.431441 0.109361
0.827448 0.432504 0.110952
0.854383 0.433567 0.112543
0.881318 0.434630 0.114134
0.908254 0.435694 0.115726
0.935189 0.436757 0.117317
0.075887 0.430703 0.068494
0.102822 0.431766 0.070086
0.129757 0.432829 0.071677
0.156692 0.433892 0.073268
0.183627 0.434955 0.074859
0.210562 0.436018 0.076450
0.237497 0.437081 0.078041
0.264432 0.438144 0.079632
0.291367 0.439207 0.081223
0.318302 0.440270 0.082814
0.345237 0.441333 0.084405
0.372172 0.442396 0.085996
0.399107 0.443459 0.087587
0.426043 0.444523 0.089179
0.452978 0.445586 0.090770
0.479913 0.446649 0.092361
0.506848 0.447712 0.093952
0.533783 0.448775 0.095543
0.560718 0.449838 0.097134
0.587653 0.450901 0.098725
0.614588 0.451964 0.100316
0.641523 0.453027 0.101907
0.668458 0.454090 0.103498
0.695393 0.455153 0.105089
0.722328 0.456216 0.106680
0.749263 0.457280 0.108271
0.776199 0.458343 0.109863
0.803134 0.459406 0.111454
0.830069 0.460469 0.113045
0.857004 0.461532 0.114636
0.883939 0.462595 0.116227
0.910874 0.463658 0.117818
0.937809 0.464721 0.119409
0.078507 0.458667 0.070587
0.105442 0.459730 0.072178
0.132377 0.460793 0.073769
0.159312 0.461856 0.075360
0.186247 0.462919 0.076951
0.213182 0.463982 0.078542
0.240117 0.465045 0.080133
0.267053 0.466109 0.081725
0.293988 0.467172 0.083316
0.320923 0.468235 0.084907
0.347858 0.469298 0.086498
0.374793 0.470361 0.088089
0.401728 0.471424 0.089680
0.428663 0.472487 0.091271
0.455598 0.473550 0.092862
0.482533 0.474613 0.094453
0.509468 0.475676 0.096044
0.536403 0.476739 0.097635
0.563338 0.477802 0.099226
0.590273 0.478866 0.100817
0.617209 0.479929 0.102409
0.644144 0.480992 0.104000
0.671079 0.482055 0.105591
0.698014 0.483118 0.107182
0.724949 0.484181 0.108773
0.751884 0.485244 0.110364
0.778819 0.486307 0.111955
0.805754 0.487370 0.113546
0.832689 0.488433 0.115137
0.859624 0.489496 0.116728
0.886559 0.490559 0.118319
0.913494 0.491622 0.119910
0.940429 0.492686 0.121502
0.081127 0.486631 0.072679
0.108063 0.487695 0.074271
0.134998 0.488758 0.075862
0.161933 0.489821 0.077453
0.188868 0.490884 0.079044
0.215803 0.491947 0.080635
0.242738 0.493010 0.082226
0.269673 0.494073 0.083817
0.296608 0.495136 0.085408
0.323543 0.496199 0.086999
0.350478 0.497262 0.088590
0.377413 0.498325 0.090181
0.404348 0.499388 0.091772
0.431283 0.500451 0.093363
0.458219 0.501515 0.094955
0.485154 0.502578 0.096546
0.512089 0.503641 0.098137
0.539024 0.504704 0.099728
0.565959 0.505767 0.101319
0.592894 0.506830 0.102910
0.619829 0.507893 0.104501
0.646764 0.508956 0.106092
0.673699 0.510019 0.107683
0.700634 0.511082 0.109274
0.727569 0.512145 0.110865
0.754504 0.513208 0.112456
0.781439 0.514271 0.114047
0.808375 0.515335 0.115639
0.835310 0.516398 0.117230
0.862245 0.517461 0.118821
0.889180 0.518524 0.120412
0.916115 0.519587 0.122003
0.943050 0.520650 0.123594
0.083748 0.514596 0.074772
0.110683 0.515659 0.076363
0.137618 0.516722 0.077954
0.164553 0.517785 0.079545
0.191488 0.518848 0.081136
0.218423 0.519911 0.082727
0.245358 0.520974 0.084318
0.272293 0.522037 0.085909
0.299229 0.523100 0.087501
0.326164 0.524164 0.089092
0.353099 0.525227 0.090683
0.380034 0.526290 0.092274
0.406969 0.527353 0.093865
0.433904 0.528416 0.095456
0.460839 0.529479 0.097047
0.487774 0.530542 0.098638
0.514709 0.531605 0.100229
0.541644 0.532668 0.101820
0.568579 0.533731 0.103411
0.595514 0.534794 0.105002
0.622449 0.535857 0.106593
0.649384 0.536921 0.108185
0.676320 0.537984 0.109776
0.703255 0.539047 0.111367
0.730190 0.540110 0.112958
0.757125 0.541173 0.114549
0.784060 0.542236 0.116140
0.810995 0.543299 0.117731
0.837930 0.544362 0.119322
0.864865 0.545425 0.120913
0.891800 0.546488 0.122504
0.918735 0.547551 0.124095
0.945670 0.548614 0.125686
0.086368 0.542560 0.076864
0.113303 0.543623 0.078455
0.140238 0.544686 0.080047
0.167174 0.545750 0.081638
0.194109 0.546813 0.083229
0.221044 0.547876 0.084820
0.247979 0.548939 0.086411
0.274914 0.550002 0.088002
0.301849 0.551065 0.089593
0.328784 0.552128 0.091184
0.355719 0.553191 0.092775
0.382654 0.554254 0.094366
0.409589 0.555317 0.095957
0.436524 0.556380 0.097548
0.463459 0.557443 0.099139
0.490395 0.558507 0.100731
0.517330 0.559570 0.102322
0.544265 0.560633 0.103913
0.571200 0.561696 0.105504
0.598135 0.562759 0.107095
0.625070 0.563822 0.108686
0.652005 0.564885 0.110277
0.678940 0.565948 0.111868
0.705875 0.567011 0.113459
0.732810 0.568074 0.115050
0.759745 0.569137 0.116641
0.786680 0.570200 0.118232
0.813616 0.571263 0.119824
0.840551 0.572327 0.121415
0.867486 0.573390 0.123006
0.894421 0.574453 0.124597
0.921356 0.575516 0.126188
0.948291 0.576579 0.127779
0.088989 0.570525 0.078957
0.115924 0.571588 0.080548
0.142859 0.572651 0.082139
0.169794 0.573714 0.083730
0.196729 0.574777 0.085321
0.223664 0.575840 0.086912
0.250599 0.576903 0.088503
0.277534 0.577966 0.090094
0.304469 0.579029 0.091685
0.331405 0.580093 0.093277
0.358340 0.581156 0.094868
0.385275 0.582219 0.096459
0.412210 0.583282 0.098050
0.439145 0.584345 0.099641
0.466080 0.585408 0.101232
0.493015 0.586471 0.102823
0.519950 0.587534 0.104414
0.546885 0.588597 0.106005
0.573820 0.589660 0.107596
0.600755 0.590723 0.109187
0.627690 0.591786 0.110778
0.654625 0.592849 0.112370
0.681561 0.593913 0.113961
0.708496 0.594976 0.115552
0.735431 0.596039 0.117143
0.762366 0.597102 0.118734
0.789301 0.598165 0.120325
0.816236 0.599228 0.121916
0.843171 0.600291 0.123507
0.870106 0.601354 0.125098
0.897041 0.602417 0.126689
0.923976 0.603480 0.128280
0.950911 0.604543 0.129871
0.091609 0.598489 0.081049
0.118544 0.599552 0.082640
0.145479 0.600615 0.084231
0.172415 0.601678 0.085823
0.199350 0.602742 0.087414
0.226285 0.603805 0.089005
0.253220 0.604868 0.090596
0.280155 0.605931 0.092187
0.307090 0.606994 0.093778
0.334025 0.608057 0.095369
0.360960 0.609120 0.096960
0.387895 0.610183 0.098551
0.414830 0.611246 0.100142
0.441765 0.612309 0.101733
0.468700 0.613372 0.103324
0.495635 0.614435 0.104915
0.522571 0.615499 0.106507
0.549506 0.616562 0.108098
0.576441 0.617625 0.109689
0.603376 0.618688 0.111280
0.630311 0.619751 0.112871
0.657246 0.620814 0.114462
0.684181 0.621877 0.116053
0.711116 0.622940 0.117644
0.738051 0.624003 0.119235
0.764986 0.625066 0.120826
0.791921 0.626129 0.122417
0.818856 0.627192 0.124008
0.845792 0.628255 0.125600
0.872727 0.629319 0.127191
0.899662 0.630382 0.128782
0.926597 0.631445 0.130373
0.953532 0.632508 0.131964
0.094230 0.626454 0.083142
0.121165 0.627517 0.084733
0.148100 0.628580 0.086324
0.175035 0.629643 0.087915
0.201970 0.630706 0.089506
0.228905 0.631769 0.091097
0.255840 0.632832 0.092688
0.282775 0.633895 0.094279
0.309710 0.634958 0.095870
0.336645 0.636021 0.097461
0.363581 0.637084 0.099053
0.390516 0.638148 0.100644
0.417451 0.639211 0.102235
0.444386 0.640274 0.103826
0.471321 0.641337 0.105417
0.498256 0.642400 0.107008
0.525191 0.643463 0.108599
0.552126 0.644526 0.110190
0.579061 0.645589 0.111781
0.605996 0.646652 0.113372
0.632931 0.647715 0.114963
0.659866 0.648778 0.116554
0.686801 0.649841 0.118145
0.713737 0.650905 0.119737
0.740672 0.651968 0.121328
0.767607 0.653031 0.122919
0.794542 0.654094 0.124510
0.821477 0.655157 0.126101
0.848412 0.656220 0.127692
0.875347 0.657283 0.129283
0.902282 0.658346 0.130874
0.929217 0.659409 0.132465
0.956152 0.660472 0.134056
0.096850 0.654418 0.085234
0.123785 0.655481 0.086825
0.150720 0.656544 0.088416
0.177655 0.657607 0.090007
0.204591 0.658671 0.091599
0.231526 0.659734 0.093190
0.258461 0.660797 0.094781
0.285396 0.661860 0.096372
0.312331 0.662923 0.097963
0.339266 0.663986 0.099554
0.366201 0.665049 0.101145
0.393136 0.666112 0.102736
0.420071 0.667175 0.104327
0.447006 0.668238 0.105918
0.473941 0.669301 0.107509
0.500876 0.670364 0.109100
0.527812 0.671427 0.110691
0.554747 0.672491 0.112283
0.581682 0.673554 0.113874
0.608617 0.674617 0.115465
0.635552 0.675680 0.117056
0.662487 0.676743 0.118647
0.689422 0.677806 0.120238
0.716357 0.678869 0.121829
0.743292 0.679932 0.123420
0.770227 0.680995 0.125011
0.797162 0.682058 0.126602
0.824097 0.683121 0.128193
0.851032 0.684184 0.129784
0.877967 0.685248 0.131376
0.904903 0.686311 0.132967
0.931838 0.687374 0.134558
0.958773 0.688437 0.136149
0.099471 0.682383 0.087327
0.126406 0.683446 0.088918
0.153341 0.684509 0.090509
0.180276 0.685572 0.092100
0.207211 0.686635 0.093691
0.234146 0.687698 0.095282
0.261081 0.688761 0.096873
0.288016 0.689824 0.098464
0.314951 0.690887 0.100055
0.341886 0.691950 0.101646
0.368822 0.693013 0.103237
0.395757 0.694077 0.104829
0.422692 0.695140 0.106420
0.449627 0.696203 0.108011
0.476562 0.697266 0.109602
0.503497 0.698329 0.111193
0.530432 0.699392 0.112784
0.557367 0.700455 0.114375
0.584302 0.701518 0.115966
0.611237 0.702581 0.117557
0.638172 0.703644 0.119148
0.665107 0.704707 0.120739
0.692042 0.705770 0.122330
0.718978 0.706833 0.123922
0.745913 0.707897 0.125513
0.772848 0.708960 0.127104
0.799783 0.710023 0.128695
0.826718 0.711086 0.130286
0.853653 0.712149 0.131877
0.880588 0.713212 0.133468
0.907523 0.714275 0.135059
0.934458 0.715338 0.136650
0.961393 0.716401 0.138241
0.102091 0.710347 0.089419
0.129026 0.711410 0.091010
0.155961 0.712473 0.092601
0.182896 0.713536 0.094192
0.209831 0.714599 0.095783
0.236767 0.715662 0.097375
0.263702 0.716726 0.098966
0.290637 0.717789 0.100557
0.317572 0.718852 0.102148
0.344507 0.719915 0.103739
0.371442 0.720978 0.105330
0.398377 0.722041 0.106921
0.425312 0.723104 0.108512
0.452247 0.724167 0.110103
0.479182 0.725230 0.111694
0.506117 0.726293 0.113285
0.533052 0.727356 0.114876
0.559987 0.728419 0.116468
0.586923 0.729483 0.118059
0.613858 0.730546 0.119650
0.640793 0.731609 0.121241
0.667728 0.732672 0.122832
0.694663 0.733735 0.124423
0.721598 0.734798 0.126014
0.748533 0.735861 0.127605
0.775468 0.736924 0.129196
0.802403 0.737987 0.130787
0.829338 0.739050 0.132378
0.856273 0.740113 0.133969
0.883208 0.741176 0.135560
0.910143 0.742240 0.137152
0.937079 0.743303 0.138743
0.964014 0.744366 0.140334
0.104712 0.738312 0.091512
0.131647 0.739375 0.093103
0.158582 0.740438 0.094694
0.185517 0.741501 0.096285
0.212452 0.742564 0.097876
0.239387 0.743627 0.099467
0.266322 0.744690 0.101058
0.293257 0.745753 0.102649
0.320192 0.746816 0.104240
0.347127 0.747879 0.105831
0.374062 0.748942 0.107422
0.400997 0.750005 0.109013
0.427933 0.751069 0.110605
0.454868 0.752132 0.112196
0.481803 0.753195 0.113787
0.508738 0.754258 0.115378
0.535673 0.755321 0.116969
0.562608 0.756384 0.118560
0.589543 0.757447 0.120151
0.616478 0.758510 0.121742
0.643413 0.759573 0.123333
0.670348 0.760636 0.124924
0.697283 0.761699 0.126515
0.724218 0.762762 0.128106
0.751154 0.763825 0.129698
0.778089 0.764889 0.131289
0.805024 0.765952 0.132880
0.831959 0.767015 0.134471
0.858894 0.768078 0.136062
0.885829 0.769141 0.137653
0.912764 0.770204 0.139244
0.939699 0.771267 0.140835
0.966634 0.772330 0.142426
0.107332 0.766276 0.093604
0.134267 0.767339 0.095195
0.161202 0.768402 0.096786
0.188137 0.769465 0.098377
0.215072 0.770528 0.099968
0.242007 0.771591 0.101559
0.268943 0.772655 0.103151
0.295878 0.773718 0.104742
0.322813 0.774781 0.106333
0.349748 0.775844 0.107924
0.376683 0.776907 0.109515
0.403618 0.777970 0.111106
0.430553 0.779033 0.112697
0.457488 0.780096 0.114288
0.484423 0.781159 0.115879
0.511358 0.782222 0.117470
0.538293 0.783285 0.119061
0.565228 0.784348 0.120652
0.592164 0.785411 0.122244
0.619099 0.786475 0.123835
0.646034 0.787538 0.125426
0.672969 0.788601 0.127017
0.699904 0.789664 0.128608
0.726839 0.790727 0.130199
