app/src/main/assets/luts/film_muted_frame.cube
# V-Cam procedural LUT — film_muted_frame
# Generated by LutBaker. Do not edit by hand.
TITLE "V-Cam film_muted_frame"
LUT_3D_SIZE 5
DOMAIN_MIN 0.0 0.0 0.0
DOMAIN_MAX 1.0 1.0 1.0
0.039200 0.039200 0.039200
0.254681 0.047705 0.051929
0.470161 0.056209 0.064657
0.685642 0.064714 0.077386
0.901123 0.073219 0.090115
0.060164 0.262916 0.055940
0.275644 0.271420 0.068668
0.491125 0.279925 0.081397
0.706606 0.288430 0.094126
0.922086 0.296934 0.106854
0.081127 0.486631 0.072679
0.296608 0.495136 0.085408
0.512089 0.503641 0.098137
0.727569 0.512145 0.110865
0.943050 0.520650 0.123594
0.102091 0.710347 0.089419
0.317572 0.718852 0.102148
0.533052 0.727356 0.114876
0.748533 0.735861 0.127605
0.964014 0.744366 0.140334
0.123055 0.934063 0.106159
0.338536 0.942567 0.118888
0.554016 0.951072 0.131616
0.769497 0.959577 0.144345
0.984977 0.968081 0.157073
0.042756 0.046980 0.249732
0.258236 0.055484 0.262460
0.473717 0.063989 0.275189
0.689198 0.072494 0.287918
0.904678 0.080998 0.300646
0.063719 0.270695 0.266471
0.279200 0.279200 0.279200
0.494681 0.287705 0.291929
0.710161 0.296209 0.304657
0.925642 0.304714 0.317386
0.084683 0.494411 0.283211
0.300164 0.502916 0.295940
0.515644 0.511420 0.308668
0.731125 0.519925 0.321397
0.946606 0.528430 0.334126
0.105647 0.718127 0.299951
0.321127 0.726631 0.312679
0.536608 0.735136 0.325408
0.752089 0.743641 0.338137
0.967569 0.752145 0.350865
0.126611 0.941842 0.316691
0.342091 0.950347 0.329419
0.557572 0.958852 0.342148
0.773052 0.967356 0.354876
0.988533 0.975861 0.367605
0.046311 0.054759 0.460263
0.261792 0.063264 0.472992
0.477273 0.071769 0.485721
0.692753 0.080273 0.498449
0.908234 0.088778 0.511178
0.067275 0.278475 0.477003
0.282756 0.286980 0.489732
0.498236 0.295484 0.502460
0.713717 0.303989 0.515189
0.929198 0.312494 0.527918
0.088239 0.502191 0.493743
0.303719 0.510695 0.506471
0.519200 0.519200 0.519200
0.734681 0.527705 0.531929
0.950161 0.536209 0.544657
0.109202 0.725906 0.510482
0.324683 0.734411 0.523211
0.540164 0.742916 0.535940
0.755644 0.751420 0.548668
0.971125 0.759925 0.561397
0.130166 0.949622 0.527222
0.345647 0.958127 0.539951
0.561127 0.966631 0.552679
0.776608 0.975136 0.565408
0.992089 0.983641 0.578137
0.049867 0.062539 0.670795
0.265348 0.071044 0.683524
0.480828 0.079548 0.696252
0.696309 0.088053 0.708981
0.911789 0.096558 0.721709
0.070831 0.286255 0.687535
0.286311 0.294759 0.700263
0.501792 0.303264 0.712992
0.717273 0.311769 0.725721
0.932753 0.320273 0.738449
0.091794 0.509970 0.704274
0.307275 0.518475 0.717003
0.522756 0.526980 0.729732
0.738236 0.535484 0.742460
0.953717 0.543989 0.755189
0.112758 0.733686 0.721014
0.328239 0.742191 0.733743
0.543719 0.750695 0.746471
0.759200 0.759200 0.759200
0.974681 0.767705 0.771929
0.133722 0.957402 0.737754
0.349202 0.965906 0.750482
0.564683 0.974411 0.763211
0.780164 0.982916 0.775940
0.995644 0.991420 0.788668
0.053423 0.070319 0.881327
0.268903 0.078823 0.894055
0.484384 0.087328 0.906784
0.699865 0.095833 0.919512
0.915345 0.104337 0.932241
0.074386 0.294034 0.898066
0.289867 0.302539 0.910795
0.505348 0.311044 0.923524
0.720828 0.319548 0.936252
0.936309 0.328053 0.948981
0.095350 0.517750 0.914806
0.310831 0.526255 0.927535
0.526311 0.534759 0.940263
0.741792 0.543264 0.952992
0.957273 0.551769 0.965721
0.116314 0.741466 0.931546
0.331794 0.749970 0.944274
0.547275 0.758475 0.957003
0.762756 0.766980 0.969732
0.978236 0.775484 0.982460
0.137277 0.965181 0.948285
0.352758 0.973686 0.961014
0.568239 0.982191 0.973743
0.783719 0.990695 0.986471
0.999200 0.999200 0.999200
