app/src/main/assets/luts/film_warm_vintage.cube
# V-Cam procedural LUT — film_warm_vintage
# Generated by LutBaker. Do not edit by hand.
TITLE "V-Cam film_warm_vintage"
LUT_3D_SIZE 9
DOMAIN_MIN 0.0 0.0 0.0
DOMAIN_MAX 1.0 1.0 1.0
0.257668 0.244239 0.315215
0.258934 0.244355 0.315253
0.273268 0.245718 0.315696
0.326864 0.251690 0.317730
0.433403 0.268184 0.324060
0.575947 0.302186 0.339963
0.721613 0.357173 0.372490
0.835207 0.418132 0.415206
0.872368 0.442691 0.433914
0.257880 0.245515 0.315280
0.259145 0.245630 0.315318
0.273466 0.246985 0.315762
0.327027 0.252919 0.317798
0.433523 0.269316 0.324135
0.576038 0.303152 0.340048
0.721686 0.357943 0.372590
0.835273 0.418748 0.415315
0.872433 0.443257 0.434024
0.260371 0.260007 0.316051
0.261621 0.260116 0.316089
0.275791 0.261381 0.316532
0.328936 0.266904 0.318601
0.434930 0.282255 0.325012
0.577101 0.314274 0.341045
0.722545 0.366871 0.373773
0.836055 0.425916 0.416592
0.873199 0.449858 0.435323
0.271130 0.314151 0.319566
0.272316 0.314239 0.319605
0.285804 0.315266 0.320059
0.337091 0.319669 0.322060
0.440979 0.331804 0.328784
0.581692 0.357934 0.345313
0.726268 0.402919 0.378865
0.839444 0.455465 0.422087
0.876522 0.477239 0.440916
0.299597 0.421922 0.330222
0.300638 0.421985 0.330263
0.312541 0.422727 0.330742
0.358793 0.425921 0.332802
0.456822 0.434338 0.338625
0.593865 0.451992 0.356323
0.736236 0.484603 0.392251
0.848537 0.525308 0.436534
0.885439 0.542843 0.455622
0.353594 0.568316 0.355244
0.354425 0.568362 0.355287
0.363997 0.568902 0.355782
0.402321 0.571234 0.357912
0.488007 0.577426 0.363517
0.616995 0.589238 0.375879
0.756377 0.609353 0.415494
0.866372 0.637372 0.463743
0.902939 0.649900 0.483341
0.432152 0.725053 0.401402
0.432773 0.725090 0.401444
0.439982 0.725519 0.401939
0.469645 0.727373 0.404069
0.539727 0.732304 0.409675
0.652118 0.741831 0.420252
0.785985 0.755456 0.441619
0.893236 0.772335 0.502393
0.929331 0.780598 0.522750
0.523489 0.856138 0.468468
0.523949 0.856170 0.468513
0.529306 0.856552 0.469044
0.551757 0.858202 0.471330
0.607504 0.862392 0.478204
0.701488 0.870663 0.491614
0.818443 0.883232 0.511479
0.923288 0.896451 0.540703
0.958712 0.901683 0.563927
0.580311 0.914481 0.516586
0.580697 0.914513 0.516636
0.585203 0.914886 0.517217
0.604223 0.916502 0.519727
0.651896 0.920833 0.526407
0.734735 0.929333 0.539315
0.841058 0.942092 0.558228
0.939271 0.955761 0.577931
0.974869 0.961166 0.585577
0.257703 0.244272 0.315907
0.258969 0.244388 0.315944
0.273301 0.245751 0.316385
0.326891 0.251723 0.318409
0.433423 0.268217 0.324711
0.575963 0.302216 0.340554
0.721625 0.357202 0.372985
0.835218 0.418160 0.415609
0.872379 0.442718 0.434283
0.257915 0.245548 0.315972
0.259180 0.245663 0.316009
0.273500 0.247018 0.316450
0.327058 0.252949 0.318475
0.433552 0.269342 0.324780
0.576068 0.303169 0.340627
0.721719 0.357951 0.373065
0.835310 0.418748 0.415690
0.872472 0.443255 0.434364
0.260406 0.260038 0.316740
0.261654 0.260147 0.316777
0.275824 0.261412 0.317218
0.328966 0.266933 0.319275
0.434958 0.282280 0.325655
0.577130 0.314290 0.341621
0.722578 0.366879 0.374245
0.836092 0.425917 0.416965
0.873238 0.449857 0.435661
0.271164 0.314176 0.320240
0.272346 0.314266 0.320276
0.285833 0.315293 0.320728
0.337118 0.319694 0.322723
0.441005 0.331826 0.329414
0.581719 0.357949 0.345878
0.726300 0.402927 0.379327
0.839480 0.455466 0.422452
0.876560 0.477238 0.441246
0.299629 0.421940 0.330859
0.300659 0.422008 0.330891
0.312561 0.422750 0.331368
0.358813 0.425942 0.333422
0.456842 0.434356 0.339227
0.593889 0.452006 0.356860
0.736265 0.484612 0.392686
0.848571 0.525312 0.436878
0.885474 0.542845 0.455934
0.353622 0.568328 0.355809
0.354433 0.568382 0.355831
0.364005 0.568923 0.356325
0.402331 0.571254 0.358450
0.488019 0.577443 0.364042
0.617011 0.589252 0.376373
0.756403 0.609363 0.415882
0.866400 0.637379 0.464050
0.902970 0.649905 0.483620
0.432180 0.725062 0.401868
0.432764 0.725112 0.401868
0.439973 0.725541 0.402363
0.469639 0.727394 0.404489
0.539726 0.732324 0.410084
0.652125 0.741847 0.420642
0.786000 0.755468 0.441968
0.893258 0.772344 0.502656
0.929355 0.780607 0.522988
0.523528 0.856140 0.468839
0.523917 0.856199 0.468803
0.529275 0.856581 0.469333
0.551729 0.858231 0.471615
0.607487 0.862417 0.478483
0.701483 0.870685 0.491877
0.818450 0.883249 0.511722
0.923303 0.896464 0.540915
0.958729 0.901694 0.564128
0.580332 0.914490 0.516876
0.580659 0.914545 0.516857
0.585166 0.914918 0.517438
0.604189 0.916533 0.519946
0.651872 0.920862 0.526621
0.734724 0.929358 0.539518
0.841060 0.942112 0.558419
0.939282 0.955775 0.578110
0.974882 0.961179 0.585753
0.258119 0.244667 0.323959
0.259382 0.244784 0.323995
0.273689 0.246145 0.324419
0.327210 0.252114 0.326328
0.433658 0.268599 0.332307
0.576145 0.302577 0.347466
0.721768 0.357552 0.378798
0.835348 0.418488 0.420344
0.872506 0.443039 0.438633
0.258331 0.245941 0.324022
0.259592 0.246056 0.324059
0.273888 0.247408 0.324483
0.327377 0.253337 0.326393
0.433788 0.269721 0.332374
0.576252 0.303526 0.347535
0.721866 0.358296 0.378873
0.835445 0.419071 0.420420
0.872605 0.443570 0.438708
0.260817 0.260406 0.324763
0.262063 0.260515 0.324800
0.276210 0.261777 0.325223
0.329322 0.267277 0.327149
0.435291 0.282568 0.333164
0.577479 0.314482 0.348370
0.722970 0.366967 0.379792
0.836532 0.425923 0.421361
0.873699 0.449838 0.439649
0.271563 0.314474 0.328108
0.272742 0.314565 0.328142
0.286176 0.315611 0.328551
0.337435 0.319991 0.330461
0.441311 0.332082 0.336790
0.582049 0.358130 0.352499
0.726678 0.403021 0.384752
0.839909 0.455485 0.426751
0.877009 0.477232 0.445147
0.299999 0.422155 0.338299
0.301024 0.422224 0.338328
0.312806 0.423016 0.338694
0.359051 0.426194 0.340677
0.457081 0.434573 0.346271
0.594168 0.452175 0.363166
0.736607 0.484717 0.397807
0.848969 0.525355 0.440933
0.885893 0.542867 0.459614
0.353955 0.568480 0.362419
0.354758 0.568536 0.362435
0.364100 0.569165 0.362695
0.402443 0.571487 0.364761
0.488163 0.577650 0.370200
0.617200 0.589416 0.382178
0.756701 0.609476 0.420456
0.866739 0.637456 0.467683
0.903333 0.649965 0.486917
0.432522 0.725159 0.407343
0.433092 0.725214 0.407331
0.439873 0.725800 0.407352
0.469570 0.727645 0.409432
0.539724 0.732555 0.414907
0.652209 0.742040 0.425245
0.786177 0.755612 0.446084
0.893512 0.772457 0.505762
0.929636 0.780705 0.525805
0.523985 0.856171 0.473199
0.524351 0.856238 0.473139
0.528912 0.856918 0.472751
0.551410 0.858561 0.474995
0.607287 0.862719 0.481783
0.701426 0.870943 0.494997
0.818529 0.883448 0.514598
0.923480 0.896612 0.543423
0.958924 0.901824 0.566508
0.580571 0.914598 0.520293
0.580905 0.914650 0.520283
0.584722 0.915294 0.520058
0.603794 0.916899 0.522541
0.651586 0.921203 0.529150
0.734595 0.929652 0.541931
0.841084 0.942342 0.560681
0.939408 0.955947 0.580238
0.975038 0.961329 0.587835
0.259965 0.246426 0.356469
0.261213 0.246544 0.356502
0.275362 0.247914 0.356892
0.328599 0.253816 0.358534
0.434684 0.270265 0.363321
0.576940 0.304146 0.375917
0.722393 0.359078 0.403025
0.835916 0.419921 0.440319
0.873064 0.444437 0.457054
0.260178 0.247687 0.356526
0.261424 0.247802 0.356564
0.275562 0.249165 0.356953
0.328764 0.255029 0.358594
0.434813 0.271378 0.363384
0.577047 0.305088 0.375983
0.722491 0.359817 0.403097
0.836013 0.420500 0.440393
0.873162 0.444966 0.457127
0.262680 0.262013 0.357205
0.263911 0.262122 0.357242
0.277893 0.263389 0.357667
0.330701 0.268854 0.359297
0.436325 0.284116 0.364114
0.578299 0.315945 0.376749
0.723637 0.368393 0.403934
0.837155 0.427262 0.441249
0.874314 0.451144 0.457985
0.273301 0.315775 0.360129
0.274470 0.315864 0.360163
0.287789 0.316905 0.360557
0.338792 0.321257 0.362179
0.442626 0.333176 0.367150
0.583473 0.358899 0.380003
0.728318 0.403409 0.407605
0.841773 0.455548 0.445089
0.878961 0.477190 0.461855
0.301611 0.423092 0.368740
0.302629 0.423161 0.368769
0.314294 0.423964 0.369105
0.360072 0.427276 0.370584
0.458110 0.435504 0.375385
0.595373 0.452898 0.389465
0.738089 0.485161 0.419457
0.850699 0.525531 0.458277
0.887717 0.542949 0.475414
0.355409 0.569142 0.389743
0.356207 0.569198 0.389760
0.365418 0.569854 0.389963
0.402918 0.572487 0.391080
0.488782 0.578540 0.395931
0.618014 0.590119 0.406541
0.757987 0.609961 0.439958
0.868212 0.637784 0.483294
0.904910 0.650216 0.501132
0.434019 0.725587 0.430267
0.434585 0.725642 0.430259
0.441175 0.726282 0.430166
0.469270 0.728728 0.430401
0.539711 0.733552 0.435400
0.652568 0.742870 0.444859
0.786934 0.756228 0.463739
0.894616 0.772941 0.519179
0.930857 0.781128 0.538008
0.525992 0.856305 0.491655
0.526354 0.856373 0.491602
0.530592 0.857158 0.490976
0.550092 0.859953 0.489720
0.606422 0.864013 0.496094
0.701178 0.872053 0.508546
0.818865 0.884304 0.527117
0.924244 0.897251 0.554377
0.959771 0.902386 0.576863
0.581618 0.915072 0.534916
0.581951 0.915124 0.534908
0.585840 0.915731 0.534810
0.602079 0.918474 0.533901
0.650346 0.922669 0.540231
0.734034 0.930917 0.552506
0.841185 0.943334 0.570594
0.939955 0.956685 0.589561
0.975711 0.961978 0.596956
0.265220 0.251465 0.429678
0.266427 0.251585 0.429706
0.280134 0.252985 0.430041
0.332071 0.258947 0.431485
0.437475 0.274757 0.435029
0.579112 0.308371 0.442828
0.724100 0.363213 0.461535
0.837470 0.423810 0.489901
0.874586 0.448237 0.503228
0.265437 0.252689 0.429727
0.266640 0.252806 0.429766
0.280337 0.254197 0.430101
0.332239 0.260125 0.431543
0.437602 0.275847 0.435085
0.579217 0.309297 0.442888
0.724196 0.363941 0.461601
0.837566 0.424382 0.489970
0.874684 0.448759 0.503298
0.267980 0.266627 0.430310
0.269169 0.266737 0.430350
0.282697 0.268016 0.430797
0.334203 0.273566 0.432220
0.439089 0.288332 0.435737
0.580454 0.319963 0.443581
0.725333 0.372383 0.462370
0.838699 0.431053 0.490777
0.875828 0.454859 0.504113
0.278724 0.319233 0.432824
0.279854 0.319323 0.432862
0.292748 0.320376 0.433291
0.342412 0.324783 0.435009
0.445351 0.336551 0.438422
0.585690 0.362175 0.446449
0.730181 0.406727 0.465580
0.843549 0.458744 0.494159
0.880728 0.480333 0.507535
0.305976 0.425643 0.439429
0.306975 0.425710 0.439460
0.318428 0.426495 0.439812
0.363401 0.429789 0.441253
0.460777 0.437900 0.444636
0.598524 0.454743 0.453273
0.742329 0.486041 0.473405
0.855343 0.525894 0.502949
0.892621 0.543061 0.516531
0.359370 0.570949 0.454524
0.360155 0.571004 0.454546
0.369220 0.571650 0.454797
0.405918 0.574369 0.455814
0.490384 0.580851 0.458586
0.620133 0.591941 0.466451
0.761350 0.611190 0.489769
0.872163 0.638589 0.523979
0.909148 0.650813 0.538519
0.438139 0.726760 0.486154
0.438695 0.726814 0.486156
0.445167 0.727450 0.486174
0.472203 0.730126 0.486190
0.539657 0.736138 0.487300
0.653498 0.745018 0.494881
0.788894 0.757814 0.509510
0.897568 0.774191 0.554655
0.934132 0.782215 0.570530
0.531547 0.856682 0.537775
0.531899 0.856749 0.537739
0.536025 0.857534 0.537315
0.553933 0.860775 0.535556
0.604142 0.867358 0.534274
0.700511 0.874931 0.544855
0.819730 0.886530 0.560848
0.926239 0.898911 0.584198
0.962029 0.903863 0.604785
0.584470 0.916365 0.572525
0.584800 0.916416 0.572522
0.588655 0.917018 0.572492
0.605110 0.919588 0.572304
0.647036 0.926484 0.570598
0.732522 0.934215 0.581536
0.841426 0.945929 0.597843
0.941384 0.958621 0.615178
0.977481 0.963680 0.622001
0.276766 0.262657 0.539950
0.277891 0.262781 0.539975
0.290706 0.264226 0.540271
0.339821 0.270374 0.541547
0.441706 0.286111 0.544932
0.583519 0.316685 0.550229
0.728028 0.370905 0.558488
0.840627 0.431611 0.575061
0.877681 0.455866 0.583656
0.276988 0.263808 0.539994
0.278107 0.263925 0.540038
0.290912 0.265361 0.540334
0.339994 0.271477 0.541608
0.441837 0.287137 0.544990
0.583622 0.317578 0.550283
0.728126 0.371607 0.558548
0.840722 0.432168 0.575126
0.877777 0.456375 0.583722
0.279594 0.276945 0.540507
0.280699 0.277055 0.540553
0.293311 0.278347 0.541065
0.342022 0.284107 0.542323
0.443372 0.298919 0.545660
0.584824 0.327885 0.550915
0.729278 0.379764 0.559250
0.841839 0.438662 0.575880
0.878906 0.462322 0.584491
0.290595 0.327080 0.542716
0.291646 0.327173 0.542760
0.303666 0.328247 0.543274
0.350498 0.332767 0.545295
0.449834 0.344856 0.548444
0.589915 0.368875 0.553545
0.734188 0.413068 0.562182
0.846618 0.465673 0.579055
0.883739 0.487196 0.587733
0.318086 0.430287 0.548521
0.319018 0.430356 0.548559
0.329735 0.431162 0.549002
0.372207 0.434548 0.550844
0.465778 0.442906 0.554988
0.602627 0.459403 0.559733
0.746668 0.490414 0.569162
0.858946 0.530904 0.586828
0.896238 0.548063 0.595700
0.367376 0.574615 0.559311
0.368135 0.574669 0.559339
0.376912 0.575294 0.559667
0.412571 0.577926 0.561018
0.494878 0.584422 0.564124
0.624009 0.595240 0.568813
0.767518 0.613312 0.579754
0.879869 0.639812 0.599935
0.917446 0.651627 0.609387
0.446659 0.729164 0.579584
0.447194 0.729217 0.579600
0.453427 0.729846 0.579782
0.479535 0.732490 0.580505
0.543986 0.738985 0.581966
0.655220 0.748872 0.584884
0.792379 0.760633 0.594212
0.903390 0.776381 0.622280
0.940513 0.784111 0.633592
0.540272 0.858473 0.615991
0.540659 0.858523 0.616002
0.545180 0.859105 0.616134
0.564057 0.861699 0.616494
0.609371 0.869537 0.614860
0.699225 0.880132 0.615553
0.821268 0.890583 0.627196
0.929916 0.901936 0.643987
0.966534 0.906624 0.659303
0.590234 0.918996 0.640702
0.590558 0.919046 0.640709
0.594343 0.919635 0.640786
0.610514 0.922152 0.641071
0.651972 0.928805 0.641129
0.729548 0.940267 0.640550
0.841764 0.950724 0.653434
0.944011 0.962215 0.667476
0.980785 0.966841 0.673099
0.297351 0.282878 0.664883
0.298350 0.283005 0.664907
0.309784 0.284494 0.665195
0.354370 0.290831 0.666434
0.449498 0.307052 0.669722
0.586759 0.336177 0.676021
0.734932 0.381698 0.681565
0.845688 0.443841 0.685562
0.882644 0.467849 0.689404
0.297578 0.283913 0.664924
0.298566 0.284028 0.664979
0.309992 0.285510 0.665266
0.354550 0.291818 0.666504
0.449637 0.307971 0.669789
0.586866 0.336991 0.676082
0.735027 0.382371 0.681623
0.845781 0.444375 0.685623
0.882738 0.468338 0.689468
0.300246 0.295783 0.665414
0.301221 0.295892 0.665472
0.312418 0.297182 0.666099
0.356650 0.303175 0.667324
0.451273 0.318574 0.670571
0.588128 0.346407 0.676795
0.736137 0.390202 0.682304
0.846872 0.450604 0.686347
0.883842 0.474053 0.690210
0.311519 0.341868 0.667510
0.312447 0.341961 0.667566
0.323117 0.343052 0.668220
0.365432 0.347676 0.670775
0.458165 0.360552 0.673865
0.593470 0.384274 0.679786
0.740857 0.422308 0.685164
0.851540 0.476589 0.689410
0.888568 0.498020 0.693355
0.339796 0.439320 0.672942
0.340621 0.439392 0.672994
0.350136 0.440235 0.673596
0.388403 0.443772 0.676137
0.475147 0.452549 0.681898
0.606816 0.469669 0.687031
0.752781 0.497542 0.692098
0.863579 0.539749 0.697040
0.900791 0.556995 0.701208
0.389469 0.578932 0.683012
0.390144 0.578989 0.683055
0.397973 0.579650 0.683563
0.430136 0.582435 0.685688
0.506149 0.589293 0.690811
0.629284 0.600627 0.698022
0.773089 0.617982 0.702632
0.885178 0.645356 0.709518
0.922852 0.657248 0.714140
0.460681 0.733130 0.697122
0.461204 0.733178 0.697151
0.467111 0.733780 0.697520
0.491707 0.736376 0.699089
0.553094 0.742742 0.702727
0.659982 0.752949 0.707723
0.796988 0.764350 0.712402
0.912502 0.778680 0.722249
0.950007 0.786257 0.728506
0.549934 0.862863 0.717942
0.550309 0.862911 0.717963
0.554692 0.863472 0.718216
0.573314 0.865862 0.719266
0.620871 0.871990 0.721744
0.704139 0.883951 0.723995
0.823214 0.895960 0.727391
0.934889 0.905928 0.736599
0.972997 0.910268 0.744578
0.599384 0.923218 0.734097
0.599699 0.923267 0.734114
0.603378 0.923836 0.734318
0.619105 0.926268 0.735161
0.659918 0.932531 0.737099
0.734115 0.944353 0.738703
0.841907 0.957255 0.741377
0.947519 0.967135 0.750581
0.985344 0.971157 0.754352
0.325959 0.311308 0.774381
0.326814 0.311438 0.774406
0.336654 0.312963 0.774691
0.375770 0.319462 0.775925
0.462056 0.336168 0.779212
0.590421 0.366395 0.785570
0.735915 0.406893 0.794886
0.851985 0.458527 0.797203
0.888795 0.482306 0.797213
0.326191 0.312209 0.774421
0.327029 0.312322 0.774488
0.336863 0.313841 0.774774
0.375955 0.320317 0.776007
0.462205 0.336965 0.779291
0.590539 0.367101 0.785645
0.736015 0.407497 0.794955
0.852084 0.459020 0.797273
0.888887 0.482772 0.797276
0.328915 0.322607 0.774881
0.329742 0.322713 0.774954
0.339297 0.323979 0.775740
0.378119 0.330188 0.776964
0.463951 0.346195 0.780224
0.591925 0.375303 0.786529
0.737186 0.414533 0.795764
0.853255 0.464789 0.798086
0.889960 0.488224 0.798015
0.340473 0.363760 0.776841
0.341261 0.363853 0.776913
0.350357 0.364944 0.777759
0.387182 0.369609 0.781047
0.471313 0.383365 0.784200
0.597798 0.408763 0.790291
0.742171 0.443642 0.799193
0.858254 0.488974 0.801537
0.894556 0.511146 0.801162
0.369790 0.453635 0.781821
0.370489 0.453710 0.781891
0.378585 0.454586 0.782714
0.411692 0.458255 0.786222
0.489466 0.467411 0.794273
0.612510 0.486372 0.799760
0.754777 0.513166 0.807738
0.871042 0.548520 0.810148
0.906439 0.567911 0.809122
0.422091 0.585988 0.791141
0.422673 0.586048 0.791193
0.429430 0.586751 0.791805
0.457042 0.589752 0.794867
0.523834 0.597146 0.803157
0.637190 0.609253 0.815412
0.776271 0.627159 0.821534
0.893113 0.650389 0.823987
0.928391 0.664790 0.822973
0.489808 0.736152 0.806814
0.490269 0.736202 0.806855
0.495640 0.736784 0.807339
0.518246 0.739257 0.809395
0.574655 0.745535 0.814597
0.671054 0.756731 0.825542
0.801452 0.768930 0.834355
0.918227 0.782683 0.837032
0.956632 0.790125 0.838193
0.561719 0.868308 0.823252
0.562081 0.868354 0.823283
0.566301 0.868889 0.823644
0.584260 0.871166 0.825171
0.630296 0.876997 0.828979
0.713591 0.887353 0.835284
0.827131 0.900141 0.841644
0.939757 0.909646 0.845195
0.979482 0.913548 0.847651
0.610577 0.928458 0.832300
0.610881 0.928505 0.832328
0.614432 0.929050 0.832649
0.629633 0.931378 0.834001
0.669195 0.937367 0.837350
0.742779 0.948064 0.842743
0.845389 0.961839 0.847653
0.950762 0.972006 0.850795
0.989871 0.975361 0.852644
0.350154 0.335530 0.836391
0.350909 0.335663 0.836414
0.359622 0.337218 0.836684
0.394702 0.343858 0.837848
0.473948 0.361008 0.840968
0.594599 0.392327 0.847086
0.733222 0.434864 0.856252
0.852681 0.476037 0.866046
0.893506 0.493105 0.868731
0.350391 0.336340 0.836425
0.351124 0.336450 0.836504
0.359831 0.338000 0.836774
0.394892 0.344619 0.837938
0.474104 0.361718 0.841057
0.594726 0.392956 0.847172
0.733331 0.435400 0.856335
0.852784 0.476496 0.866124
0.893595 0.493555 0.868795
0.353172 0.345707 0.836823
0.353894 0.345810 0.836909
0.362275 0.347052 0.837831
0.397104 0.353438 0.838991
0.475936 0.369970 0.842099
0.596210 0.400284 0.848189
0.734610 0.441658 0.857307
0.853987 0.481868 0.867040
0.894645 0.498819 0.869542
0.364910 0.383188 0.838735
0.365605 0.383286 0.838806
0.373649 0.384424 0.839640
0.406381 0.389103 0.843527
0.483663 0.403580 0.846580
0.602508 0.430468 0.852552
0.740061 0.467748 0.861466
0.859124 0.504479 0.870943
0.899586 0.520366 0.873174
0.394515 0.466931 0.844146
0.395137 0.467010 0.844214
0.402359 0.467936 0.845006
0.432132 0.471848 0.848390
0.502752 0.481291 0.858223
0.618324 0.501889 0.863815
0.753907 0.531170 0.872096
0.872250 0.560691 0.880812
0.912798 0.573579 0.882893
0.446784 0.593335 0.854803
0.447301 0.593398 0.854864
0.453326 0.594132 0.855575
0.478502 0.597244 0.858608
0.540268 0.605089 0.866424
0.644872 0.617735 0.883531
0.777674 0.637642 0.890316
0.894505 0.658684 0.896653
0.934756 0.668129 0.897986
0.515671 0.739025 0.870953
0.516082 0.739078 0.871003
0.520886 0.739688 0.871593
0.541215 0.742284 0.874109
0.592603 0.748889 0.880564
0.682886 0.760437 0.893473
0.805412 0.773602 0.908324
0.920100 0.787595 0.911891
0.960339 0.793577 0.913045
0.583260 0.869630 0.889020
0.583592 0.869677 0.889059
0.587469 0.870222 0.889518
0.604015 0.872548 0.891472
0.646761 0.878508 0.896446
0.725286 0.889047 0.905086
0.833338 0.902186 0.915871
0.942394 0.912209 0.922192
0.982577 0.915914 0.923140
0.619042 0.932475 0.898615
0.619337 0.932520 0.898649
0.622796 0.933048 0.899041
0.637610 0.935297 0.900707
0.676246 0.941078 0.904918
0.748367 0.951381 0.912104
0.849751 0.964371 0.920286
0.952991 0.974660 0.925209
0.992538 0.977763 0.926131
