app/src/main/assets/luts/film_faded_negative.cube
# V-Cam procedural LUT — film_faded_negative
# Generated by LutBaker. Do not edit by hand.
TITLE "V-Cam film_faded_negative"
LUT_3D_SIZE 5
DOMAIN_MIN 0.0 0.0 0.0
DOMAIN_MAX 1.0 1.0 1.0
0.363303 0.357304 0.355646
0.390974 0.357385 0.355737
0.521471 0.360266 0.358696
0.747916 0.392630 0.391396
0.883921 0.450239 0.449344
0.363368 0.381602 0.355744
0.391080 0.381649 0.355853
0.521934 0.383921 0.359327
0.748905 0.413000 0.393570
0.885309 0.466656 0.452443
0.367671 0.512470 0.360417
0.394385 0.512706 0.360724
0.524902 0.514047 0.363146
0.755762 0.529273 0.408314
0.894896 0.565075 0.473325
0.415373 0.761135 0.409775
0.436853 0.761672 0.410558
0.547862 0.764899 0.415176
0.778075 0.773252 0.430539
0.923835 0.785726 0.531744
0.523873 0.918265 0.520416
0.538422 0.919050 0.521959
0.619314 0.923892 0.531392
0.806727 0.938007 0.558133
0.951608 0.951608 0.582978
0.363302 0.357322 0.378699
0.391000 0.357402 0.378715
0.521593 0.360356 0.380697
0.748174 0.392954 0.409087
0.884283 0.450703 0.462517
0.363362 0.381626 0.378767
0.391133 0.381656 0.378793
0.522432 0.383769 0.381033
0.750161 0.412430 0.410243
0.887089 0.465804 0.464187
0.367600 0.512615 0.382292
0.394076 0.512984 0.382248
0.525065 0.514161 0.384251
0.756812 0.529074 0.423805
0.896478 0.564616 0.484069
0.415272 0.761414 0.426734
0.435317 0.762473 0.425932
0.547121 0.765575 0.430144
0.778405 0.773553 0.444298
0.924831 0.785858 0.540067
0.523875 0.918674 0.531045
0.535548 0.920539 0.529561
0.617465 0.925202 0.538700
0.806452 0.938855 0.564750
0.952092 0.952092 0.589134
0.364043 0.358299 0.506788
0.391056 0.358654 0.507054
0.522241 0.361140 0.508296
0.749495 0.395840 0.516940
0.886136 0.454824 0.547664
0.364585 0.382149 0.507357
0.391536 0.382382 0.507992
0.523049 0.384373 0.509049
0.751579 0.414929 0.518232
0.889096 0.469502 0.549353
0.368343 0.513087 0.510028
0.394417 0.513498 0.510422
0.525768 0.514517 0.511361
0.764840 0.526597 0.523879
0.907649 0.560771 0.558603
0.420456 0.761546 0.534500
0.438651 0.763032 0.533746
0.541606 0.769893 0.528887
0.780367 0.775329 0.536948
0.931794 0.786498 0.600007
0.527270 0.920427 0.604644
0.538834 0.922224 0.603945
0.604141 0.933896 0.594738
0.804244 0.944496 0.615630
0.955275 0.955275 0.636215
0.375336 0.370467 0.735636
0.399329 0.371727 0.736353
0.519382 0.379208 0.740686
0.757178 0.399497 0.751713
0.891955 0.467538 0.746140
0.377310 0.392237 0.737120
0.400898 0.393064 0.738984
0.520994 0.399769 0.743143
0.759186 0.417978 0.753695
0.894777 0.481493 0.748394
0.391359 0.514861 0.744059
0.413143 0.515642 0.746297
0.528832 0.518752 0.757713
0.770663 0.527882 0.764980
0.912678 0.568883 0.762123
0.435670 0.763294 0.762711
0.453357 0.764397 0.763810
0.548417 0.770940 0.770323
0.782731 0.777257 0.776577
0.951121 0.784336 0.783737
0.537813 0.925932 0.787448
0.548865 0.927588 0.788124
0.614900 0.936974 0.791331
0.795189 0.957064 0.789764
0.961848 0.961848 0.797963
0.400205 0.396377 0.861537
0.420377 0.398544 0.862398
0.524760 0.411637 0.867702
0.739865 0.447522 0.883126
0.897932 0.479500 0.897932
0.403637 0.415410 0.863379
0.423033 0.416799 0.866278
0.527267 0.428878 0.871530
0.742684 0.462116 0.886749
0.901279 0.491848 0.901279
0.427435 0.526002 0.873216
0.444925 0.527219 0.876263
0.540965 0.532533 0.896525
0.759728 0.553031 0.909837
0.921970 0.571468 0.921970
0.492417 0.759792 0.902903
0.505809 0.761158 0.905156
0.583540 0.768564 0.918133
0.784517 0.779527 0.951344
0.954591 0.785813 0.954591
0.548092 0.931385 0.931385
0.558662 0.932904 0.932904
0.622200 0.941452 0.941452
0.798733 0.958662 0.958662
0.963976 0.963976 0.963976
