app/src/main/assets/luts/film_classic_cool.cube
# V-Cam procedural LUT — film_classic_cool
# Generated by LutBaker. Do not edit by hand.
TITLE "V-Cam film_classic_cool"
LUT_3D_SIZE 33
DOMAIN_MIN 0.0 0.0 0.0
DOMAIN_MAX 1.0 1.0 1.0
0.220916 0.220916 0.220916
0.220926 0.220916 0.220917
0.221017 0.220916 0.220919
0.221314 0.220916 0.220928
0.222018 0.220916 0.220950
0.223411 0.220916 0.220992
0.225855 0.220917 0.221067
0.229775 0.220918 0.221190
0.235626 0.220920 0.221381
0.243840 0.220925 0.221661
0.254767 0.220937 0.222057
0.268627 0.220960 0.222602
0.285492 0.221005 0.223332
0.305305 0.221085 0.224289
0.327949 0.221222 0.225519
0.353352 0.221446 0.227075
0.381618 0.221798 0.229014
0.413161 0.222331 0.231397
0.448826 0.223114 0.234286
0.489945 0.224230 0.237745
0.538050 0.225782 0.241836
0.592071 0.227888 0.246620
0.648609 0.230685 0.252150
0.703866 0.234322 0.258473
0.754916 0.238681 0.265414
0.804705 0.243578 0.272739
0.850320 0.249035 0.280376
0.888088 0.254838 0.288062
0.916036 0.260670 0.295448
0.935962 0.266101 0.302096
0.949987 0.270596 0.307463
0.958466 0.273520 0.310898
0.960544 0.274252 0.311752
0.220916 0.220926 0.220916
0.220926 0.220926 0.220917
0.221017 0.220926 0.220919
0.221314 0.220926 0.220928
0.222018 0.220926 0.220950
0.223411 0.220926 0.220992
0.225855 0.220926 0.221067
0.229775 0.220927 0.221190
0.235626 0.220929 0.221381
0.243840 0.220935 0.221661
0.254767 0.220946 0.222057
0.268628 0.220970 0.222602
0.285492 0.221015 0.223333
0.305305 0.221095 0.224289
0.327949 0.221232 0.225519
0.353353 0.221456 0.227075
0.381618 0.221808 0.229014
0.413161 0.222341 0.231397
0.448826 0.223123 0.234286
0.489945 0.224240 0.237745
0.538051 0.225791 0.241836
0.592071 0.227897 0.246620
0.648609 0.230694 0.252150
0.703866 0.234331 0.258474
0.754916 0.238690 0.265414
0.804706 0.243586 0.272739
0.850320 0.249043 0.280376
0.888088 0.254846 0.288062
0.916036 0.260677 0.295448
0.935962 0.266108 0.302096
0.949987 0.270603 0.307463
0.958466 0.273526 0.310898
0.960544 0.274258 0.311752
0.220916 0.221018 0.220916
0.220926 0.221018 0.220917
0.221017 0.221018 0.220919
0.221314 0.221018 0.220928
0.222019 0.221018 0.220950
0.223411 0.221018 0.220992
0.225855 0.221018 0.221067
0.229775 0.221019 0.221190
0.235626 0.221021 0.221381
0.243840 0.221026 0.221661
0.254767 0.221038 0.222057
0.268628 0.221062 0.222603
0.285493 0.221106 0.223333
0.305305 0.221186 0.224289
0.327949 0.221323 0.225520
0.353353 0.221547 0.227076
0.381619 0.221898 0.229015
0.413161 0.222431 0.231397
0.448827 0.223213 0.234286
0.489946 0.224328 0.237746
0.538052 0.225878 0.241837
0.592073 0.227983 0.246621
0.648611 0.230778 0.252151
0.703868 0.234412 0.258474
0.754918 0.238769 0.265415
0.804708 0.243662 0.272741
0.850323 0.249116 0.280378
0.888091 0.254917 0.288063
0.916038 0.260745 0.295450
0.935964 0.266174 0.302098
0.949989 0.270667 0.307464
0.958467 0.273589 0.310900
0.960546 0.274321 0.311754
0.220916 0.221317 0.220916
0.220926 0.221317 0.220917
0.221017 0.221317 0.220919
0.221314 0.221317 0.220928
0.222019 0.221317 0.220950
0.223411 0.221317 0.220992
0.225855 0.221317 0.221067
0.229775 0.221318 0.221190
0.235626 0.221320 0.221381
0.243840 0.221325 0.221661
0.254768 0.221337 0.222058
0.268628 0.221360 0.222603
0.285494 0.221405 0.223333
0.305306 0.221484 0.224290
0.327951 0.221620 0.225520
0.353355 0.221843 0.227077
0.381621 0.222193 0.229016
0.413164 0.222724 0.231399
0.448830 0.223504 0.234288
0.489951 0.224616 0.237747
0.538058 0.226163 0.241839
0.592079 0.228262 0.246623
0.648618 0.231052 0.252154
0.703876 0.234679 0.258478
0.754926 0.239028 0.265419
0.804716 0.243912 0.272745
0.850331 0.249357 0.280382
0.888098 0.255149 0.288068
0.916044 0.260969 0.295455
0.935969 0.266389 0.302103
0.949994 0.270877 0.307470
0.958473 0.273795 0.310905
0.960552 0.274527 0.311760
0.220916 0.222026 0.220916
0.220926 0.222026 0.220917
0.221017 0.222026 0.220919
0.221314 0.222026 0.220928
0.222019 0.222026 0.220950
0.223412 0.222026 0.220992
0.225855 0.222026 0.221067
0.229775 0.222027 0.221191
0.235626 0.222029 0.221381
0.243841 0.222034 0.221661
0.254769 0.222045 0.222058
0.268630 0.222067 0.222603
0.285496 0.222111 0.223334
0.305309 0.222190 0.224291
0.327955 0.222324 0.225522
0.353359 0.222545 0.227078
0.381627 0.222892 0.229018
0.413171 0.223419 0.231401
0.448838 0.224194 0.234291
0.489961 0.225299 0.237751
0.538071 0.226837 0.241844
0.592095 0.228925 0.246629
0.648635 0.231700 0.252161
0.703894 0.235310 0.258485
0.754944 0.239640 0.265428
0.804735 0.244504 0.272755
0.850349 0.249928 0.280394
0.888115 0.255698 0.288080
0.916058 0.261498 0.295468
0.935983 0.266901 0.302116
0.950007 0.271374 0.307484
0.958486 0.274284 0.310919
0.960565 0.275013 0.311773
0.220917 0.223427 0.220917
0.220926 0.223427 0.220917
0.221017 0.223427 0.220920
0.221314 0.223427 0.220928
0.222019 0.223427 0.220950
0.223412 0.223427 0.220992
0.225855 0.223427 0.221067
0.229776 0.223428 0.221191
0.235627 0.223430 0.221382
0.243842 0.223435 0.221662
0.254770 0.223445 0.222059
0.268633 0.223467 0.222605
0.285500 0.223508 0.223335
0.305315 0.223585 0.224293
0.327962 0.223716 0.225524
0.353368 0.223933 0.227082
0.381637 0.224274 0.229023
0.413184 0.224794 0.231407
0.448855 0.225558 0.234298
0.489981 0.226650 0.237759
0.538096 0.228170 0.241853
0.592125 0.230236 0.246640
0.648669 0.232983 0.252174
0.703929 0.236559 0.258501
0.754979 0.240853 0.265447
0.804773 0.245677 0.272776
0.850387 0.251059 0.280416
0.888149 0.256787 0.288104
0.916088 0.262547 0.295493
0.936009 0.267915 0.302142
0.950033 0.272360 0.307510
0.958513 0.275253 0.310946
0.960592 0.275978 0.311801
0.220917 0.225886 0.220917
0.220927 0.225886 0.220917
0.221018 0.225886 0.220920
0.221315 0.225886 0.220929
0.222019 0.225886 0.220950
0.223412 0.225886 0.220993
0.225856 0.225886 0.221068
0.229776 0.225886 0.221192
0.235628 0.225888 0.221383
0.243843 0.225892 0.221664
0.254772 0.225902 0.222062
0.268636 0.225922 0.222609
0.285504 0.225962 0.223341
0.305322 0.226035 0.224299
0.327973 0.226160 0.225530
0.353384 0.226368 0.227088
0.381656 0.226700 0.229030
0.413207 0.227206 0.231417
0.448883 0.227953 0.234310
0.490017 0.229022 0.237773
0.538142 0.230511 0.241870
0.592179 0.232539 0.246659
0.648729 0.235238 0.252196
0.703992 0.238755 0.258527
0.755042 0.242986 0.265480
0.804841 0.247740 0.272812
0.850454 0.253049 0.280455
0.888209 0.258703 0.288146
0.916139 0.264394 0.295537
0.936056 0.269701 0.302188
0.950080 0.274099 0.307558
0.958560 0.276961 0.310994
0.960639 0.277678 0.311849
0.220919 0.229829 0.220919
0.220928 0.229829 0.220919
0.221019 0.229829 0.220922
0.221317 0.229829 0.220931
0.222021 0.229829 0.220952
0.223413 0.229829 0.220994
0.225857 0.229830 0.221070
0.229777 0.229830 0.221193
0.235630 0.229831 0.221384
0.243846 0.229834 0.221666
0.254776 0.229843 0.222066
0.268640 0.229862 0.222615
0.285510 0.229899 0.223349
0.305330 0.229968 0.224310
0.327983 0.230087 0.225546
0.353398 0.230285 0.227106
0.381680 0.230598 0.229048
0.413244 0.231079 0.231432
0.448929 0.231797 0.234328
0.490075 0.232830 0.237796
0.538215 0.234272 0.241897
0.592266 0.236239 0.246691
0.648827 0.238862 0.252233
0.704095 0.242287 0.258570
0.755144 0.246419 0.265534
0.804950 0.251063 0.272871
0.850562 0.256256 0.280518
0.888308 0.261796 0.288213
0.916223 0.267377 0.295608
0.936133 0.272587 0.302263
0.950155 0.276909 0.307635
0.958637 0.279723 0.311073
0.960717 0.280429 0.311928
0.220923 0.235714 0.220923
0.220933 0.235714 0.220923
0.221024 0.235714 0.220926
0.221321 0.235714 0.220935
0.222025 0.235714 0.220957
0.223417 0.235715 0.220999
0.225860 0.235715 0.221074
0.229780 0.235716 0.221198
0.235632 0.235717 0.221387
0.243849 0.235720 0.221671
0.254781 0.235726 0.222072
0.268648 0.235743 0.222624
0.285520 0.235776 0.223362
0.305342 0.235839 0.224328
0.327998 0.235950 0.225569
0.353417 0.236135 0.227136
0.381702 0.236432 0.229086
0.413272 0.236886 0.231478
0.448978 0.237560 0.234373
0.490158 0.238527 0.237833
0.538327 0.239896 0.241936
0.592400 0.241776 0.246737
0.648976 0.244290 0.252288
0.704252 0.247581 0.258634
0.755301 0.251570 0.265615
0.805118 0.256055 0.272960
0.850729 0.261080 0.280615
0.888458 0.266451 0.288316
0.916352 0.271873 0.295717
0.936251 0.276942 0.302376
0.950271 0.281152 0.307751
0.958754 0.283896 0.311192
0.960835 0.284584 0.312047
0.220934 0.243976 0.220934
0.220943 0.243976 0.220934
0.221034 0.243976 0.220937
0.221331 0.243976 0.220946
0.222035 0.243976 0.220967
0.223426 0.243976 0.221010
0.225868 0.243977 0.221085
0.229787 0.243979 0.221209
0.235637 0.243980 0.221399
0.243855 0.243983 0.221677
0.254789 0.243988 0.222082
0.268658 0.244000 0.222638
0.285534 0.244029 0.223381
0.305360 0.244084 0.224354
0.328020 0.244184 0.225603
0.353443 0.244353 0.227181
0.381734 0.244627 0.229142
0.413312 0.245049 0.231547
0.449027 0.245678 0.234457
0.490221 0.246586 0.237934
0.538428 0.247860 0.242038
0.592558 0.249605 0.246829
0.649193 0.251946 0.252364
0.704480 0.255057 0.258725
0.755528 0.258853 0.265730
0.805363 0.263124 0.273087
0.850971 0.267923 0.280753
0.888677 0.273066 0.288464
0.916540 0.278270 0.295873
0.936423 0.283147 0.302539
0.950440 0.287205 0.307920
0.958926 0.289853 0.311363
0.961008 0.290518 0.312220
0.220956 0.254965 0.220956
0.220966 0.254965 0.220957
0.221057 0.254965 0.220959
0.221354 0.254966 0.220968
0.222057 0.254966 0.220990
0.223448 0.254967 0.221033
0.225888 0.254968 0.221109
0.229804 0.254970 0.221233
0.235652 0.254973 0.221424
0.243865 0.254977 0.221703
0.254800 0.254982 0.222095
0.268673 0.254991 0.222656
0.285554 0.255012 0.223408
0.305384 0.255058 0.224390
0.328050 0.255144 0.225651
0.353480 0.255294 0.227242
0.381780 0.255539 0.229220
0.413367 0.255922 0.231643
0.449096 0.256496 0.234574
0.490308 0.257331 0.238074
0.538540 0.258508 0.242204
0.592691 0.260126 0.247023
0.649347 0.262302 0.252585
0.704694 0.265164 0.258936
0.755796 0.268679 0.265932
0.805704 0.272635 0.273259
0.851308 0.277149 0.280941
0.888983 0.282003 0.288666
0.916802 0.286932 0.296088
0.936664 0.291564 0.302764
0.950676 0.295426 0.308152
0.959167 0.297952 0.311600
0.961251 0.298586 0.312457
0.221002 0.268906 0.221002
0.221012 0.268906 0.221002
0.221102 0.268906 0.221005
0.221399 0.268906 0.221014
0.222102 0.268906 0.221036
0.223491 0.268907 0.221079
0.225930 0.268909 0.221156
0.229843 0.268911 0.221281
0.235685 0.268915 0.221473
0.243892 0.268921 0.221754
0.254819 0.268929 0.222148
0.268693 0.268940 0.222682
0.285580 0.268954 0.223443
0.305418 0.268988 0.224439
0.328091 0.269058 0.225715
0.353530 0.269185 0.227325
0.381841 0.269397 0.229325
0.413442 0.269734 0.231773
0.449190 0.270246 0.234732
0.490428 0.270995 0.238263
0.538692 0.272060 0.242428
0.592872 0.273532 0.247285
0.649549 0.275521 0.252891
0.704905 0.278151 0.259290
0.755992 0.281415 0.266357
0.805927 0.285073 0.273713
0.851595 0.289207 0.281362
0.889302 0.293664 0.289045
0.917122 0.298202 0.296416
0.936987 0.302494 0.303058
0.950995 0.306124 0.308457
0.959491 0.308502 0.311911
0.961578 0.309100 0.312770
0.221088 0.285869 0.221088
0.221098 0.285869 0.221089
0.221189 0.285869 0.221092
0.221485 0.285869 0.221101
0.222186 0.285870 0.221123
0.223574 0.285871 0.221166
0.226010 0.285873 0.221243
0.229918 0.285876 0.221369
0.235753 0.285882 0.221563
0.243951 0.285889 0.221846
0.254866 0.285899 0.222243
0.268726 0.285913 0.222782
0.285614 0.285931 0.223491
0.305461 0.285954 0.224502
0.328145 0.286006 0.225799
0.353596 0.286107 0.227433
0.381920 0.286284 0.229461
0.413540 0.286571 0.231942
0.449312 0.287015 0.234938
0.490584 0.287672 0.238510
0.538892 0.288614 0.242720
0.593110 0.289927 0.247627
0.649816 0.291714 0.253289
0.705184 0.294091 0.259753
0.756251 0.297082 0.266918
0.806205 0.300426 0.274326
0.851869 0.304223 0.282025
0.889549 0.308334 0.289751
0.917333 0.312536 0.297161
0.937190 0.316510 0.303817
0.951226 0.319842 0.309184
0.959746 0.322030 0.312617
0.961840 0.322580 0.313470
0.221242 0.305802 0.221242
0.221251 0.305802 0.221242
0.221342 0.305803 0.221245
0.221638 0.305803 0.221254
0.222338 0.305804 0.221276
0.223723 0.305805 0.221320
0.226154 0.305808 0.221398
0.230055 0.305812 0.221526
0.235880 0.305818 0.221721
0.244063 0.305828 0.222007
0.254961 0.305841 0.222408
0.268801 0.305858 0.222951
0.285667 0.305881 0.223667
0.305516 0.305910 0.224584
0.328213 0.305944 0.225904
0.353679 0.306019 0.227570
0.382022 0.306159 0.229634
0.413664 0.306395 0.232156
0.449468 0.306768 0.235197
0.490784 0.307331 0.238821
0.539148 0.308148 0.243088
0.593417 0.309299 0.248060
0.650159 0.310878 0.253794
0.705544 0.312994 0.260341
0.756586 0.315708 0.267639
0.806563 0.318730 0.275115
0.852222 0.322180 0.282876
0.889867 0.325933 0.290658
0.917605 0.329788 0.298116
0.937440 0.333449 0.304813
0.951472 0.336530 0.310210
0.959997 0.338557 0.313661
0.962092 0.339068 0.314518
0.221502 0.328597 0.221502
0.221511 0.328597 0.221502
0.221601 0.328597 0.221505
0.221896 0.328597 0.221514
0.222595 0.328598 0.221537
0.223976 0.328600 0.221581
0.226400 0.328603 0.221660
0.230290 0.328608 0.221788
0.236100 0.328616 0.221986
0.244263 0.328628 0.222275
0.255136 0.328644 0.222680
0.268947 0.328665 0.223229
0.285780 0.328693 0.223952
0.305596 0.328729 0.224879
0.328297 0.328773 0.226038
0.353782 0.328822 0.227737
0.382147 0.328925 0.229845
0.413819 0.329111 0.232417
0.449663 0.329415 0.235516
0.491034 0.329886 0.239203
0.539468 0.330582 0.243541
0.593801 0.331575 0.248593
0.650592 0.332952 0.254417
0.705999 0.334817 0.261066
0.757008 0.337266 0.268545
0.807015 0.339978 0.276105
0.852667 0.343092 0.283945
0.890267 0.346501 0.291797
0.917947 0.350019 0.299316
0.937754 0.353378 0.306062
0.951782 0.356214 0.311497
0.960313 0.358087 0.314970
0.962411 0.358559 0.315833
0.221921 0.354193 0.221921
0.221930 0.354193 0.221921
0.222020 0.354193 0.221924
0.222314 0.354193 0.221933
0.223009 0.354195 0.221956
0.224385 0.354197 0.222001
0.226799 0.354200 0.222080
0.230674 0.354207 0.222211
0.236462 0.354216 0.222410
0.244596 0.354230 0.222703
0.255433 0.354249 0.223112
0.269202 0.354275 0.223668
0.285990 0.354309 0.224399
0.305759 0.354352 0.225336
0.328412 0.354405 0.226508
0.353904 0.354469 0.227943
0.382298 0.354538 0.230096
0.414005 0.354676 0.232728
0.449898 0.354916 0.235894
0.491337 0.355300 0.239658
0.539860 0.355883 0.244081
0.594273 0.356730 0.249229
0.651124 0.357923 0.255162
0.706561 0.359556 0.261936
0.757581 0.361737 0.269589
0.807572 0.364200 0.277323
0.853215 0.367013 0.285258
0.890759 0.370111 0.293196
0.918368 0.373328 0.300789
0.938141 0.376414 0.307597
0.952164 0.379033 0.313078
0.960703 0.380767 0.316579
0.962805 0.381205 0.317449
0.222568 0.382716 0.222568
0.222577 0.382716 0.222568
0.222667 0.382716 0.222571
0.222959 0.382717 0.222581
0.223650 0.382718 0.222604
0.225018 0.382721 0.222649
0.227419 0.382725 0.222730
0.231272 0.382732 0.222861
0.237030 0.382744 0.223064
0.245123 0.382760 0.223359
0.255909 0.382783 0.223774
0.269620 0.382815 0.224336
0.286344 0.382855 0.225075
0.306047 0.382907 0.226022
0.328636 0.382971 0.227207
0.354066 0.383049 0.228657
0.382473 0.383140 0.230397
0.414224 0.383233 0.233086
0.450175 0.383414 0.236331
0.491698 0.383720 0.240182
0.540326 0.384202 0.244705
0.594837 0.384919 0.249966
0.651764 0.385948 0.256029
0.707241 0.387380 0.262953
0.758310 0.389317 0.270778
0.808248 0.391590 0.278790
0.853879 0.394152 0.286840
0.891355 0.396994 0.294882
0.918877 0.399964 0.302564
0.938610 0.402829 0.309446
0.952628 0.405272 0.314982
0.961178 0.406894 0.318518
0.963283 0.407305 0.319396
0.223530 0.414622 0.223530
0.223539 0.414622 0.223530
0.223627 0.414622 0.223533
0.223917 0.414623 0.223542
0.224603 0.414625 0.223566
0.225960 0.414628 0.223611
0.228342 0.414633 0.223693
0.232166 0.414642 0.223826
0.237882 0.414656 0.224031
0.245919 0.414676 0.224329
0.256636 0.414703 0.224748
0.270267 0.414741 0.225316
0.286904 0.414790 0.226063
0.306516 0.414853 0.227020
0.329017 0.414931 0.228217
0.354364 0.415025 0.229682
0.382694 0.415136 0.231438
0.414473 0.415265 0.233503
0.450494 0.415391 0.236816
0.492114 0.415626 0.240767
0.540869 0.416017 0.245403
0.595499 0.416622 0.250792
0.652519 0.417511 0.257005
0.708048 0.418774 0.264103
0.759182 0.420510 0.272132
0.809053 0.422649 0.280527
0.854670 0.425022 0.288712
0.892062 0.427675 0.296876
0.919482 0.430466 0.304664
0.939168 0.433174 0.311632
0.953181 0.435494 0.317234
0.961743 0.437039 0.320810
0.963854 0.437431 0.321698
0.224906 0.450827 0.224906
0.224915 0.450827 0.224906
0.225003 0.450827 0.224909
0.225289 0.450828 0.224919
0.225968 0.450830 0.224943
0.227311 0.450833 0.224989
0.229668 0.450840 0.225071
0.233453 0.450851 0.225205
0.239112 0.450868 0.225412
0.247074 0.450892 0.225713
0.257697 0.450926 0.226136
0.271220 0.450973 0.226709
0.287740 0.451033 0.227463
0.307232 0.451110 0.228428
0.329616 0.451206 0.229636
0.354853 0.451323 0.231112
0.383083 0.451461 0.232882
0.414772 0.451621 0.234962
0.450847 0.451802 0.237361
0.492581 0.451972 0.241391
0.541483 0.452281 0.246150
0.596254 0.452785 0.251683
0.653388 0.453554 0.258064
0.708984 0.454676 0.265360
0.760204 0.456252 0.273622
0.809997 0.458311 0.282546
0.855594 0.460560 0.290888
0.892887 0.463095 0.299193
0.920188 0.465781 0.307103
0.939821 0.468403 0.314173
0.953830 0.470658 0.319851
0.962408 0.472166 0.323474
0.964525 0.472549 0.324374
0.226812 0.492770 0.226812
0.226821 0.492770 0.226812
0.226907 0.492771 0.226815
0.227190 0.492772 0.226825
0.227858 0.492774 0.226848
0.229182 0.492779 0.226895
0.231506 0.492787 0.226978
0.235240 0.492801 0.227113
0.240825 0.492822 0.227321
0.248689 0.492853 0.227624
0.259190 0.492896 0.228050
0.272571 0.492954 0.228627
0.288937 0.493030 0.229385
0.308273 0.493127 0.230356
0.330503 0.493248 0.231571
0.355598 0.493395 0.233056
0.383702 0.493570 0.234835
0.415278 0.493773 0.236925
0.451252 0.494005 0.239336
0.493086 0.494262 0.242065
0.542158 0.494492 0.246911
0.597092 0.494899 0.252597
0.654363 0.495559 0.259160
0.710043 0.496557 0.266676
0.761377 0.497998 0.275200
0.811138 0.499994 0.284738
0.856658 0.502199 0.293375
0.893833 0.504681 0.301840
0.920998 0.507331 0.309889
0.940571 0.509932 0.317075
0.954578 0.512179 0.322841
0.963177 0.513686 0.326518
0.965302 0.514068 0.327431
0.229370 0.542064 0.229370
0.229379 0.542064 0.229370
0.229463 0.542064 0.229373
0.229741 0.542066 0.229383
0.230397 0.542069 0.229406
0.231697 0.542075 0.229453
0.233979 0.542085 0.229536
0.237647 0.542102 0.229672
0.243138 0.542128 0.229880
0.250876 0.542167 0.230185
0.261221 0.542220 0.230612
0.274421 0.542293 0.231190
0.290590 0.542388 0.231951
0.309724 0.542510 0.232925
0.331759 0.542662 0.234143
0.356674 0.542847 0.235632
0.384618 0.543067 0.237415
0.416058 0.543323 0.239509
0.451914 0.543616 0.241923
0.493639 0.543943 0.244655
0.542868 0.544301 0.247692
0.597991 0.544602 0.253473
0.655424 0.545129 0.260228
0.711211 0.545977 0.267980
0.762689 0.547248 0.276791
0.812612 0.549058 0.286671
0.857864 0.551251 0.296169
0.894902 0.553637 0.304813
0.921914 0.556195 0.313019
0.941422 0.558711 0.320334
0.955428 0.560887 0.326199
0.964052 0.562346 0.329937
0.966186 0.562717 0.330865
0.232711 0.597441 0.232711
0.232719 0.597441 0.232711
0.232802 0.597441 0.232714
0.233073 0.597443 0.232724
0.233714 0.597446 0.232747
0.234984 0.597453 0.232794
0.237214 0.597465 0.232877
0.240802 0.597485 0.233013
0.246175 0.597516 0.233221
0.253757 0.597561 0.233525
0.263907 0.597623 0.233952
0.276881 0.597708 0.234530
0.292803 0.597820 0.235291
0.311684 0.597962 0.236264
0.333474 0.598140 0.237481
0.358164 0.598357 0.238968
0.385913 0.598616 0.240749
0.417188 0.598918 0.242841
0.452908 0.599264 0.245251
0.494515 0.599652 0.247978
0.543608 0.600077 0.251008
0.598913 0.600535 0.254314
0.656538 0.600892 0.261175
0.712457 0.601519 0.269172
0.764115 0.602522 0.278289
0.814234 0.604010 0.288540
0.859207 0.606012 0.299257
0.896087 0.608158 0.308098
0.922932 0.610476 0.316476
0.942371 0.612768 0.323935
0.956380 0.614755 0.329910
0.965033 0.616089 0.333715
0.967179 0.616429 0.334659
0.236970 0.655388 0.236970
0.236978 0.655388 0.236970
0.237058 0.655388 0.236973
0.237321 0.655390 0.236983
0.237944 0.655394 0.237006
0.239178 0.655401 0.237053
0.241346 0.655415 0.237135
0.244835 0.655437 0.237271
0.250067 0.655470 0.237478
0.257458 0.655519 0.237781
0.267371 0.655588 0.238206
0.280068 0.655681 0.238782
0.295688 0.655803 0.239539
0.314258 0.655960 0.240509
0.335748 0.656155 0.241720
0.360164 0.656394 0.243202
0.387675 0.656679 0.244975
0.418756 0.657012 0.247058
0.454321 0.657395 0.249458
0.495803 0.657826 0.252173
0.544749 0.658301 0.255189
0.599825 0.658813 0.258480
0.657647 0.659354 0.262004
0.713736 0.659741 0.270124
0.765614 0.660424 0.279557
0.815966 0.661514 0.290203
0.860844 0.663107 0.301960
0.897380 0.664960 0.311664
0.924044 0.666935 0.320229
0.943411 0.668901 0.327845
0.957427 0.670614 0.333939
0.966117 0.671767 0.337819
0.968276 0.672060 0.338781
0.242283 0.711926 0.242283
0.242291 0.711926 0.242283
0.242369 0.711926 0.242286
0.242622 0.711928 0.242296
0.243224 0.711932 0.242319
0.244415 0.711940 0.242365
0.246509 0.711953 0.242448
0.249882 0.711976 0.242582
0.254946 0.712010 0.242788
0.262112 0.712061 0.243089
0.271743 0.712131 0.243511
0.284110 0.712227 0.244083
0.299369 0.712352 0.244835
0.317566 0.712513 0.245799
0.338694 0.712714 0.247002
0.362780 0.712960 0.248474
0.390008 0.713255 0.250237
0.420861 0.713600 0.252307
0.456253 0.713997 0.254693
0.497603 0.714445 0.257392
0.546391 0.714940 0.260390
0.601197 0.715477 0.263662
0.658685 0.716046 0.267167
0.714975 0.716638 0.270850
0.767124 0.717015 0.280433
0.817746 0.717693 0.291485
0.862743 0.718769 0.303735
0.898765 0.720233 0.315468
0.925237 0.721804 0.324233
0.944533 0.723383 0.332016
0.958562 0.724766 0.338239
0.967295 0.725701 0.342199
0.969468 0.725939 0.343181
0.248776 0.764448 0.248776
0.248784 0.764448 0.248776
0.248858 0.764448 0.248779
0.249102 0.764450 0.248789
0.249678 0.764454 0.248812
0.250821 0.764462 0.248858
0.252831 0.764477 0.248940
0.256071 0.764501 0.249073
0.260942 0.764537 0.249277
0.267848 0.764591 0.249576
0.277151 0.764665 0.249995
0.289134 0.764767 0.250562
0.303969 0.764901 0.251309
0.321728 0.765072 0.252265
0.342431 0.765287 0.253460
0.366129 0.765550 0.254922
0.393026 0.765865 0.256673
0.423618 0.766236 0.258729
0.458818 0.766664 0.261100
0.500035 0.767149 0.263783
0.548652 0.767688 0.266766
0.603138 0.768275 0.270021
0.660216 0.768903 0.273510
0.716064 0.769560 0.277178
0.768553 0.770231 0.280958
0.819458 0.770586 0.292550
0.864557 0.771273 0.305598
0.900310 0.772360 0.318842
0.926495 0.773686 0.328421
0.945719 0.775038 0.336381
0.959768 0.776237 0.342741
0.968550 0.777055 0.346786
0.970740 0.777264 0.347789
0.256537 0.815776 0.256537
0.256545 0.815776 0.256538
0.256616 0.815777 0.256541
0.256848 0.815779 0.256550
0.257397 0.815783 0.256573
0.258485 0.815792 0.256619
0.260401 0.815807 0.256700
0.263493 0.815832 0.256832
0.268148 0.815871 0.257035
0.274762 0.815928 0.257331
0.283698 0.816007 0.257747
0.295245 0.816115 0.258311
0.309598 0.816257 0.259053
0.326856 0.816439 0.260002
0.347071 0.816667 0.261190
0.370323 0.816947 0.262643
0.396843 0.817283 0.264384
0.427142 0.817680 0.266431
0.462138 0.818138 0.268791
0.503225 0.818658 0.271464
0.551653 0.819238 0.274438
0.605762 0.819872 0.277686
0.662342 0.820552 0.281170
0.717657 0.821220 0.285277
0.769712 0.821887 0.289981
0.820962 0.822592 0.294794
0.866251 0.822977 0.307711
0.901988 0.823684 0.321027
0.927791 0.824693 0.332711
0.946948 0.825800 0.340853
0.961023 0.826793 0.347355
0.969862 0.827473 0.351488
0.972071 0.827648 0.352513
0.265564 0.861915 0.265564
0.265571 0.861915 0.265564
0.265638 0.861916 0.265567
0.265857 0.861917 0.265577
0.266377 0.861922 0.265599
0.267408 0.861930 0.265645
0.269223 0.861945 0.265725
0.272156 0.861970 0.265857
0.276578 0.862007 0.266059
0.282876 0.862062 0.266354
0.291411 0.862140 0.266768
0.302482 0.862245 0.267329
0.316304 0.862383 0.268068
0.333009 0.862560 0.269014
0.352682 0.862783 0.270198
0.375441 0.863056 0.271647
0.401546 0.863384 0.273384
0.431529 0.863772 0.275427
0.466313 0.864220 0.277785
0.507282 0.864731 0.280459
0.555499 0.865301 0.283435
0.609304 0.865838 0.287295
0.665357 0.866428 0.291517
0.719958 0.867072 0.296015
