app/src/main/assets/luts/film_pushed_color.cube
# V-Cam procedural LUT — film_pushed_color
# Generated by LutBaker. Do not edit by hand.
TITLE "V-Cam film_pushed_color"
LUT_3D_SIZE 33
DOMAIN_MIN 0.0 0.0 0.0
DOMAIN_MAX 1.0 1.0 1.0
0.000000 0.000000 0.000000
0.000000 0.000000 0.000000
0.000000 0.000000 0.000000
0.045291 0.000000 0.000000
0.092153 0.000000 0.000000
0.139014 0.000000 0.000000
0.185875 0.000000 0.000000
0.232737 0.000000 0.000000
0.279598 0.000000 0.000000
0.326459 0.000000 0.000000
0.373321 0.000000 0.000000
0.420182 0.000000 0.000000
0.467043 0.000000 0.000000
0.513904 0.000000 0.000000
0.560766 0.000000 0.000000
0.607627 0.000000 0.000000
0.654488 0.000000 0.000000
0.701350 0.000000 0.000000
0.748211 0.000000 0.000000
0.795072 0.000000 0.000000
0.841934 0.000000 0.000000
0.888795 0.000000 0.000000
0.935656 0.000000 0.000000
0.982517 0.000000 0.000000
1.000000 0.000000 0.000000
1.000000 0.000000 0.000000
1.000000 0.000000 0.000000
1.000000 0.000000 0.000000
1.000000 0.000000 0.000000
1.000000 0.000000 0.000000
1.000000 0.000000 0.000000
1.000000 0.000000 0.000000
1.000000 0.000000 0.000000
0.000000 0.000000 0.000000
0.000000 0.000000 0.000000
0.000000 0.000000 0.000000
0.038798 0.000000 0.000000
0.085659 0.000000 0.000000
0.132520 0.000000 0.000000
0.179382 0.000000 0.000000
0.226243 0.000000 0.000000
0.273104 0.000000 0.000000
0.319966 0.000000 0.000000
0.366827 0.000000 0.000000
0.413688 0.000000 0.000000
0.460549 0.000000 0.000000
0.507411 0.000000 0.000000
0.554272 0.000000 0.000000
0.601133 0.000000 0.000000
0.647995 0.000000 0.000000
0.694856 0.000000 0.000000
0.741717 0.000000 0.000000
0.788579 0.000000 0.000000
0.835440 0.000000 0.000000
0.882301 0.000000 0.000000
0.929163 0.000000 0.000000
0.976024 0.000000 0.000000
1.000000 0.000000 0.000000
1.000000 0.000000 0.000000
1.000000 0.000000 0.000000
1.000000 0.000000 0.000000
1.000000 0.000000 0.000000
1.000000 0.000000 0.000000
1.000000 0.000000 0.000000
1.000000 0.000000 0.000000
1.000000 0.000000 0.000000
0.000000 0.000000 0.000000
0.000000 0.000000 0.000000
0.000000 0.000000 0.000000
0.032304 0.000000 0.000000
0.079165 0.000000 0.000000
0.126027 0.000000 0.000000
0.172888 0.000000 0.000000
0.219749 0.000000 0.000000
0.266611 0.000000 0.000000
0.313472 0.000000 0.000000
0.360333 0.000000 0.000000
0.407194 0.000000 0.000000
0.454056 0.000000 0.000000
0.500917 0.000000 0.000000
0.547778 0.000000 0.000000
0.594640 0.000000 0.000000
0.641501 0.000000 0.000000
0.688362 0.000000 0.000000
0.735224 0.000000 0.000000
0.782085 0.000000 0.000000
0.828946 0.000000 0.000000
0.875807 0.000000 0.000000
0.922669 0.000000 0.000000
0.969530 0.000000 0.000000
1.000000 0.000000 0.000000
1.000000 0.000000 0.000000
1.000000 0.000000 0.000000
1.000000 0.000000 0.000000
1.000000 0.000000 0.000000
1.000000 0.000000 0.000000
1.000000 0.000000 0.000000
1.000000 0.000000 0.000000
1.000000 0.000000 0.000000
0.000000 0.034889 0.000000
0.000000 0.031416 0.000000
0.000000 0.027943 0.000000
0.025810 0.024470 0.000000
0.072672 0.020997 0.000000
0.119533 0.017524 0.000000
0.166394 0.014051 0.000000
0.213256 0.010578 0.000000
0.260117 0.007104 0.000000
0.306978 0.003631 0.000000
0.353839 0.000158 0.000000
0.400701 0.000000 0.000000
0.447562 0.000000 0.000000
0.494423 0.000000 0.000000
0.541285 0.000000 0.000000
0.588146 0.000000 0.000000
0.635007 0.000000 0.000000
0.681869 0.000000 0.000000
0.728730 0.000000 0.000000
0.775591 0.000000 0.000000
0.822452 0.000000 0.000000
0.869314 0.000000 0.000000
0.916175 0.000000 0.000000
0.963036 0.000000 0.000000
1.000000 0.000000 0.000000
1.000000 0.000000 0.000000
1.000000 0.000000 0.000000
1.000000 0.000000 0.000000
1.000000 0.000000 0.000000
1.000000 0.000000 0.000000
1.000000 0.000000 0.000000
1.000000 0.000000 0.000000
1.000000 0.000000 0.000000
0.000000 0.076333 0.000000
0.000000 0.072860 0.000000
0.000000 0.069387 0.000000
0.019317 0.065914 0.000000
0.066178 0.062441 0.000000
0.113039 0.058967 0.000000
0.159901 0.055494 0.000000
0.206762 0.052021 0.000000
0.253623 0.048548 0.000000
0.300485 0.045075 0.000000
0.347346 0.041602 0.000000
0.394207 0.038129 0.000000
0.441068 0.034656 0.000000
0.487930 0.031183 0.000000
0.534791 0.027710 0.000000
0.581652 0.024237 0.000000
0.628514 0.020764 0.000000
0.675375 0.017291 0.000000
0.722236 0.013818 0.000000
0.769098 0.010344 0.000000
0.815959 0.006871 0.000000
0.862820 0.003398 0.000000
0.909681 0.000000 0.000000
0.956543 0.000000 0.000000
1.000000 0.000000 0.000000
1.000000 0.000000 0.000000
1.000000 0.000000 0.000000
1.000000 0.000000 0.000000
1.000000 0.000000 0.000000
1.000000 0.000000 0.000000
1.000000 0.000000 0.000000
1.000000 0.000000 0.000000
1.000000 0.000000 0.000000
0.000000 0.117777 0.000000
0.000000 0.114304 0.000000
0.000000 0.110830 0.000000
0.012823 0.107357 0.000000
0.059684 0.103884 0.000000
0.106546 0.100411 0.000000
0.153407 0.096938 0.000000
0.200268 0.093465 0.000000
0.247130 0.089992 0.000000
0.293991 0.086519 0.000000
0.340852 0.083046 0.000000
0.387713 0.079573 0.000000
0.434575 0.076100 0.000000
0.481436 0.072627 0.000000
0.528297 0.069154 0.000000
0.575159 0.065681 0.000000
0.622020 0.062207 0.000000
0.668881 0.058734 0.000000
0.715743 0.055261 0.000000
0.762604 0.051788 0.000000
0.809465 0.048315 0.000000
0.856326 0.044842 0.000000
0.903188 0.041369 0.000000
0.950049 0.037896 0.000000
0.996910 0.034423 0.000000
1.000000 0.030950 0.000000
1.000000 0.027477 0.000000
1.000000 0.024004 0.000000
1.000000 0.020531 0.000000
1.000000 0.017058 0.000000
1.000000 0.013584 0.000000
1.000000 0.010111 0.000000
1.000000 0.006638 0.000000
0.000000 0.159220 0.000000
0.000000 0.155747 0.000000
0.000000 0.152274 0.000000
0.006329 0.148801 0.000000
0.053191 0.145328 0.000000
0.100052 0.141855 0.000000
0.146913 0.138382 0.000000
0.193775 0.134909 0.000000
0.240636 0.131436 0.000000
0.287497 0.127963 0.000000
0.334358 0.124490 0.000000
0.381220 0.121017 0.000000
0.428081 0.117544 0.000000
0.474942 0.114071 0.000000
0.521804 0.110597 0.000000
0.568665 0.107124 0.000000
0.615526 0.103651 0.000000
0.662388 0.100178 0.000000
0.709249 0.096705 0.000000
0.756110 0.093232 0.000000
0.802971 0.089759 0.000000
0.849833 0.086286 0.000000
0.896694 0.082813 0.000000
0.943555 0.079340 0.000000
0.990417 0.075867 0.000000
1.000000 0.072394 0.000000
1.000000 0.068921 0.000000
1.000000 0.065448 0.000000
1.000000 0.061974 0.000000
1.000000 0.058501 0.000000
1.000000 0.055028 0.000000
1.000000 0.051555 0.000000
1.000000 0.048082 0.000000
0.000000 0.200664 0.000000
0.000000 0.197191 0.000000
0.000000 0.193718 0.000000
0.000000 0.190245 0.000000
0.046697 0.186772 0.000000
0.093558 0.183299 0.000000
0.140420 0.179826 0.000000
0.187281 0.176353 0.000000
0.234142 0.172880 0.000000
0.281003 0.169407 0.000000
0.327865 0.165934 0.000000
0.374726 0.162460 0.000000
0.421587 0.158987 0.000000
0.468449 0.155514 0.000000
0.515310 0.152041 0.000000
0.562171 0.148568 0.000000
0.609033 0.145095 0.000000
0.655894 0.141622 0.000000
0.702755 0.138149 0.000000
0.749617 0.134676 0.000000
0.796478 0.131203 0.000000
0.843339 0.127730 0.000000
0.890200 0.124257 0.000000
0.937062 0.120784 0.000000
0.983923 0.117311 0.000000
1.000000 0.113837 0.000000
1.000000 0.110364 0.000000
1.000000 0.106891 0.000000
1.000000 0.103418 0.000000
1.000000 0.099945 0.000000
1.000000 0.096472 0.000000
1.000000 0.092999 0.000000
1.000000 0.089526 0.000000
0.000000 0.242108 0.000000
0.000000 0.238635 0.000000
0.000000 0.235162 0.000000
0.000000 0.231689 0.000000
0.040203 0.228216 0.000000
0.087065 0.224743 0.000000
0.133926 0.221270 0.000000
0.180787 0.217797 0.000000
0.227648 0.214323 0.000000
0.274510 0.210850 0.000000
0.321371 0.207377 0.000000
0.368232 0.203904 0.000000
0.415094 0.200431 0.000000
0.461955 0.196958 0.000000
0.508816 0.193485 0.000000
0.555678 0.190012 0.000000
0.602539 0.186539 0.000000
0.649400 0.183066 0.000000
0.696262 0.179593 0.000000
0.743123 0.176120 0.000000
0.789984 0.172647 0.000000
0.836845 0.169174 0.000000
0.883707 0.165700 0.000000
0.930568 0.162227 0.000000
0.977429 0.158754 0.000000
1.000000 0.155281 0.000000
1.000000 0.151808 0.000000
1.000000 0.148335 0.000000
1.000000 0.144862 0.000000
1.000000 0.141389 0.000000
1.000000 0.137916 0.000000
1.000000 0.134443 0.000000
1.000000 0.130970 0.000000
0.000000 0.283552 0.000000
0.000000 0.280079 0.000000
0.000000 0.276606 0.000000
0.000000 0.273133 0.000000
0.033710 0.269660 0.000000
0.080571 0.266187 0.000000
0.127432 0.262713 0.000000
0.174293 0.259240 0.000000
0.221155 0.255767 0.000000
0.268016 0.252294 0.000000
0.314877 0.248821 0.000000
0.361739 0.245348 0.000000
0.408600 0.241875 0.000000
0.455461 0.238402 0.000000
0.502323 0.234929 0.000000
0.549184 0.231456 0.000000
0.596045 0.227983 0.000000
0.642906 0.224510 0.000000
0.689768 0.221037 0.000000
0.736629 0.217564 0.000000
0.783490 0.214090 0.000000
0.830352 0.210617 0.000000
0.877213 0.207144 0.000000
0.924074 0.203671 0.000000
0.970936 0.200198 0.000000
1.000000 0.196725 0.000000
1.000000 0.193252 0.000000
1.000000 0.189779 0.000000
1.000000 0.186306 0.000000
1.000000 0.182833 0.000000
1.000000 0.179360 0.000000
1.000000 0.175887 0.000000
1.000000 0.172414 0.000000
0.000000 0.324996 0.000000
0.000000 0.321523 0.000000
0.000000 0.318050 0.000000
0.000000 0.314576 0.000000
0.027216 0.311103 0.000000
0.074077 0.307630 0.000000
0.120939 0.304157 0.000000
0.167800 0.300684 0.000000
0.214661 0.297211 0.000000
0.261522 0.293738 0.000000
0.308384 0.290265 0.000000
0.355245 0.286792 0.000000
0.402106 0.283319 0.000000
0.448968 0.279846 0.000000
0.495829 0.276373 0.000000
0.542690 0.272900 0.000000
0.589551 0.269427 0.000000
0.636413 0.265953 0.000000
0.683274 0.262480 0.000000
0.730135 0.259007 0.000000
0.776997 0.255534 0.000000
0.823858 0.252061 0.000000
0.870719 0.248588 0.000000
0.917581 0.245115 0.000000
0.964442 0.241642 0.000000
1.000000 0.238169 0.000000
1.000000 0.234696 0.000000
1.000000 0.231223 0.000000
1.000000 0.227750 0.000000
1.000000 0.224277 0.000000
1.000000 0.220804 0.000000
1.000000 0.217330 0.000000
1.000000 0.213857 0.000000
0.000000 0.366439 0.000000
0.000000 0.362966 0.000000
0.000000 0.359493 0.000000
0.000000 0.356020 0.000000
0.020722 0.352547 0.000000
0.067584 0.349074 0.000000
0.114445 0.345601 0.000000
0.161306 0.342128 0.000000
0.208167 0.338655 0.000000
0.255029 0.335182 0.000000
0.301890 0.331709 0.000000
0.348751 0.328236 0.000000
0.395613 0.324763 0.000000
0.442474 0.321290 0.000000
0.489335 0.317816 0.000000
0.536196 0.314343 0.000000
0.583058 0.310870 0.000000
0.629919 0.307397 0.000000
0.676780 0.303924 0.000000
0.723642 0.300451 0.000000
0.770503 0.296978 0.000000
0.817364 0.293505 0.000000
0.864226 0.290032 0.000000
0.911087 0.286559 0.000000
0.957948 0.283086 0.000000
1.000000 0.279613 0.000000
1.000000 0.276140 0.000000
1.000000 0.272667 0.000000
1.000000 0.269194 0.000000
1.000000 0.265720 0.000000
1.000000 0.262247 0.000000
1.000000 0.258774 0.000000
1.000000 0.255301 0.000000
0.000000 0.407883 0.000000
0.000000 0.404410 0.000000
0.000000 0.400937 0.000000
0.000000 0.397464 0.000000
0.014229 0.393991 0.000000
0.061090 0.390518 0.000000
0.107951 0.387045 0.000000
0.154812 0.383572 0.000000
0.201674 0.380099 0.000000
0.248535 0.376626 0.000000
0.295396 0.373153 0.000000
0.342258 0.369680 0.000000
0.389119 0.366206 0.000000
0.435980 0.362733 0.000000
0.482841 0.359260 0.000000
0.529703 0.355787 0.000000
0.576564 0.352314 0.000000
0.623425 0.348841 0.000000
0.670287 0.345368 0.000000
0.717148 0.341895 0.000000
0.764009 0.338422 0.000000
0.810871 0.334949 0.000000
0.857732 0.331476 0.000000
0.904593 0.328003 0.000000
0.951454 0.324530 0.000000
0.998316 0.321057 0.000000
1.000000 0.317583 0.000000
1.000000 0.314110 0.000000
1.000000 0.310637 0.000000
1.000000 0.307164 0.000000
1.000000 0.303691 0.000000
1.000000 0.300218 0.000000
1.000000 0.296745 0.000000
0.000000 0.449327 0.000000
0.000000 0.445854 0.000000
0.000000 0.442381 0.000000
0.000000 0.438908 0.000000
0.007735 0.435435 0.000000
0.054596 0.431962 0.000000
0.101457 0.428489 0.000000
0.148319 0.425016 0.000000
0.195180 0.421543 0.000000
0.242041 0.418069 0.000000
0.288903 0.414596 0.000000
0.335764 0.411123 0.000000
0.382625 0.407650 0.000000
0.429487 0.404177 0.000000
0.476348 0.400704 0.000000
0.523209 0.397231 0.000000
0.570070 0.393758 0.000000
0.616932 0.390285 0.000000
0.663793 0.386812 0.000000
0.710654 0.383339 0.000000
0.757516 0.379866 0.000000
0.804377 0.376393 0.000000
0.851238 0.372920 0.000000
0.898099 0.369446 0.000000
0.944961 0.365973 0.000000
0.991822 0.362500 0.000000
1.000000 0.359027 0.000000
1.000000 0.355554 0.000000
1.000000 0.352081 0.000000
1.000000 0.348608 0.000000
1.000000 0.345135 0.000000
1.000000 0.341662 0.000000
1.000000 0.338189 0.000000
0.000000 0.490771 0.000000
0.000000 0.487298 0.000000
0.000000 0.483825 0.000000
0.000000 0.480352 0.000000
0.001241 0.476879 0.000000
0.048102 0.473406 0.000000
0.094964 0.469932 0.000000
0.141825 0.466459 0.000000
0.188686 0.462986 0.000000
0.235548 0.459513 0.000000
0.282409 0.456040 0.000000
0.329270 0.452567 0.000000
0.376132 0.449094 0.000000
0.422993 0.445621 0.000000
0.469854 0.442148 0.000000
0.516715 0.438675 0.000000
0.563577 0.435202 0.000000
0.610438 0.431729 0.000000
0.657299 0.428256 0.000000
0.704161 0.424783 0.000000
0.751022 0.421310 0.000000
0.797883 0.417836 0.000000
0.844745 0.414363 0.000000
0.891606 0.410890 0.000000
0.938467 0.407417 0.000000
0.985328 0.403944 0.000000
1.000000 0.400471 0.000000
1.000000 0.396998 0.000000
1.000000 0.393525 0.000000
1.000000 0.390052 0.000000
1.000000 0.386579 0.000000
1.000000 0.383106 0.000000
1.000000 0.379633 0.000000
0.000000 0.532215 0.000000
0.000000 0.528742 0.000000
0.000000 0.525269 0.000000
0.000000 0.521796 0.000000
0.000000 0.518322 0.000000
0.041609 0.514849 0.000000
0.088470 0.511376 0.000000
0.135331 0.507903 0.000000
0.182193 0.504430 0.000000
0.229054 0.500957 0.000000
0.275915 0.497484 0.000000
0.322777 0.494011 0.000000
0.369638 0.490538 0.000000
0.416499 0.487065 0.000000
0.463360 0.483592 0.000000
0.510222 0.480119 0.000000
0.557083 0.476646 0.000000
0.603944 0.473173 0.000000
0.650806 0.469699 0.000000
0.697667 0.466226 0.000000
0.744528 0.462753 0.000000
0.791390 0.459280 0.000000
0.838251 0.455807 0.000000
0.885112 0.452334 0.000000
0.931973 0.448861 0.000000
0.978835 0.445388 0.000000
1.000000 0.441915 0.000000
1.000000 0.438442 0.000000
1.000000 0.434969 0.000000
1.000000 0.431496 0.000000
1.000000 0.428023 0.000000
1.000000 0.424550 0.000000
1.000000 0.421076 0.000000
0.000000 0.573659 0.000000
0.000000 0.570185 0.000000
0.000000 0.566712 0.000000
0.000000 0.563239 0.000000
0.000000 0.559766 0.000000
0.035115 0.556293 0.000000
0.081976 0.552820 0.000000
0.128838 0.549347 0.000000
0.175699 0.545874 0.000000
0.222560 0.542401 0.000000
0.269422 0.538928 0.000000
0.316283 0.535455 0.000000
0.363144 0.531982 0.000000
0.410005 0.528509 0.000000
0.456867 0.525036 0.000000
0.503728 0.521562 0.000000
0.550589 0.518089 0.000000
0.597451 0.514616 0.000000
0.644312 0.511143 0.000000
0.691173 0.507670 0.000000
0.738035 0.504197 0.000000
0.784896 0.500724 0.000000
0.831757 0.497251 0.000000
0.878618 0.493778 0.000000
0.925480 0.490305 0.000000
0.972341 0.486832 0.000000
1.000000 0.483359 0.000000
1.000000 0.479886 0.000000
1.000000 0.476413 0.000000
1.000000 0.472939 0.000000
1.000000 0.469466 0.000000
1.000000 0.465993 0.000000
1.000000 0.462520 0.000000
0.000000 0.615102 0.000000
0.000000 0.611629 0.000000
0.000000 0.608156 0.000000
0.000000 0.604683 0.000000
0.000000 0.601210 0.000000
0.028621 0.597737 0.000000
0.075483 0.594264 0.000000
0.122344 0.590791 0.000000
0.169205 0.587318 0.000000
0.216067 0.583845 0.000000
0.262928 0.580372 0.000000
0.309789 0.576899 0.000000
0.356651 0.573426 0.000000
0.403512 0.569952 0.000000
0.450373 0.566479 0.000000
0.497234 0.563006 0.000000
0.544096 0.559533 0.000000
0.590957 0.556060 0.000000
0.637818 0.552587 0.000000
0.684680 0.549114 0.000000
0.731541 0.545641 0.000000
0.778402 0.542168 0.000000
0.825264 0.538695 0.000000
0.872125 0.535222 0.000000
0.918986 0.531749 0.000000
0.965847 0.528276 0.000000
1.000000 0.524803 0.000000
1.000000 0.521329 0.000000
1.000000 0.517856 0.000000
1.000000 0.514383 0.000000
1.000000 0.510910 0.000000
1.000000 0.507437 0.000000
1.000000 0.503964 0.000000
0.000000 0.656546 0.000000
0.000000 0.653073 0.000000
0.000000 0.649600 0.000000
0.000000 0.646127 0.000000
0.000000 0.642654 0.000000
0.022128 0.639181 0.000000
0.068989 0.635708 0.000000
0.115850 0.632235 0.000000
0.162712 0.628762 0.000000
0.209573 0.625289 0.000000
0.256434 0.621815 0.000000
0.303295 0.618342 0.000000
0.350157 0.614869 0.000000
0.397018 0.611396 0.000000
0.443879 0.607923 0.000000
0.490741 0.604450 0.000000
0.537602 0.600977 0.000000
0.584463 0.597504 0.000000
0.631325 0.594031 0.000000
0.678186 0.590558 0.000000
0.725047 0.587085 0.000000
0.771909 0.583612 0.000000
0.818770 0.580139 0.000000
0.865631 0.576666 0.000000
0.912492 0.573192 0.000000
0.959354 0.569719 0.000000
1.000000 0.566246 0.000000
1.000000 0.562773 0.000000
1.000000 0.559300 0.000000
1.000000 0.555827 0.000000
1.000000 0.552354 0.000000
1.000000 0.548881 0.000000
1.000000 0.545408 0.000000
0.000000 0.697990 0.000000
0.000000 0.694517 0.000000
0.000000 0.691044 0.000000
0.000000 0.687571 0.000000
0.000000 0.684098 0.000000
0.015634 0.680625 0.000000
0.062495 0.677152 0.000000
0.109357 0.673679 0.000000
0.156218 0.670205 0.000000
0.203079 0.666732 0.000000
0.249940 0.663259 0.000000
0.296802 0.659786 0.000000
0.343663 0.656313 0.000000
0.390524 0.652840 0.000000
0.437386 0.649367 0.000000
0.484247 0.645894 0.000000
0.531108 0.642421 0.000000
0.577970 0.638948 0.000000
0.624831 0.635475 0.000000
0.671692 0.632002 0.000000
0.718553 0.628529 0.000000
0.765415 0.625055 0.000000
0.812276 0.621582 0.000000
0.859137 0.618109 0.000000
0.905999 0.614636 0.000000
0.952860 0.611163 0.000000
0.999721 0.607690 0.000000
1.000000 0.604217 0.000000
1.000000 0.600744 0.000000
1.000000 0.597271 0.000000
1.000000 0.593798 0.000000
1.000000 0.590325 0.000000
1.000000 0.586852 0.000000
0.000000 0.739434 0.000000
0.000000 0.735961 0.000000
0.000000 0.732488 0.000000
0.000000 0.729015 0.000000
0.000000 0.725541 0.000000
0.009140 0.722068 0.000000
0.056002 0.718595 0.000000
0.102863 0.715122 0.000000
0.149724 0.711649 0.000000
0.196586 0.708176 0.000000
0.243447 0.704703 0.000000
0.290308 0.701230 0.000000
0.337169 0.697757 0.000000
0.384031 0.694284 0.000000
0.430892 0.690811 0.000000
0.477753 0.687338 0.000000
0.524615 0.683865 0.000000
0.571476 0.680392 0.000000
0.618337 0.676919 0.000000
0.665199 0.673445 0.000000
0.712060 0.669972 0.000000
0.758921 0.666499 0.000000
0.805782 0.663026 0.000000
0.852644 0.659553 0.000000
0.899505 0.656080 0.000000
0.946366 0.652607 0.000000
0.993228 0.649134 0.000000
1.000000 0.645661 0.000000
1.000000 0.642188 0.000000
1.000000 0.638715 0.000000
1.000000 0.635242 0.000000
1.000000 0.631769 0.000000
1.000000 0.628295 0.000000
0.000000 0.780878 0.000000
0.000000 0.777405 0.000000
0.000000 0.773931 0.000000
0.000000 0.770458 0.000000
0.000000 0.766985 0.000000
0.002647 0.763512 0.000000
0.049508 0.760039 0.000000
0.096369 0.756566 0.000000
0.143231 0.753093 0.000000
0.190092 0.749620 0.000000
0.236953 0.746147 0.000000
0.283814 0.742674 0.000000
0.330676 0.739201 0.000000
0.377537 0.735728 0.000000
0.424398 0.732255 0.000000
0.471260 0.728782 0.000000
0.518121 0.725308 0.000000
0.564982 0.721835 0.000000
0.611844 0.718362 0.000000
0.658705 0.714889 0.000000
0.705566 0.711416 0.000000
0.752427 0.707943 0.000000
0.799289 0.704470 0.000000
0.846150 0.700997 0.000000
0.893011 0.697524 0.000000
0.939873 0.694051 0.000000
0.986734 0.690578 0.000000
1.000000 0.687105 0.000000
1.000000 0.683632 0.000000
1.000000 0.680158 0.000000
1.000000 0.676685 0.000000
1.000000 0.673212 0.000000
1.000000 0.669739 0.000000
0.000000 0.822321 0.000000
0.000000 0.818848 0.000000
0.000000 0.815375 0.000000
0.000000 0.811902 0.000000
0.000000 0.808429 0.000000
0.000000 0.804956 0.000000
0.043014 0.801483 0.000000
0.089876 0.798010 0.000000
0.136737 0.794537 0.000000
0.183598 0.791064 0.000000
0.230459 0.787591 0.000000
0.277321 0.784118 0.000000
0.324182 0.780645 0.000000
0.371043 0.777171 0.000000
0.417905 0.773698 0.000000
0.464766 0.770225 0.000000
0.511627 0.766752 0.000000
0.558489 0.763279 0.000000
0.605350 0.759806 0.000000
0.652211 0.756333 0.000000
0.699072 0.752860 0.000000
0.745934 0.749387 0.000000
0.792795 0.745914 0.000000
0.839656 0.742441 0.000000
0.886518 0.738968 0.000000
0.933379 0.735495 0.000000
0.980240 0.732022 0.000000
1.000000 0.728548 0.000000
1.000000 0.725075 0.000000
1.000000 0.721602 0.000000
1.000000 0.718129 0.000000
1.000000 0.714656 0.000000
1.000000 0.711183 0.000000
0.000000 0.863765 0.000000
0.000000 0.860292 0.000000
0.000000 0.856819 0.000000
0.000000 0.853346 0.000000
0.000000 0.849873 0.000000
0.000000 0.846400 0.000000
0.036521 0.842927 0.000000
0.083382 0.839454 0.000000
0.130243 0.835981 0.000000
0.177105 0.832507 0.000000
0.223966 0.829034 0.000000
0.270827 0.825561 0.000000
0.317688 0.822088 0.000000
0.364550 0.818615 0.000000
0.411411 0.815142 0.000000
0.458272 0.811669 0.000000
0.505134 0.808196 0.000000
0.551995 0.804723 0.000000
0.598856 0.801250 0.000000
0.645718 0.797777 0.000000
0.692579 0.794304 0.000000
0.739440 0.790831 0.000000
0.786301 0.787358 0.000000
0.833163 0.783885 0.000000
0.880024 0.780411 0.000000
0.926885 0.776938 0.000000
0.973747 0.773465 0.000000
1.000000 0.769992 0.000000
1.000000 0.766519 0.000000
1.000000 0.763046 0.000000
1.000000 0.759573 0.000000
1.000000 0.756100 0.000000
1.000000 0.752627 0.000000
0.000000 0.905209 0.000000
0.000000 0.901736 0.000000
0.000000 0.898263 0.000000
0.000000 0.894790 0.000000
0.000000 0.891317 0.000000
0.000000 0.887844 0.000000
0.030027 0.884371 0.000000
0.076888 0.880898 0.000000
0.123750 0.877424 0.000000
0.170611 0.873951 0.000000
0.217472 0.870478 0.000000
0.264333 0.867005 0.000000
0.311195 0.863532 0.000000
0.358056 0.860059 0.000000
0.404917 0.856586 0.000000
0.451779 0.853113 0.000000
0.498640 0.849640 0.000000
0.545501 0.846167 0.000000
0.592363 0.842694 0.000000
0.639224 0.839221 0.000000
0.686085 0.835748 0.000000
0.732946 0.832274 0.000000
0.779808 0.828801 0.000000
0.826669 0.825328 0.000000
0.873530 0.821855 0.000000
0.920392 0.818382 0.000000
0.967253 0.814909 0.000000
1.000000 0.811436 0.000000
1.000000 0.807963 0.000000
1.000000 0.804490 0.000000
1.000000 0.801017 0.000000
1.000000 0.797544 0.000000
1.000000 0.794071 0.000000
0.000000 0.946653 0.000000
0.000000 0.943180 0.000000
0.000000 0.939707 0.000000
0.000000 0.936234 0.000000
0.000000 0.932760 0.000000
0.000000 0.929287 0.000000
0.023533 0.925814 0.000000
0.070395 0.922341 0.000000
0.117256 0.918868 0.000000
0.164117 0.915395 0.000000
0.210978 0.911922 0.000000
0.257840 0.908449 0.000000
0.304701 0.904976 0.000000
0.351562 0.901503 0.000000
0.398424 0.898030 0.000000
0.445285 0.894557 0.000000
0.492146 0.891084 0.000000
0.539008 0.887611 0.000000
0.585869 0.884138 0.000000
0.632730 0.880664 0.000000
0.679591 0.877191 0.000000
0.726453 0.873718 0.000000
0.773314 0.870245 0.000000
0.820175 0.866772 0.000000
0.867037 0.863299 0.000000
0.913898 0.859826 0.000000
0.960759 0.856353 0.000000
1.000000 0.852880 0.000000
1.000000 0.849407 0.000000
1.000000 0.845934 0.000000
1.000000 0.842461 0.000000
1.000000 0.838988 0.000000
1.000000 0.835515 0.000000
0.000000 0.988097 0.000000
0.000000 0.984624 0.000000
0.000000 0.981151 0.000000
0.000000 0.977677 0.000000
0.000000 0.974204 0.000000
0.000000 0.970731 0.000000
0.017040 0.967258 0.000000
0.063901 0.963785 0.000000
0.110762 0.960312 0.000000
0.157623 0.956839 0.000000
0.204485 0.953366 0.000000
0.251346 0.949893 0.000000
0.298207 0.946420 0.000000
0.345069 0.942947 0.000000
0.391930 0.939474 0.000000
0.438791 0.936001 0.000000
0.485653 0.932527 0.000000
0.532514 0.929054 0.000000
0.579375 0.925581 0.000000
0.626236 0.922108 0.000000
0.673098 0.918635 0.000000
0.719959 0.915162 0.000000
0.766820 0.911689 0.000000
0.813682 0.908216 0.000000
