app/src/main/assets/luts/film_pushed_color.cube
# V-Cam procedural LUT — film_pushed_color
# Generated by LutBaker. Do not edit by hand.
TITLE "V-Cam film_pushed_color"
LUT_3D_SIZE 5
DOMAIN_MIN 0.0 0.0 0.0
DOMAIN_MAX 1.0 1.0 1.0
0.000000 0.000000 0.000000
0.279598 0.000000 0.000000
0.654488 0.000000 0.000000
1.000000 0.000000 0.000000
1.000000 0.000000 0.000000
0.000000 0.242108 0.000000
0.227648 0.214323 0.000000
0.602539 0.186539 0.000000
0.977429 0.158754 0.000000
1.000000 0.130970 0.000000
0.000000 0.573659 0.000000
0.175699 0.545874 0.000000
0.550589 0.518089 0.000000
0.925480 0.490305 0.000000
1.000000 0.462520 0.000000
0.000000 0.905209 0.000000
0.123750 0.877424 0.000000
0.498640 0.849640 0.000000
0.873530 0.821855 0.000000
1.000000 0.794071 0.000000
0.000000 1.000000 0.000000
0.071800 1.000000 0.000000
0.446690 1.000000 0.000000
0.821581 1.000000 0.000000
1.000000 1.000000 0.000000
0.000000 0.000000 0.296789
0.269005 0.000000 0.269005
0.643895 0.000000 0.241220
1.000000 0.000000 0.213435
1.000000 0.000000 0.185651
0.000000 0.231515 0.244840
0.217055 0.203730 0.217055
0.591945 0.175945 0.189270
0.966836 0.148161 0.161486
1.000000 0.120376 0.133701
0.000000 0.563065 0.192890
0.165106 0.535281 0.165106
0.539996 0.507496 0.137321
0.914886 0.479711 0.109536
1.000000 0.451927 0.081752
0.000000 0.894616 0.140941
0.113156 0.866831 0.113156
0.488046 0.839046 0.085371
0.862937 0.811262 0.057587
1.000000 0.783477 0.029802
0.000000 1.000000 0.088991
0.061207 1.000000 0.061207
0.436097 1.000000 0.033422
0.810987 1.000000 0.005637
1.000000 1.000000 0.000000
0.000000 0.000000 0.688871
0.258411 0.000000 0.661086
0.633301 0.000000 0.633301
1.000000 0.000000 0.605517
1.000000 0.000000 0.577732
0.000000 0.220921 0.636921
0.206462 0.193137 0.609137
0.581352 0.165352 0.581352
0.956242 0.137567 0.553567
1.000000 0.109783 0.525783
0.000000 0.552472 0.584972
0.154512 0.524687 0.557187
0.529402 0.496903 0.529402
0.904293 0.469118 0.501618
1.000000 0.441333 0.473833
0.000000 0.884022 0.533022
0.102563 0.856238 0.505238
0.477453 0.828453 0.477453
0.852343 0.800668 0.449668
1.000000 0.772884 0.421884
0.000000 1.000000 0.481073
0.050613 1.000000 0.453288
0.425504 1.000000 0.425504
0.800394 1.000000 0.397719
1.000000 1.000000 0.369934
0.000000 0.000000 1.000000
0.247818 0.000000 1.000000
0.622708 0.000000 1.000000
0.997598 0.000000 0.997598
1.000000 0.000000 0.969814
0.000000 0.210328 1.000000
0.195868 0.182543 1.000000
0.570759 0.154759 0.973433
0.945649 0.126974 0.945649
1.000000 0.099189 0.917864
0.000000 0.541878 0.977053
0.143919 0.514094 0.949269
0.518809 0.486309 0.921484
0.893699 0.458524 0.893699
1.000000 0.430740 0.865915
0.000000 0.873429 0.925104
0.091969 0.845644 0.897319
0.466860 0.817860 0.869534
0.841750 0.790075 0.841750
1.000000 0.762290 0.813965
0.000000 1.000000 0.873154
0.040020 1.000000 0.845370
0.414910 1.000000 0.817585
0.789800 1.000000 0.789800
1.000000 1.000000 0.762016
0.000000 0.000000 1.000000
0.237224 0.000000 1.000000
0.612115 0.000000 1.000000
0.987005 0.000000 1.000000
1.000000 0.000000 1.000000
0.000000 0.199734 1.000000
0.185275 0.171950 1.000000
0.560165 0.144165 1.000000
0.935055 0.116381 1.000000
1.000000 0.088596 1.000000
0.000000 0.531285 1.000000
0.133325 0.503500 1.000000
0.508216 0.475716 1.000000
0.883106 0.447931 1.000000
1.000000 0.420146 1.000000
0.000000 0.862835 1.000000
0.081376 0.835051 1.000000
0.456266 0.807266 1.000000
0.831156 0.779481 1.000000
1.000000 0.751697 1.000000
0.000000 1.000000 1.000000
0.029426 1.000000 1.000000
0.404317 1.000000 1.000000
0.779207 1.000000 1.000000
1.000000 1.000000 1.000000
