app/src/main/assets/luts/film_classic_cool.cube
# V-Cam procedural LUT — film_classic_cool
# Generated by LutBaker. Do not edit by hand.
TITLE "V-Cam film_classic_cool"
LUT_3D_SIZE 9
DOMAIN_MIN 0.0 0.0 0.0
DOMAIN_MAX 1.0 1.0 1.0
0.220916 0.220916 0.220916
0.222018 0.220916 0.220950
0.235626 0.220920 0.221381
0.285492 0.221005 0.223332
0.381618 0.221798 0.229014
0.538050 0.225782 0.241836
0.754916 0.238681 0.265414
0.916036 0.260670 0.295448
0.960544 0.274252 0.311752
0.220916 0.222026 0.220916
0.222019 0.222026 0.220950
0.235626 0.222029 0.221381
0.285496 0.222111 0.223334
0.381627 0.222892 0.229018
0.538071 0.226837 0.241844
0.754944 0.239640 0.265428
0.916058 0.261498 0.295468
0.960565 0.275013 0.311773
0.220923 0.235714 0.220923
0.222025 0.235714 0.220957
0.235632 0.235717 0.221387
0.285520 0.235776 0.223362
0.381702 0.236432 0.229086
0.538327 0.239896 0.241936
0.755301 0.251570 0.265615
0.916352 0.271873 0.295717
0.960835 0.284584 0.312047
0.221088 0.285869 0.221088
0.222186 0.285870 0.221123
0.235753 0.285882 0.221563
0.285614 0.285931 0.223491
0.381920 0.286284 0.229461
0.538892 0.288614 0.242720
0.756251 0.297082 0.266918
0.917333 0.312536 0.297161
0.961840 0.322580 0.313470
0.222568 0.382716 0.222568
0.223650 0.382718 0.222604
0.237030 0.382744 0.223064
0.286344 0.382855 0.225075
0.382473 0.383140 0.230397
0.540326 0.384202 0.244705
0.758310 0.389317 0.270778
0.918877 0.399964 0.302564
0.963283 0.407305 0.319396
0.229370 0.542064 0.229370
0.230397 0.542069 0.229406
0.243138 0.542128 0.229880
0.290590 0.542388 0.231951
0.384618 0.543067 0.237415
0.542868 0.544301 0.247692
0.762689 0.547248 0.276791
0.921914 0.556195 0.313019
0.966186 0.562717 0.330865
0.248776 0.764448 0.248776
0.249678 0.764454 0.248812
0.260942 0.764537 0.249277
0.303969 0.764901 0.251309
0.393026 0.765865 0.256673
0.548652 0.767688 0.266766
0.768553 0.770231 0.280958
0.926495 0.773686 0.328421
0.970740 0.777264 0.347789
0.286428 0.925572 0.286428
0.287149 0.925577 0.286463
0.296248 0.925641 0.286936
0.332569 0.925895 0.289158
0.413864 0.926584 0.295096
0.566495 0.927955 0.306567
0.776779 0.930067 0.323456
0.931671 0.932469 0.341694
0.976039 0.933392 0.366081
0.313601 0.969220 0.313601
0.314226 0.969225 0.313638
0.322157 0.969293 0.314113
0.354515 0.969593 0.316200
0.431015 0.970405 0.321784
0.581520 0.972021 0.332602
0.784732 0.974508 0.348609
0.934007 0.977332 0.366008
0.978776 0.978776 0.374640
0.220950 0.220916 0.222033
0.222052 0.220916 0.222066
0.235657 0.220920 0.222493
0.285516 0.221006 0.224429
0.381635 0.221800 0.230067
0.538068 0.225785 0.242799
0.754929 0.238689 0.266237
0.916043 0.260680 0.296136
0.960546 0.274261 0.312379
0.220950 0.222026 0.222033
0.222052 0.222026 0.222066
0.235658 0.222029 0.222494
0.285520 0.222112 0.224431
0.381643 0.222894 0.230071
0.538088 0.226840 0.242806
0.754957 0.239647 0.266252
0.916066 0.261508 0.296155
0.960567 0.275022 0.312401
0.220957 0.235714 0.222039
0.222058 0.235715 0.222072
0.235663 0.235718 0.222499
0.285545 0.235775 0.224457
0.381723 0.236430 0.230135
0.538345 0.239899 0.242898
0.755314 0.251576 0.266438
0.916360 0.271882 0.296404
0.960837 0.284593 0.312674
0.221122 0.285869 0.222200
0.222218 0.285871 0.222232
0.235782 0.285883 0.222669
0.285638 0.285932 0.224583
0.381940 0.286283 0.230506
0.538919 0.288611 0.243669
0.756279 0.297076 0.267722
0.917353 0.312527 0.297826
0.961852 0.322568 0.314074
0.222602 0.382717 0.223662
0.223677 0.382721 0.223691
0.237055 0.382747 0.224147
0.286365 0.382858 0.226145
0.382491 0.383141 0.231432
0.540350 0.384201 0.245641
0.758338 0.389313 0.271559
0.918895 0.399959 0.303209
0.963295 0.407297 0.319982
0.229404 0.542066 0.230408
0.230415 0.542076 0.230428
0.243155 0.542136 0.230898
0.290605 0.542395 0.232956
0.384632 0.543072 0.238387
0.542886 0.544304 0.248606
0.762712 0.547249 0.277542
0.921930 0.556193 0.313628
0.966197 0.562713 0.331418
0.248813 0.764449 0.249690
0.249678 0.764466 0.249690
0.260942 0.764549 0.250152
0.303971 0.764912 0.252173
0.393030 0.765875 0.257510
0.548663 0.767696 0.267556
0.768569 0.770235 0.281688
0.926507 0.773689 0.328983
0.970748 0.777265 0.348300
0.286473 0.925571 0.287167
0.287123 0.925589 0.287132
0.296225 0.925652 0.287603
0.332551 0.925906 0.289818
0.413854 0.926594 0.295735
0.566494 0.927963 0.307171
0.776788 0.930074 0.324013
0.931680 0.932472 0.342212
0.976044 0.933395 0.366554
0.313626 0.969222 0.314223
0.314194 0.969237 0.314202
0.322126 0.969305 0.314675
0.354489 0.969605 0.316757
0.430998 0.970416 0.322327
0.581513 0.972030 0.333121
0.784736 0.974515 0.349098
0.934014 0.977337 0.366472
0.978780 0.978780 0.375093
0.221384 0.220918 0.235795
0.222483 0.220918 0.235825
0.236054 0.220921 0.236219
0.285821 0.221013 0.237969
0.381853 0.221821 0.243090
0.538298 0.225830 0.254763
0.755104 0.238783 0.276552
0.916142 0.260808 0.304813
0.960570 0.274383 0.320328
0.221385 0.222027 0.235795
0.222483 0.222027 0.235826
0.236055 0.222030 0.236220
0.285824 0.222118 0.237971
0.381862 0.222915 0.243094
0.538318 0.226885 0.254771
0.755132 0.239741 0.276567
0.916165 0.261635 0.304832
0.960591 0.275143 0.320349
0.221391 0.235716 0.235801
0.222489 0.235716 0.235832
0.236060 0.235719 0.236226
0.285868 0.235771 0.237988
0.381966 0.236428 0.243140
0.538574 0.239940 0.254864
0.755488 0.251662 0.276749
0.916458 0.272001 0.305077
0.960861 0.284708 0.320618
0.221559 0.285874 0.235914
0.222651 0.285876 0.235944
0.236160 0.285900 0.236325
0.285946 0.285939 0.238081
0.382199 0.286277 0.243447
0.539264 0.288574 0.255485
0.756637 0.296999 0.277802
0.917603 0.312409 0.306233
0.962019 0.322418 0.321744
0.223042 0.382728 0.237173
0.224114 0.382732 0.237199
0.237380 0.382788 0.237542
0.286633 0.382892 0.239379
0.382716 0.383158 0.244256
0.540659 0.384198 0.257291
0.758692 0.389269 0.281373
0.919129 0.399891 0.311373
0.963452 0.407201 0.327427
0.229847 0.542087 0.243261
0.230855 0.542097 0.243280
0.243369 0.542232 0.243524
0.290789 0.542486 0.245428
0.384801 0.543145 0.250472
0.543129 0.544343 0.260009
0.763008 0.547254 0.286991
0.922133 0.556170 0.321351
0.966333 0.562662 0.338462
0.249287 0.764461 0.261086
0.250150 0.764478 0.261086
0.260949 0.764698 0.261086
0.303992 0.765058 0.262977
0.393088 0.766007 0.267993
0.548807 0.767798 0.277472
0.768772 0.770292 0.290880
0.926666 0.773726 0.336127
0.970853 0.777283 0.354828
0.287061 0.925557 0.296475
0.287708 0.925574 0.296442
0.295934 0.925796 0.296045
0.332320 0.926047 0.298153
0.413725 0.926724 0.303826
0.566480 0.928072 0.314824
0.776903 0.930152 0.331109
0.931795 0.932521 0.348811
0.976112 0.933433 0.372621
0.313957 0.969251 0.322102
0.314544 0.969263 0.322102
0.321735 0.969460 0.321831
0.354160 0.969758 0.323836
0.430777 0.970559 0.329239
0.581415 0.972154 0.339739
0.784800 0.974610 0.355350
0.934107 0.977404 0.372411
0.978831 0.978831 0.380903
0.223308 0.220954 0.286087
0.224392 0.220955 0.286111
0.237787 0.220972 0.286418
0.287159 0.221046 0.287770
0.382815 0.221915 0.291401
0.539310 0.226028 0.299943
0.755874 0.239197 0.316639
0.916576 0.261373 0.339610
0.960677 0.274919 0.352698
0.223310 0.222061 0.286092
0.224394 0.222062 0.286115
0.237790 0.222078 0.286423
0.287163 0.222151 0.287773
0.382823 0.223007 0.291407
0.539330 0.227081 0.299952
0.755902 0.240153 0.316653
0.916599 0.262198 0.339628
0.960698 0.275677 0.352718
0.223340 0.235730 0.286117
0.224423 0.235731 0.286143
0.237815 0.235741 0.286472
0.287203 0.235796 0.287814
0.382925 0.236508 0.291470
0.539585 0.240116 0.300052
0.756257 0.252042 0.316827
0.916890 0.272529 0.339862
0.960967 0.285212 0.352978
0.223472 0.285896 0.286213
0.224551 0.285898 0.286238
0.237911 0.285917 0.286554
0.287286 0.285953 0.287898
0.383305 0.286241 0.291651
0.540629 0.288482 0.300400
0.757774 0.296991 0.317513
0.918142 0.312667 0.340814
0.962134 0.322808 0.354049
0.224971 0.382775 0.286873
0.226030 0.382779 0.286895
0.239148 0.382832 0.287183
0.287801 0.383028 0.288408
0.383698 0.383220 0.292105
0.542011 0.384171 0.301626
0.760239 0.389062 0.319955
0.920153 0.399579 0.344502
0.964138 0.406764 0.358113
0.231789 0.542180 0.291041
0.232785 0.542190 0.291058
0.245159 0.542323 0.291273
0.291602 0.542865 0.292190
0.385542 0.543450 0.296086
0.544186 0.544497 0.303581
0.764298 0.547264 0.324397
0.923022 0.556056 0.352993
0.966929 0.562423 0.367774
0.251372 0.764516 0.304508
0.252223 0.764533 0.304510
0.262892 0.764752 0.304542
0.304110 0.765675 0.304652
0.393344 0.766568 0.308657
0.549440 0.768233 0.316357
0.769656 0.770531 0.327456
0.927359 0.773877 0.365789
0.971310 0.777349 0.382360
0.289698 0.925487 0.333400
0.290339 0.925504 0.333377
0.298452 0.925724 0.333086
0.331370 0.926643 0.331838
0.413173 0.927281 0.336647
0.566424 0.928537 0.346177
0.777403 0.930489 0.360570
0.932295 0.932730 0.376583
0.976408 0.933593 0.398545
0.315412 0.969379 0.354249
0.315995 0.969391 0.354250
0.323401 0.969541 0.354262
0.352779 0.970410 0.353202
0.429821 0.971177 0.357985
0.580991 0.972686 0.367480
0.785079 0.975021 0.381839
0.934511 0.977692 0.397855
0.979054 0.979054 0.405920
0.228604 0.221290 0.382662
0.229648 0.221294 0.382680
0.242575 0.221346 0.382912
0.290595 0.221573 0.383932
0.385413 0.222182 0.386697
0.542073 0.226550 0.391753
0.758087 0.240182 0.402393
0.917750 0.262908 0.418881
0.960967 0.276368 0.428888
0.228611 0.222390 0.382672
0.229654 0.222394 0.382690
0.242581 0.222445 0.382922
0.290601 0.222669 0.383942
0.385421 0.223272 0.386705
0.542092 0.227598 0.391763
0.758116 0.241129 0.402407
0.917772 0.263725 0.418900
0.960988 0.277120 0.428910
0.228696 0.235981 0.382758
0.229737 0.235983 0.382782
0.242656 0.236020 0.383045
0.290680 0.236214 0.384058
0.385518 0.236738 0.386803
0.542341 0.240581 0.391890
0.758490 0.252916 0.402588
0.918059 0.273962 0.419146
0.961255 0.286577 0.429185
0.229094 0.285941 0.382986
0.230131 0.285944 0.383008
0.242994 0.285977 0.383294
0.290931 0.286078 0.384494
0.385874 0.286368 0.387161
0.543358 0.288796 0.392379
0.760087 0.297554 0.403311
0.919291 0.313804 0.420164
0.962414 0.323922 0.430334
0.230111 0.382897 0.383564
0.231138 0.382901 0.383584
0.243875 0.382945 0.383834
0.291430 0.383107 0.384907
0.386280 0.383283 0.387576
0.545484 0.384040 0.393137
0.763968 0.388605 0.404662
0.922370 0.399177 0.422400
0.965401 0.406257 0.432930
0.236972 0.542430 0.385503
0.237937 0.542440 0.385519
0.249948 0.542565 0.385725
0.295319 0.543077 0.386608
0.387513 0.544141 0.388790
0.546973 0.544805 0.394141
0.767683 0.547183 0.407461
0.925375 0.555632 0.428466
0.968521 0.561665 0.440112
0.256978 0.764668 0.394050
0.257802 0.764685 0.394057
0.268128 0.764901 0.394146
0.308281 0.765812 0.394514
0.394088 0.767931 0.395326
0.551130 0.769280 0.401009
0.771958 0.771058 0.409630
0.929196 0.774204 0.438628
0.972523 0.777452 0.452352
0.296716 0.925323 0.415519
0.297330 0.925340 0.415508
0.305124 0.925563 0.415354
0.336961 0.926492 0.414695
0.411891 0.928640 0.413062
0.566328 0.929694 0.420683
0.778725 0.931325 0.432756
0.933597 0.933236 0.446872
0.977181 0.933991 0.466399
0.319319 0.969727 0.430205
0.319892 0.969738 0.430210
0.327176 0.969886 0.430268
0.357230 0.970529 0.430497
0.427475 0.972724 0.428606
0.579912 0.974042 0.436782
0.785817 0.976067 0.449735
0.935570 0.978420 0.464763
0.979616 0.979616 0.472482
0.239443 0.222984 0.539318
0.240411 0.222994 0.539339
0.252447 0.223111 0.539606
0.297834 0.223626 0.540785
0.389723 0.224994 0.543984
0.547591 0.227586 0.550360
0.762850 0.241640 0.557275
0.920073 0.265973 0.569713
0.961550 0.279242 0.577830
0.239457 0.224063 0.539342
0.240424 0.224072 0.539363
0.252460 0.224189 0.539630
0.297846 0.224699 0.540808
0.389735 0.226055 0.544006
0.547609 0.228626 0.550379
0.762879 0.242577 0.557298
0.920094 0.266775 0.569741
0.961570 0.279981 0.577861
0.239623 0.237397 0.539652
0.240590 0.237405 0.539672
0.252622 0.237510 0.539938
0.297995 0.237969 0.541108
0.389887 0.239189 0.544285
0.547845 0.241506 0.550617
0.763244 0.254242 0.557595
0.920372 0.276828 0.570101
0.961834 0.289287 0.578250
0.240485 0.286722 0.540258
0.241443 0.286726 0.540290
0.253370 0.286784 0.540711
0.298551 0.287024 0.542346
0.390479 0.287849 0.545432
0.548806 0.289419 0.551587
0.764798 0.298514 0.558826
0.921565 0.316087 0.571621
0.962974 0.326142 0.579903
0.242736 0.382905 0.541721
0.243677 0.382910 0.541751
0.255406 0.382973 0.542134
0.299961 0.383216 0.543790
0.391494 0.383610 0.547873
0.550772 0.384325 0.553576
0.768523 0.389154 0.561523
0.924547 0.400763 0.575197
0.965915 0.407882 0.583840
0.247018 0.542910 0.544340
0.247927 0.542918 0.544365
0.259275 0.543029 0.544678
0.302660 0.543478 0.546026
0.392753 0.544386 0.549406
0.552233 0.545009 0.555075
0.773733 0.546721 0.564188
0.929460 0.554739 0.579920
0.971103 0.560339 0.589292
0.267972 0.764991 0.549868
0.268742 0.765007 0.549886
0.278438 0.765218 0.550118
0.316590 0.766106 0.551104
0.400072 0.768161 0.553493
0.554510 0.770805 0.557310
0.776214 0.771697 0.565948
0.932991 0.774312 0.586535
0.974819 0.777309 0.598907
0.306078 0.925794 0.566869
0.306698 0.925805 0.566884
0.314556 0.925945 0.567078
0.346589 0.926552 0.567906
0.420128 0.928509 0.568717
0.566500 0.931557 0.569209
0.781230 0.932684 0.580481
0.935994 0.934021 0.594086
0.978702 0.934635 0.609336
0.326954 0.970419 0.579243
0.327509 0.970431 0.579256
0.334568 0.970574 0.579417
0.363869 0.971198 0.580096
0.435563 0.972814 0.581690
0.578214 0.976350 0.580855
0.787215 0.977871 0.593271
0.937534 0.979657 0.607807
0.980559 0.980559 0.615099
0.256749 0.228228 0.754861
0.257610 0.228244 0.754880
0.268386 0.228458 0.755120
0.309915 0.229396 0.756180
0.397305 0.231889 0.759052
0.552403 0.236648 0.764752
0.770254 0.243466 0.773462
0.923609 0.270710 0.776236
0.962457 0.283633 0.779720
0.256771 0.229257 0.754896
0.257632 0.229274 0.754915
0.268407 0.229486 0.755155
0.309934 0.230417 0.756215
0.397323 0.232892 0.759085
0.552429 0.237617 0.764783
0.770281 0.244389 0.773489
0.923630 0.271488 0.776265
0.962477 0.284353 0.779751
0.257058 0.242020 0.755345
0.257918 0.242035 0.755364
0.268683 0.242229 0.755603
0.310180 0.243080 0.756657
0.397555 0.245344 0.759513
0.552758 0.249675 0.765180
0.770629 0.255897 0.773839
0.923894 0.281267 0.776645
0.962734 0.293435 0.780151
0.258466 0.289742 0.756488
0.259313 0.289749 0.756526
0.269930 0.289840 0.757011
0.311161 0.290340 0.758548
0.398500 0.291982 0.761336
0.554128 0.295137 0.766868
0.772097 0.299695 0.775315
0.925030 0.319648 0.778270
0.963847 0.329558 0.781866
0.262441 0.384176 0.758519
0.263266 0.384183 0.758555
0.273607 0.384272 0.759018
0.313867 0.384626 0.761029
0.400426 0.385361 0.765760
0.557177 0.387178 0.770916
0.775541 0.389798 0.778780
0.927870 0.403264 0.782277
0.966715 0.410405 0.786115
0.270416 0.542408 0.762082
0.271195 0.542420 0.762115
0.280985 0.542568 0.762534
0.319483 0.543176 0.764350
0.403767 0.544474 0.768981
0.560463 0.545697 0.776618
0.780101 0.547082 0.783382
0.933147 0.555740 0.788787
0.971758 0.562453 0.792822
0.283731 0.765751 0.767406
0.284450 0.765763 0.767429
0.293516 0.765922 0.767732
0.329571 0.766612 0.769060
0.409714 0.768555 0.772769
0.563239 0.771001 0.778841
0.782207 0.771970 0.785537
0.937763 0.773791 0.793203
0.977930 0.776258 0.798385
0.318114 0.926842 0.774547
0.318700 0.926852 0.774567
0.326155 0.926983 0.774822
0.356847 0.927547 0.775927
0.430696 0.928969 0.778743
0.577397 0.931649 0.783260
0.784856 0.934102 0.788104
0.939278 0.934749 0.796127
0.980499 0.935159 0.802857
0.338360 0.971488 0.781004
0.338889 0.971499 0.781022
0.345646 0.971635 0.781252
0.373933 0.972228 0.782245
0.444559 0.973761 0.784758
0.589797 0.976553 0.788840
0.789249 0.979989 0.792423
0.940217 0.981065 0.801230
0.981585 0.981585 0.805650
0.277148 0.238091 0.913112
0.277903 0.238116 0.913124
0.287409 0.238440 0.913273
0.324894 0.239860 0.913927
0.407279 0.243662 0.915686
0.558940 0.251039 0.919123
0.770512 0.261954 0.924259
0.928298 0.273777 0.929868
0.963493 0.288534 0.929609
0.277180 0.239046 0.913142
0.277935 0.239071 0.913153
0.287440 0.239392 0.913302
0.324922 0.240803 0.913956
0.407304 0.244582 0.915714
0.558974 0.251914 0.919151
0.770547 0.262768 0.924284
0.928321 0.274529 0.929890
0.963513 0.289234 0.929629
0.277588 0.250923 0.913522
0.278342 0.250946 0.913533
0.287834 0.251243 0.913681
0.325274 0.252548 0.914332
0.407632 0.256047 0.916081
0.559414 0.262855 0.919499
0.770992 0.272975 0.924605
0.928614 0.283990 0.930181
0.963763 0.298074 0.929887
0.279489 0.296002 0.914724
0.280227 0.296012 0.914754
0.289530 0.296135 0.915140
0.326725 0.297041 0.915956
0.409000 0.299692 0.917663
0.561271 0.304889 0.920999
0.772895 0.312704 0.925983
0.929866 0.321323 0.931426
0.964846 0.333406 0.930994
0.285410 0.387703 0.916097
0.286120 0.387712 0.916126
0.295088 0.387829 0.916507
0.330905 0.388299 0.918158
0.412044 0.389488 0.921653
0.565626 0.392807 0.924763
0.777530 0.397840 0.929411
0.932945 0.403440 0.934489
0.967654 0.413230 0.933792
0.297066 0.543799 0.918875
0.297734 0.543813 0.918897
0.306178 0.543994 0.919182
0.340250 0.544756 0.920419
0.418241 0.546470 0.924412
0.571222 0.548360 0.930870
0.784353 0.551785 0.934857
0.937492 0.555869 0.939023
0.973347 0.563121 0.939022
0.313638 0.764595 0.923601
0.314247 0.764610 0.923619
0.321978 0.764794 0.923855
0.353652 0.765586 0.924880
0.429160 0.767536 0.927539
0.578538 0.770733 0.933151
0.788938 0.772631 0.939297
0.941020 0.774325 0.942551
0.978768 0.776785 0.943566
0.331271 0.927984 0.928796
0.331826 0.927994 0.928810
0.338905 0.928112 0.928995
0.368350 0.928622 0.929798
0.440905 0.929904 0.931873
0.589370 0.932022 0.935580
0.792245 0.934266 0.940352
0.942483 0.934974 0.944036
0.981752 0.935192 0.945578
0.350785 0.972694 0.930523
0.351291 0.972704 0.930537
0.357761 0.972833 0.930709
0.385093 0.973391 0.931458
0.454790 0.974828 0.933390
0.600492 0.977340 0.936815
0.796825 0.980335 0.941046
0.942786 0.982001 0.944322
0.982156 0.982156 0.945894
0.287608 0.244594 0.955084
0.288316 0.244623 0.955089
0.297244 0.244994 0.955152
0.332834 0.246620 0.955430
0.412771 0.250974 0.956186
0.562633 0.259405 0.957703
0.770894 0.271829 0.960065
0.927186 0.285175 0.962780
0.963905 0.290445 0.963905
0.287645 0.245505 0.955110
0.288353 0.245534 0.955115
0.297279 0.245902 0.955178
0.332866 0.247520 0.955456
0.412801 0.251848 0.956212
0.562672 0.260233 0.957729
0.770932 0.272593 0.960090
0.927212 0.285876 0.962805
0.963929 0.291123 0.963929
0.288115 0.256866 0.955447
0.288821 0.256893 0.955452
0.297732 0.257235 0.955515
0.333274 0.258740 0.955793
0.413182 0.262770 0.956548
0.563168 0.270603 0.958061
0.771424 0.282197 0.960416
0.927534 0.294719 0.963119
0.964237 0.299681 0.964237
0.290230 0.300334 0.956645
0.290919 0.300344 0.956668
0.299622 0.300475 0.956970
0.334971 0.301619 0.957269
0.414780 0.304734 0.958017
0.565276 0.310838 0.959513
0.773530 0.319990 0.961832
0.928917 0.330021 0.964480
0.965572 0.334034 0.965572
0.296870 0.390315 0.957994
0.297536 0.390327 0.958012
0.305964 0.390474 0.958241
0.339922 0.391060 0.959323
0.418442 0.392476 0.961891
0.570312 0.396531 0.963316
0.778729 0.402682 0.965504
0.932345 0.409508 0.967970
0.968975 0.412259 0.968975
0.309486 0.545358 0.960890
0.310108 0.545373 0.960907
0.317996 0.545569 0.961115
0.350198 0.546399 0.962026
0.426302 0.548360 0.964511
0.577160 0.550529 0.970115
0.786643 0.554998 0.971919
0.937513 0.560343 0.973573
0.974145 0.562816 0.974145
0.327844 0.764601 0.965407
0.328410 0.764617 0.965421
0.335612 0.764814 0.965598
0.365488 0.765663 0.966371
0.438666 0.767763 0.968393
0.587174 0.771108 0.972573
0.792565 0.773412 0.978023
0.941870 0.775863 0.978718
0.979050 0.776976 0.979050
0.347367 0.927357 0.970623
0.347883 0.927367 0.970634
0.354478 0.927493 0.970776
0.382265 0.928037 0.971392
0.452719 0.929407 0.972990
0.599589 0.931688 0.975835
0.797510 0.934130 0.979513
0.943905 0.935079 0.981671
0.981812 0.935254 0.981812
0.356754 0.973288 0.973288
0.357250 0.973297 0.973297
0.363595 0.973422 0.973422
0.390513 0.973959 0.973959
0.459831 0.975341 0.975341
0.605473 0.977745 0.977745
0.800419 0.980525 0.980525
0.944242 0.982064 0.982064
0.982207 0.982207 0.982207
