app/src/main/assets/luts/film_soft.cube
# V-Cam procedural LUT — film_soft
# Generated by LutBaker. Do not edit by hand.
TITLE "V-Cam film_soft"
LUT_3D_SIZE 33
DOMAIN_MIN 0.0 0.0 0.0
DOMAIN_MAX 1.0 1.0 1.0
0.123418 0.123418 0.123418
0.128149 0.123418 0.123418
0.133464 0.123419 0.123419
0.141013 0.123420 0.123420
0.151025 0.123424 0.123424
0.163600 0.123432 0.123432
0.178790 0.123449 0.123449
0.196604 0.123478 0.123478
0.217018 0.123530 0.123530
0.239977 0.123619 0.123619
0.265399 0.123764 0.123764
0.293180 0.123995 0.123995
0.323193 0.124353 0.124353
0.355290 0.124894 0.124894
0.389303 0.125692 0.125692
0.425041 0.126843 0.126843
0.462290 0.128463 0.128463
0.500810 0.130693 0.130693
0.540332 0.133698 0.133698
0.580555 0.137658 0.137658
0.621141 0.142770 0.142770
0.661706 0.149231 0.149231
0.701818 0.157227 0.157227
0.741092 0.166646 0.166646
0.779346 0.176644 0.176644
0.815872 0.187502 0.187502
0.850109 0.198880 0.198880
0.881427 0.210333 0.210333
0.909099 0.221301 0.221301
0.932270 0.231107 0.231107
0.949896 0.238953 0.238953
0.960646 0.243904 0.243904
0.963157 0.245078 0.245078
0.123418 0.128149 0.123418
0.128150 0.128150 0.123418
0.133464 0.128150 0.123419
0.141014 0.128151 0.123421
0.151027 0.128154 0.123426
0.163603 0.128162 0.123435
0.178793 0.128176 0.123453
0.196608 0.128204 0.123484
0.217023 0.128253 0.123539
0.239982 0.128336 0.123630
0.265405 0.128473 0.123778
0.293187 0.128693 0.124013
0.323201 0.129035 0.124375
0.355300 0.129553 0.124922
0.389314 0.130318 0.125727
0.425054 0.131423 0.126885
0.462304 0.132981 0.128513
0.500825 0.135129 0.130752
0.540348 0.138029 0.133766
0.580573 0.141858 0.137736
0.621161 0.146811 0.142858
0.661727 0.153087 0.149331
0.701841 0.160873 0.157339
0.741114 0.170075 0.166775
0.779369 0.179860 0.176782
0.815896 0.190510 0.187646
0.850134 0.201695 0.199030
0.881453 0.212972 0.210487
0.909126 0.223788 0.221458
0.932298 0.233470 0.231266
0.949924 0.241223 0.239113
0.960675 0.246119 0.244065
0.963187 0.247281 0.245240
0.123419 0.133464 0.123419
0.128150 0.133464 0.123420
0.133465 0.133465 0.123420
0.141015 0.133466 0.123423
0.151029 0.133468 0.123428
0.163605 0.133474 0.123439
0.178796 0.133487 0.123458
0.196612 0.133512 0.123491
0.217028 0.133558 0.123548
0.239989 0.133636 0.123642
0.265413 0.133765 0.123794
0.293196 0.133973 0.124034
0.323211 0.134297 0.124402
0.355312 0.134790 0.124955
0.389327 0.135521 0.125767
0.425068 0.136577 0.126933
0.462320 0.138069 0.128571
0.500842 0.140131 0.130820
0.540368 0.142918 0.133845
0.580595 0.146607 0.137827
0.621184 0.151390 0.142962
0.661752 0.157465 0.149447
0.701867 0.165023 0.157469
0.741139 0.173987 0.166926
0.779395 0.183538 0.176942
0.815924 0.193959 0.187814
0.850164 0.204926 0.199204
0.881484 0.216007 0.210666
0.909158 0.226652 0.221641
0.932331 0.236194 0.231452
0.949958 0.243843 0.239300
0.960709 0.248676 0.244253
0.963221 0.249824 0.245428
0.123423 0.141015 0.123423
0.128153 0.141015 0.123423
0.133467 0.141016 0.123424
0.141017 0.141017 0.123425
0.151031 0.141019 0.123432
0.163609 0.141023 0.123444
0.178802 0.141034 0.123465
0.196619 0.141056 0.123501
0.217036 0.141097 0.123562
0.239998 0.141167 0.123661
0.265424 0.141286 0.123819
0.293209 0.141478 0.124065
0.323226 0.141780 0.124441
0.355329 0.142240 0.125004
0.389346 0.142924 0.125827
0.425090 0.143916 0.127005
0.462343 0.145322 0.128657
0.500869 0.147268 0.130921
0.540397 0.149906 0.133963
0.580626 0.153408 0.137963
0.621218 0.157961 0.143116
0.661789 0.163765 0.149621
0.701907 0.171011 0.157663
0.741177 0.179649 0.167151
0.779435 0.188876 0.177181
0.815966 0.198977 0.188064
0.850208 0.209640 0.199464
0.881530 0.220443 0.210933
0.909206 0.230846 0.221913
0.932380 0.240189 0.231728
0.950008 0.247689 0.239579
0.960760 0.252433 0.244534
0.963272 0.253559 0.245709
0.123430 0.151030 0.123430
0.128159 0.151031 0.123431
0.133472 0.151032 0.123432
0.141021 0.151033 0.123434
0.151035 0.151035 0.123436
0.163615 0.151038 0.123451
0.178809 0.151047 0.123475
0.196628 0.151065 0.123516
0.217047 0.151099 0.123582
0.240012 0.151161 0.123687
0.265440 0.151267 0.123853
0.293228 0.151440 0.124109
0.323248 0.151714 0.124497
0.355353 0.152135 0.125073
0.389373 0.152763 0.125911
0.425120 0.153678 0.127107
0.462377 0.154978 0.128778
0.500906 0.156785 0.131064
0.540437 0.159241 0.134129
0.580670 0.162513 0.138153
0.621266 0.166785 0.143332
0.661841 0.172251 0.149865
0.701963 0.179108 0.157936
0.741230 0.187335 0.167468
0.779491 0.196148 0.177517
0.816025 0.205836 0.188417
0.850270 0.216104 0.199830
0.881594 0.226543 0.211309
0.909273 0.236626 0.222297
0.932449 0.245705 0.232118
0.950079 0.253007 0.239973
0.960832 0.257631 0.244929
0.963343 0.258730 0.246105
0.123446 0.163611 0.123446
0.128174 0.163612 0.123448
0.133484 0.163613 0.123450
0.141031 0.163615 0.123452
0.151042 0.163618 0.123456
0.163622 0.163622 0.123461
0.178819 0.163627 0.123489
0.196640 0.163641 0.123536
0.217063 0.163669 0.123608
0.240030 0.163721 0.123723
0.265462 0.163812 0.123899
0.293253 0.163964 0.124168
0.323276 0.164207 0.124571
0.355385 0.164584 0.125165
0.389410 0.165149 0.126025
0.425160 0.165977 0.127245
0.462422 0.167159 0.128942
0.500956 0.168809 0.131257
0.540492 0.171061 0.134352
0.580731 0.174072 0.138410
0.621331 0.178021 0.143625
0.661912 0.183099 0.150194
0.702039 0.189502 0.158304
0.741302 0.197245 0.167897
0.779567 0.205564 0.177973
0.816105 0.214755 0.188895
0.850354 0.224542 0.200325
0.881682 0.234534 0.211819
0.909363 0.244220 0.222817
0.932543 0.252968 0.232645
0.950174 0.260021 0.240505
0.960929 0.264494 0.245464
0.963441 0.265558 0.246640
0.123478 0.178810 0.123478
0.128202 0.178812 0.123480
0.133510 0.178814 0.123482
0.141053 0.178816 0.123486
0.151060 0.178820 0.123491
0.163634 0.178825 0.123499
0.178831 0.178831 0.123508
0.196657 0.178840 0.123561
0.217083 0.178861 0.123643
0.240054 0.178902 0.123769
0.265490 0.178978 0.123960
0.293285 0.179107 0.124246
0.323314 0.179318 0.124669
0.355428 0.179647 0.125287
0.389458 0.180147 0.126174
0.425214 0.180883 0.127425
0.462482 0.181940 0.129157
0.501022 0.183423 0.131510
0.540565 0.185457 0.134646
0.580810 0.188189 0.138748
0.621418 0.191790 0.144009
0.662005 0.196445 0.150627
0.702139 0.202348 0.158788
0.741397 0.209551 0.168462
0.779668 0.217314 0.178573
0.816211 0.225937 0.189523
0.850465 0.235167 0.200978
0.881798 0.244636 0.212489
0.909484 0.253854 0.223501
0.932666 0.262208 0.233339
0.950301 0.268962 0.241205
0.961057 0.273254 0.246168
0.963569 0.274276 0.247345
0.123536 0.196641 0.123536
0.128256 0.196642 0.123539
0.133560 0.196645 0.123542
0.141097 0.196648 0.123547
0.151096 0.196653 0.123555
0.163663 0.196659 0.123564
0.178851 0.196667 0.123577
0.196678 0.196678 0.123594
0.217108 0.196691 0.123688
0.240085 0.196722 0.123829
0.265526 0.196782 0.124038
0.293328 0.196888 0.124346
0.323362 0.197065 0.124795
0.355483 0.197347 0.125444
0.389520 0.197779 0.126366
0.425283 0.198423 0.127656
0.462559 0.199353 0.129433
0.501107 0.200666 0.131834
0.540659 0.202478 0.135023
0.580913 0.204925 0.139181
0.621530 0.208167 0.144501
0.662126 0.212381 0.151182
0.702269 0.217758 0.159409
0.741521 0.224389 0.169191
0.779798 0.231552 0.179346
0.816348 0.239554 0.190334
0.850609 0.248168 0.201819
0.881948 0.257051 0.213354
0.909639 0.265739 0.224384
0.932826 0.273644 0.234235
0.950465 0.280054 0.242110
0.961223 0.284136 0.247077
0.963736 0.285109 0.248255
0.123637 0.217079 0.123637
0.128351 0.217081 0.123641
0.133648 0.217084 0.123646
0.141176 0.217088 0.123653
0.151166 0.217094 0.123662
0.163720 0.217101 0.123676
0.178896 0.217111 0.123694
0.196709 0.217124 0.123716
0.217141 0.217141 0.123745
0.240124 0.217161 0.123904
0.265572 0.217205 0.124136
0.293381 0.217288 0.124472
0.323423 0.217432 0.124955
0.355552 0.217667 0.125642
0.389598 0.218034 0.126608
0.425371 0.218586 0.127949
0.462657 0.219393 0.129781
0.501215 0.220540 0.132244
0.540778 0.222133 0.135499
0.581043 0.224297 0.139728
0.621672 0.227182 0.145123
0.662280 0.230956 0.151883
0.702435 0.235800 0.160193
0.741678 0.241847 0.170116
0.779965 0.248387 0.180328
0.816523 0.255738 0.191363
0.850792 0.263696 0.202886
0.882139 0.271947 0.214452
0.909837 0.280057 0.225504
0.933031 0.287467 0.235372
0.950673 0.293496 0.243258
0.961435 0.297344 0.248231
0.963948 0.298261 0.249411
0.123807 0.240074 0.123807
0.128513 0.240077 0.123813
0.133800 0.240080 0.123819
0.141315 0.240085 0.123828
0.151288 0.240092 0.123841
0.163825 0.240101 0.123859
0.178982 0.240113 0.123882
0.196775 0.240128 0.123912
0.217187 0.240148 0.123951
0.240173 0.240173 0.123998
0.265630 0.240201 0.124259
0.293448 0.240262 0.124629
0.323500 0.240375 0.125152
0.355639 0.240565 0.125887
0.389696 0.240869 0.126908
0.425481 0.241334 0.128311
0.462779 0.242022 0.130213
0.501351 0.243010 0.132752
0.540927 0.244394 0.136089
0.581207 0.246287 0.140406
0.621851 0.248827 0.145895
0.662474 0.252171 0.152753
0.702644 0.256492 0.161168
0.741876 0.261961 0.171272
0.780174 0.267877 0.181555
0.816743 0.274566 0.192650
0.851023 0.281850 0.204221
0.882379 0.289444 0.215824
0.910087 0.296944 0.226906
0.933288 0.303827 0.236794
0.950936 0.309447 0.244694
0.961701 0.313042 0.249675
0.964215 0.313900 0.250856
0.124085 0.265549 0.124085
0.128777 0.265552 0.124092
0.134049 0.265556 0.124100
0.141545 0.265562 0.124112
0.151495 0.265570 0.124129
0.164005 0.265580 0.124152
0.179134 0.265594 0.124182
0.196898 0.265613 0.124221
0.217282 0.265636 0.124270
0.240240 0.265664 0.124332
0.265700 0.265700 0.124408
0.293529 0.265740 0.124820
0.323594 0.265822 0.125394
0.355746 0.265970 0.126187
0.389817 0.266214 0.127275
0.425616 0.266598 0.128754
0.462929 0.267175 0.130740
0.501518 0.268014 0.133372
0.541112 0.269200 0.136810
0.581410 0.270839 0.141234
0.622072 0.273053 0.146837
0.662715 0.275988 0.153817
0.702904 0.279808 0.162359
0.742150 0.284682 0.172612
0.780434 0.290027 0.183069
0.817017 0.296063 0.194237
0.851310 0.302674 0.205868
0.882678 0.309602 0.217518
0.910397 0.316481 0.228635
0.933607 0.322820 0.238549
0.951263 0.328014 0.246466
0.962032 0.331344 0.251457
0.964548 0.332141 0.252641
0.124524 0.293405 0.124524
0.129196 0.293408 0.124533
0.134447 0.293413 0.124543
0.141914 0.293419 0.124558
0.151830 0.293428 0.124580
0.164301 0.293440 0.124609
0.179389 0.293457 0.124647
0.197111 0.293477 0.124696
0.217454 0.293504 0.124759
0.240371 0.293537 0.124837
0.265794 0.293578 0.124934
0.293628 0.293628 0.125051
0.323707 0.293682 0.125684
0.355875 0.293790 0.126548
0.389962 0.293979 0.127717
0.425780 0.294287 0.129287
0.463112 0.294761 0.131374
0.501721 0.295462 0.134117
0.541337 0.296466 0.137675
0.581658 0.297868 0.142228
0.622343 0.299778 0.147969
0.663010 0.302332 0.155095
0.703223 0.305680 0.163792
0.742494 0.309984 0.174209
0.780753 0.314793 0.184913
0.817354 0.320200 0.196170
0.851662 0.326154 0.207873
0.883046 0.332429 0.219581
0.910778 0.338688 0.230742
0.933999 0.344481 0.240688
0.951664 0.349244 0.248626
0.962439 0.352306 0.253629
0.964956 0.353039 0.254815
0.125198 0.323520 0.125198
0.129840 0.323525 0.125209
0.135060 0.323530 0.125221
0.142486 0.323537 0.125240
0.152352 0.323547 0.125267
0.164768 0.323561 0.125303
0.179797 0.323579 0.125350
0.197459 0.323603 0.125412
0.217743 0.323633 0.125489
0.240603 0.323671 0.125586
0.265971 0.323717 0.125706
0.293755 0.323774 0.125852
0.323842 0.323842 0.126028
0.356028 0.323913 0.126974
0.390136 0.324052 0.128237
0.425976 0.324290 0.129915
0.463332 0.324669 0.132122
0.501965 0.325244 0.134996
0.541607 0.326081 0.138696
0.581956 0.327264 0.143402
0.622671 0.328896 0.149306
0.663368 0.331097 0.156607
0.703612 0.334007 0.165489
0.742913 0.337778 0.176103
0.781142 0.342088 0.187128
0.817763 0.346899 0.198493
0.852090 0.352227 0.210284
0.883493 0.357872 0.222061
0.911241 0.363529 0.233274
0.934477 0.368787 0.243259
0.952152 0.373124 0.251224
0.962933 0.375919 0.256241
0.965452 0.376588 0.257431
0.126202 0.355757 0.126202
0.130803 0.355762 0.126216
0.135979 0.355768 0.126231
0.143347 0.355776 0.126254
0.153143 0.355787 0.126287
0.165480 0.355803 0.126331
0.180425 0.355823 0.126388
0.198003 0.355850 0.126463
0.218203 0.355884 0.126558
0.240983 0.355926 0.126676
0.266276 0.355978 0.126823
0.293989 0.356041 0.127000
0.324010 0.356118 0.127214
0.356209 0.356209 0.127467
0.390341 0.356301 0.128841
0.426206 0.356475 0.130642
0.463590 0.356768 0.132987
0.502254 0.357227 0.136013
0.541928 0.357911 0.139879
0.582312 0.358896 0.144762
0.623063 0.360273 0.150857
0.663797 0.362150 0.158361
0.704079 0.364658 0.167462
0.743418 0.367935 0.178309
0.781609 0.371784 0.189756
0.818254 0.376041 0.201247
0.852606 0.380782 0.213143
0.884030 0.385830 0.225003
0.911797 0.390913 0.236280
0.935050 0.395656 0.246312
0.952738 0.399582 0.254309
0.963528 0.402117 0.259344
0.966048 0.402725 0.260538
0.127659 0.389957 0.127659
0.132202 0.389962 0.127675
0.137317 0.389968 0.127694
0.144604 0.389977 0.127721
0.154303 0.389990 0.127760
0.166530 0.390007 0.127813
0.181359 0.390030 0.127882
0.198819 0.390059 0.127972
0.218904 0.390097 0.128085
0.241574 0.390144 0.128227
0.266762 0.390202 0.128401
0.294379 0.390272 0.128614
0.324311 0.390357 0.128870
0.356427 0.390458 0.129172
0.390576 0.390576 0.129525
0.426472 0.390692 0.131467
0.463890 0.390907 0.133968
0.502590 0.391261 0.137166
0.542303 0.391807 0.141219
0.582728 0.392611 0.146305
0.623523 0.393755 0.152618
0.664304 0.395338 0.160357
0.704633 0.397476 0.169711
0.744020 0.400301 0.180831
0.782164 0.403727 0.192832
0.818838 0.407474 0.204472
0.853218 0.411670 0.216490
0.884668 0.416161 0.228448
0.912459 0.420705 0.239802
0.935732 0.424961 0.249889
0.953436 0.428495 0.257924
0.964235 0.430782 0.262981
0.966757 0.431332 0.264179
0.129715 0.425940 0.129715
0.134180 0.425946 0.129733
0.139213 0.425953 0.129755
0.146391 0.425963 0.129787
0.155957 0.425977 0.129833
0.168036 0.425996 0.129895
0.182707 0.426021 0.129976
0.200007 0.426053 0.130081
0.219935 0.426094 0.130214
0.242454 0.426146 0.130381
0.267501 0.426210 0.130586
0.294987 0.426288 0.130835
0.324798 0.426381 0.131134
0.356804 0.426493 0.131489
0.390853 0.426623 0.131902
0.426774 0.426774 0.132378
0.464231 0.426917 0.135052
0.502974 0.427176 0.138440
0.542733 0.427597 0.142701
0.583208 0.428237 0.148013
0.624057 0.429169 0.154571
0.664894 0.430483 0.162577
0.705282 0.432285 0.172220
0.744728 0.434694 0.183654
0.782817 0.437733 0.196387
0.819526 0.441013 0.208198
0.853938 0.444709 0.220358
0.885418 0.448686 0.232431
0.913237 0.452728 0.243873
0.936534 0.456530 0.254026
0.954256 0.459697 0.262107
0.965066 0.461751 0.267189
0.967591 0.462245 0.268393
0.132534 0.463509 0.132534
0.136899 0.463515 0.132556
0.141824 0.463522 0.132581
0.148858 0.463533 0.132618
0.158250 0.463549 0.132671
0.170133 0.463569 0.132742
0.184595 0.463597 0.132836
0.201682 0.463632 0.132956
0.221401 0.463677 0.133109
0.243720 0.463734 0.133301
0.268579 0.463803 0.133537
0.295890 0.463889 0.133824
0.325541 0.463991 0.134168
0.357401 0.464113 0.134575
0.391317 0.464256 0.135050
0.427118 0.464422 0.135597
0.464611 0.464611 0.136215
0.503403 0.464784 0.139808
0.543218 0.465090 0.144294
0.583752 0.465582 0.149853
0.624665 0.466322 0.156681
0.665570 0.467391 0.164983
0.706030 0.468885 0.174951
0.745551 0.470913 0.186740
0.783580 0.473592 0.200420
0.820325 0.476450 0.212446
0.854775 0.479690 0.224769
0.886292 0.483196 0.236973
0.914143 0.486776 0.248518
0.937466 0.490158 0.258749
0.955209 0.492983 0.266882
0.966032 0.494820 0.271995
0.968561 0.495262 0.273206
0.136298 0.502441 0.136298
0.140534 0.502448 0.136322
0.145323 0.502456 0.136350
0.152175 0.502468 0.136392
0.161344 0.502484 0.136452
0.172975 0.502507 0.136532
0.187167 0.502537 0.136637
0.203979 0.502575 0.136774
0.223425 0.502624 0.136947
0.245483 0.502686 0.137163
0.270096 0.502761 0.137429
0.297179 0.502854 0.137752
0.326622 0.502966 0.138141
0.358291 0.503098 0.138600
0.392034 0.503254 0.139136
0.427678 0.503435 0.139751
0.465029 0.503641 0.140448
0.503873 0.503873 0.141224
0.543751 0.504078 0.145947
0.584356 0.504434 0.151767
0.625345 0.505001 0.158885
0.666333 0.505847 0.167509
0.706879 0.507059 0.177836
0.746491 0.508738 0.190023
0.784613 0.510991 0.204139
0.821244 0.513551 0.217225
0.855739 0.516376 0.229732
0.887296 0.519452 0.242085
0.915184 0.522611 0.253748
0.938539 0.525607 0.264068
0.956306 0.528118 0.272263
0.967144 0.529755 0.277411
0.969676 0.530149 0.278629
0.141185 0.542491 0.141185
0.145266 0.542498 0.141212
0.149888 0.542507 0.141243
0.156517 0.542520 0.141290
0.165410 0.542538 0.141356
0.176727 0.542562 0.141445
0.190581 0.542595 0.141562
0.207044 0.542636 0.141712
0.226145 0.542689 0.141904
0.247869 0.542755 0.142143
0.272168 0.542838 0.142438
0.298959 0.542938 0.142797
0.328133 0.543058 0.143227
0.359558 0.543202 0.143735
0.393080 0.543371 0.144328
0.428523 0.543567 0.145010
0.465693 0.543791 0.145781
0.504373 0.544043 0.146640
0.544324 0.544324 0.147581
0.585010 0.544560 0.153670
0.626089 0.544967 0.161091
0.667174 0.545610 0.170058
0.707826 0.546565 0.180775
0.747547 0.547924 0.193400
0.785783 0.549785 0.208001
0.822290 0.552058 0.222530
0.856835 0.554507 0.235242
0.888438 0.557193 0.247763
0.916368 0.559967 0.259559
0.939759 0.562611 0.269979
0.957553 0.564835 0.278245
0.968409 0.566288 0.283433
0.970944 0.566638 0.284661
0.147369 0.583385 0.147369
0.151268 0.583393 0.147398
0.155693 0.583402 0.147432
0.162055 0.583416 0.147483
0.170620 0.583435 0.147555
0.181557 0.583462 0.147652
0.194999 0.583496 0.147779
0.211035 0.583541 0.147943
0.229708 0.583598 0.148152
0.251018 0.583670 0.148412
0.274923 0.583758 0.148734
0.301347 0.583866 0.149124
0.330184 0.583996 0.149593
0.361300 0.584151 0.150147
0.394542 0.584333 0.150793
0.429732 0.584544 0.151536
0.466673 0.584787 0.152377
0.505147 0.585060 0.153313
0.544911 0.585364 0.154340
0.585697 0.585697 0.155445
0.626881 0.585963 0.163172
0.668081 0.586421 0.172496
0.708857 0.587140 0.183627
0.748711 0.588204 0.196727
0.787086 0.589704 0.211863
0.823466 0.591688 0.228339
0.858066 0.593797 0.241276
0.889722 0.596129 0.253984
0.917699 0.598554 0.265928
0.941130 0.600877 0.276462
0.958956 0.602839 0.284806
0.969830 0.604124 0.290040
0.972370 0.604434 0.291279
0.155004 0.624816 0.155004
0.158696 0.624825 0.155035
0.162897 0.624835 0.155072
0.168955 0.624849 0.155126
0.177138 0.624870 0.155203
0.187633 0.624898 0.155307
0.200588 0.624936 0.155444
0.216114 0.624984 0.155620
0.234272 0.625045 0.155844
0.255077 0.625121 0.156124
0.278501 0.625216 0.156469
0.304473 0.625332 0.156889
0.332892 0.625471 0.157392
0.363626 0.625638 0.157988
0.396520 0.625834 0.158683
0.431394 0.626061 0.159482
0.468051 0.626322 0.160388
0.506267 0.626617 0.161398
0.545799 0.626945 0.162505
0.586376 0.627307 0.163700
0.627697 0.627697 0.164964
0.669030 0.627988 0.174647
0.709952 0.628492 0.186208
0.749964 0.629285 0.199815
0.788505 0.630450 0.215534
0.824958 0.632072 0.233260
0.859434 0.633929 0.247796
0.891148 0.635941 0.260706
0.919178 0.638049 0.272814
0.942653 0.640082 0.283473
0.960513 0.641805 0.291906
0.971408 0.642938 0.297191
0.973954 0.643211 0.298441
0.164220 0.666441 0.164220
0.167687 0.666450 0.164253
0.171641 0.666460 0.164292
0.177361 0.666476 0.164350
0.185118 0.666498 0.164432
0.195111 0.666528 0.164542
0.207510 0.666568 0.164688
0.222444 0.666619 0.164875
0.239997 0.666684 0.165113
0.260204 0.666766 0.165411
0.283050 0.666867 0.165778
0.308477 0.666991 0.166224
0.336388 0.667140 0.166760
0.366656 0.667319 0.167395
0.399124 0.667529 0.168136
0.433611 0.667773 0.168990
0.469917 0.668053 0.169957
0.507817 0.668370 0.171038
0.547063 0.668724 0.172226
0.587381 0.669114 0.173509
0.628468 0.669537 0.174872
0.669988 0.669988 0.176290
0.711080 0.670298 0.188288
0.751275 0.670841 0.202429
0.790013 0.671698 0.218773
0.826670 0.672946 0.237205
0.860934 0.674556 0.254740
0.892712 0.676278 0.267870
0.920798 0.678101 0.280155
0.944323 0.679869 0.290950
0.962221 0.681377 0.299480
0.973139 0.682371 0.304821
0.975690 0.682612 0.306084
0.175122 0.707869 0.175122
0.178351 0.707878 0.175157
0.182043 0.707890 0.175198
0.187400 0.707906 0.175260
0.194694 0.707930 0.175346
0.204137 0.707962 0.175463
0.215915 0.708004 0.175616
0.230181 0.708059 0.175815
0.247043 0.708128 0.176066
0.266557 0.708215 0.176381
0.288727 0.708323 0.176769
0.313509 0.708455 0.177242
0.340816 0.708614 0.177810
0.370523 0.708805 0.178484
0.402477 0.709029 0.179271
0.436497 0.709290 0.180179
0.472378 0.709591 0.181210
0.509892 0.709931 0.182365
0.548788 0.710312 0.183637
0.588790 0.710733 0.185015
0.629591 0.711190 0.186483
0.670852 0.711679 0.188020
0.712194 0.712194 0.189596
0.752602 0.712512 0.204288
0.791567 0.713083 0.221299
0.828464 0.713986 0.240495
0.862619 0.715282 0.261478
0.894403 0.716753 0.275393
0.922552 0.718316 0.287866
0.946128 0.719847 0.298808
0.964067 0.721160 0.307443
0.975011 0.722028 0.312845
0.977567 0.722239 0.314122
0.187780 0.748660 0.187780
0.190764 0.748670 0.187817
0.194185 0.748682 0.187860
0.199164 0.748700 0.187925
0.205973 0.748725 0.188016
0.214829 0.748759 0.188139
0.225936 0.748804 0.188302
0.239470 0.748862 0.188511
0.255561 0.748936 0.188777
0.274292 0.749028 0.189110
0.295688 0.749143 0.189521
0.319723 0.749283 0.190022
0.346322 0.749453 0.190624
0.375369 0.749655 0.191339
0.406714 0.749895 0.192177
0.440175 0.750174 0.193144
0.475546 0.750495 0.194245
0.512596 0.750859 0.195481
0.551072 0.751269 0.196847
0.590692 0.751721 0.198333
0.631146 0.752215 0.199924
0.672092 0.752745 0.201597
0.713148 0.753305 0.203325
0.753886 0.753886 0.205074
0.793111 0.754199 0.222789
0.830240 0.754775 0.243465
0.864667 0.755700 0.265313
0.896205 0.756931 0.283171
0.924419 0.758261 0.295843
0.948052 0.759577 0.306939
0.966034 0.760715 0.315686
0.977005 0.761470 0.321153
0.979567 0.761654 0.322445
0.202209 0.788314 0.202209
0.204950 0.788325 0.202248
0.208099 0.788338 0.202294
0.212697 0.788357 0.202363
0.219008 0.788383 0.202459
0.227257 0.788419 0.202590
0.237660 0.788467 0.202762
0.250412 0.788528 0.202984
0.265668 0.788606 0.203266
0.283536 0.788704 0.203620
0.304067 0.788826 0.204056
0.327257 0.788975 0.204589
0.353046 0.789155 0.205230
0.381330 0.789370 0.205993
0.411964 0.789625 0.206887
0.444769 0.789922 0.207922
0.479539 0.790265 0.209104
0.516040 0.790655 0.210435
0.554015 0.791094 0.211911
0.593179 0.791580 0.213525
0.633218 0.792112 0.215261
0.673786 0.792685 0.217097
0.714498 0.793293 0.219007
0.754914 0.793886 0.222106
0.794489 0.794489 0.226125
0.831883 0.794793 0.247545
0.866634 0.795405 0.269402
0.898116 0.796326 0.290800
0.926375 0.797447 0.303955
0.950067 0.798571 0.315212
0.968094 0.799550 0.324074
0.979093 0.800204 0.329609
0.981662 0.800364 0.330917
0.218330 0.826265 0.218330
0.220835 0.826277 0.218372
0.223720 0.826290 0.218421
0.227943 0.826310 0.218494
0.233761 0.826338 0.218596
0.241400 0.826376 0.218736
0.251086 0.826426 0.218919
0.263028 0.826491 0.219156
0.277406 0.826573 0.219457
0.294351 0.826677 0.219834
0.313944 0.826806 0.220301
0.336201 0.826964 0.220870
0.361086 0.827155 0.221557
0.388508 0.827383 0.222375
0.418331 0.827654 0.223336
0.450383 0.827970 0.224451
0.484457 0.828335 0.225728
0.520320 0.828751 0.227170
0.557710 0.829220 0.228777
0.596340 0.829742 0.230540
0.635890 0.830314 0.232446
0.676090 0.830849 0.235798
0.716413 0.831431 0.239545
0.756416 0.832064 0.243534
0.795613 0.832743 0.247708
0.833456 0.833456 0.251991
0.868500 0.833812 0.273812
0.900293 0.834442 0.295071
0.928383 0.835319 0.312048
0.952135 0.836271 0.323468
0.970209 0.837110 0.332448
0.981236 0.837674 0.338053
0.983813 0.837812 0.339376
0.235900 0.861874 0.235900
0.238183 0.861886 0.235945
0.240818 0.861900 0.235997
0.244684 0.861921 0.236075
0.250029 0.861951 0.236185
0.257076 0.861991 0.236334
0.266055 0.862044 0.236531
0.277188 0.862112 0.236784
0.290672 0.862199 0.237107
0.306665 0.862309 0.237512
0.325271 0.862445 0.238013
0.346534 0.862611 0.238625
0.370441 0.862813 0.239365
0.396918 0.863055 0.240246
0.425844 0.863341 0.241284
0.457054 0.863677 0.242492
0.490345 0.864065 0.243878
0.525484 0.864508 0.245448
0.562356 0.864934 0.247990
0.600492 0.865409 0.250928
0.639549 0.865943 0.254181
0.679171 0.866539 0.257737
0.718963 0.867193 0.261572
0.758489 0.867901 0.265644
