app/src/main/assets/luts/film_warm_vintage.cube
# V-Cam procedural LUT — film_warm_vintage
# Generated by LutBaker. Do not edit by hand.
TITLE "V-Cam film_warm_vintage"
LUT_3D_SIZE 5
DOMAIN_MIN 0.0 0.0 0.0
DOMAIN_MAX 1.0 1.0 1.0
0.257668 0.244239 0.315215
0.273268 0.245718 0.315696
0.433403 0.268184 0.324060
0.721613 0.357173 0.372490
0.872368 0.442691 0.433914
0.260371 0.260007 0.316051
0.275791 0.261381 0.316532
0.434930 0.282255 0.325012
0.722545 0.366871 0.373773
0.873199 0.449858 0.435323
0.299597 0.421922 0.330222
0.312541 0.422727 0.330742
0.456822 0.434338 0.338625
0.736236 0.484603 0.392251
0.885439 0.542843 0.455622
0.432152 0.725053 0.401402
0.439982 0.725519 0.401939
0.539727 0.732304 0.409675
0.785985 0.755456 0.441619
0.929331 0.780598 0.522750
0.580311 0.914481 0.516586
0.585203 0.914886 0.517217
0.651896 0.920833 0.526407
0.841058 0.942092 0.558228
0.974869 0.961166 0.585577
0.258119 0.244667 0.323959
0.273689 0.246145 0.324419
0.433658 0.268599 0.332307
0.721768 0.357552 0.378798
0.872506 0.443039 0.438633
0.260817 0.260406 0.324763
0.276210 0.261777 0.325223
0.435291 0.282568 0.333164
0.722970 0.366967 0.379792
0.873699 0.449838 0.439649
0.299999 0.422155 0.338299
0.312806 0.423016 0.338694
0.457081 0.434573 0.346271
0.736607 0.484717 0.397807
0.885893 0.542867 0.459614
0.432522 0.725159 0.407343
0.439873 0.725800 0.407352
0.539724 0.732555 0.414907
0.786177 0.755612 0.446084
0.929636 0.780705 0.525805
0.580571 0.914598 0.520293
0.584722 0.915294 0.520058
0.651586 0.921203 0.529150
0.841084 0.942342 0.560681
0.975038 0.961329 0.587835
0.265220 0.251465 0.429678
0.280134 0.252985 0.430041
0.437475 0.274757 0.435029
0.724100 0.363213 0.461535
0.874586 0.448237 0.503228
0.267980 0.266627 0.430310
0.282697 0.268016 0.430797
0.439089 0.288332 0.435737
0.725333 0.372383 0.462370
0.875828 0.454859 0.504113
0.305976 0.425643 0.439429
0.318428 0.426495 0.439812
0.460777 0.437900 0.444636
0.742329 0.486041 0.473405
0.892621 0.543061 0.516531
0.438139 0.726760 0.486154
0.445167 0.727450 0.486174
0.539657 0.736138 0.487300
0.788894 0.757814 0.509510
0.934132 0.782215 0.570530
0.584470 0.916365 0.572525
0.588655 0.917018 0.572492
0.647036 0.926484 0.570598
0.841426 0.945929 0.597843
0.977481 0.963680 0.622001
0.297351 0.282878 0.664883
0.309784 0.284494 0.665195
0.449498 0.307052 0.669722
0.734932 0.381698 0.681565
0.882644 0.467849 0.689404
0.300246 0.295783 0.665414
0.312418 0.297182 0.666099
0.451273 0.318574 0.670571
0.736137 0.390202 0.682304
0.883842 0.474053 0.690210
0.339796 0.439320 0.672942
0.350136 0.440235 0.673596
0.475147 0.452549 0.681898
0.752781 0.497542 0.692098
0.900791 0.556995 0.701208
0.460681 0.733130 0.697122
0.467111 0.733780 0.697520
0.553094 0.742742 0.702727
0.796988 0.764350 0.712402
0.950007 0.786257 0.728506
0.599384 0.923218 0.734097
0.603378 0.923836 0.734318
0.659918 0.932531 0.737099
0.841907 0.957255 0.741377
0.985344 0.971157 0.754352
0.350154 0.335530 0.836391
0.359622 0.337218 0.836684
0.473948 0.361008 0.840968
0.733222 0.434864 0.856252
0.893506 0.493105 0.868731
0.353172 0.345707 0.836823
0.362275 0.347052 0.837831
0.475936 0.369970 0.842099
0.734610 0.441658 0.857307
0.894645 0.498819 0.869542
0.394515 0.466931 0.844146
0.402359 0.467936 0.845006
0.502752 0.481291 0.858223
0.753907 0.531170 0.872096
0.912798 0.573579 0.882893
0.515671 0.739025 0.870953
0.520886 0.739688 0.871593
0.592603 0.748889 0.880564
0.805412 0.773602 0.908324
0.960339 0.793577 0.913045
0.619042 0.932475 0.898615
0.622796 0.933048 0.899041
0.676246 0.941078 0.904918
0.849751 0.964371 0.920286
0.992538 0.977763 0.926131
