app/src/main/assets/luts/film_classic_cool.cube
# V-Cam procedural LUT — film_classic_cool
# Generated by LutBaker. Do not edit by hand.
TITLE "V-Cam film_classic_cool"
LUT_3D_SIZE 5
DOMAIN_MIN 0.0 0.0 0.0
DOMAIN_MAX 1.0 1.0 1.0
0.220916 0.220916 0.220916
0.235626 0.220920 0.221381
0.381618 0.221798 0.229014
0.754916 0.238681 0.265414
0.960544 0.274252 0.311752
0.220923 0.235714 0.220923
0.235632 0.235717 0.221387
0.381702 0.236432 0.229086
0.755301 0.251570 0.265615
0.960835 0.284584 0.312047
0.222568 0.382716 0.222568
0.237030 0.382744 0.223064
0.382473 0.383140 0.230397
0.758310 0.389317 0.270778
0.963283 0.407305 0.319396
0.248776 0.764448 0.248776
0.260942 0.764537 0.249277
0.393026 0.765865 0.256673
0.768553 0.770231 0.280958
0.970740 0.777264 0.347789
0.313601 0.969220 0.313601
0.322157 0.969293 0.314113
0.431015 0.970405 0.321784
0.784732 0.974508 0.348609
0.978776 0.978776 0.374640
0.221384 0.220918 0.235795
0.236054 0.220921 0.236219
0.381853 0.221821 0.243090
0.755104 0.238783 0.276552
0.960570 0.274383 0.320328
0.221391 0.235716 0.235801
0.236060 0.235719 0.236226
0.381966 0.236428 0.243140
0.755488 0.251662 0.276749
0.960861 0.284708 0.320618
0.223042 0.382728 0.237173
0.237380 0.382788 0.237542
0.382716 0.383158 0.244256
0.758692 0.389269 0.281373
0.963452 0.407201 0.327427
0.249287 0.764461 0.261086
0.260949 0.764698 0.261086
0.393088 0.766007 0.267993
0.768772 0.770292 0.290880
0.970853 0.777283 0.354828
0.313957 0.969251 0.322102
0.321735 0.969460 0.321831
0.430777 0.970559 0.329239
0.784800 0.974610 0.355350
0.978831 0.978831 0.380903
0.228604 0.221290 0.382662
0.242575 0.221346 0.382912
0.385413 0.222182 0.386697
0.758087 0.240182 0.402393
0.960967 0.276368 0.428888
0.228696 0.235981 0.382758
0.242656 0.236020 0.383045
0.385518 0.236738 0.386803
0.758490 0.252916 0.402588
0.961255 0.286577 0.429185
0.230111 0.382897 0.383564
0.243875 0.382945 0.383834
0.386280 0.383283 0.387576
0.763968 0.388605 0.404662
0.965401 0.406257 0.432930
0.256978 0.764668 0.394050
0.268128 0.764901 0.394146
0.394088 0.767931 0.395326
0.771958 0.771058 0.409630
0.972523 0.777452 0.452352
0.319319 0.969727 0.430205
0.327176 0.969886 0.430268
0.427475 0.972724 0.428606
0.785817 0.976067 0.449735
0.979616 0.979616 0.472482
0.256749 0.228228 0.754861
0.268386 0.228458 0.755120
0.397305 0.231889 0.759052
0.770254 0.243466 0.773462
0.962457 0.283633 0.779720
0.257058 0.242020 0.755345
0.268683 0.242229 0.755603
0.397555 0.245344 0.759513
0.770629 0.255897 0.773839
0.962734 0.293435 0.780151
0.262441 0.384176 0.758519
0.273607 0.384272 0.759018
0.400426 0.385361 0.765760
0.775541 0.389798 0.778780
0.966715 0.410405 0.786115
0.283731 0.765751 0.767406
0.293516 0.765922 0.767732
0.409714 0.768555 0.772769
0.782207 0.771970 0.785537
0.977930 0.776258 0.798385
0.338360 0.971488 0.781004
0.345646 0.971635 0.781252
0.444559 0.973761 0.784758
0.789249 0.979989 0.792423
0.981585 0.981585 0.805650
0.287608 0.244594 0.955084
0.297244 0.244994 0.955152
0.412771 0.250974 0.956186
0.770894 0.271829 0.960065
0.963905 0.290445 0.963905
0.288115 0.256866 0.955447
0.297732 0.257235 0.955515
0.413182 0.262770 0.956548
0.771424 0.282197 0.960416
0.964237 0.299681 0.964237
0.296870 0.390315 0.957994
0.305964 0.390474 0.958241
0.418442 0.392476 0.961891
0.778729 0.402682 0.965504
0.968975 0.412259 0.968975
0.327844 0.764601 0.965407
0.335612 0.764814 0.965598
0.438666 0.767763 0.968393
0.792565 0.773412 0.978023
0.979050 0.776976 0.979050
0.356754 0.973288 0.973288
0.363595 0.973422 0.973422
0.459831 0.975341 0.975341
0.800419 0.980525 0.980525
0.982207 0.982207 0.982207
