app/src/main/assets/luts/film_pushed_color.cube
# V-Cam procedural LUT — film_pushed_color
# Generated by LutBaker. Do not edit by hand.
TITLE "V-Cam film_pushed_color"
LUT_3D_SIZE 9
DOMAIN_MIN 0.0 0.0 0.0
DOMAIN_MAX 1.0 1.0 1.0
0.000000 0.000000 0.000000
0.092153 0.000000 0.000000
0.279598 0.000000 0.000000
0.467043 0.000000 0.000000
0.654488 0.000000 0.000000
0.841934 0.000000 0.000000
1.000000 0.000000 0.000000
1.000000 0.000000 0.000000
1.000000 0.000000 0.000000
0.000000 0.076333 0.000000
0.066178 0.062441 0.000000
0.253623 0.048548 0.000000
0.441068 0.034656 0.000000
0.628514 0.020764 0.000000
0.815959 0.006871 0.000000
1.000000 0.000000 0.000000
1.000000 0.000000 0.000000
1.000000 0.000000 0.000000
0.000000 0.242108 0.000000
0.040203 0.228216 0.000000
0.227648 0.214323 0.000000
0.415094 0.200431 0.000000
0.602539 0.186539 0.000000
0.789984 0.172647 0.000000
0.977429 0.158754 0.000000
1.000000 0.144862 0.000000
1.000000 0.130970 0.000000
0.000000 0.407883 0.000000
0.014229 0.393991 0.000000
0.201674 0.380099 0.000000
0.389119 0.366206 0.000000
0.576564 0.352314 0.000000
0.764009 0.338422 0.000000
0.951454 0.324530 0.000000
1.000000 0.310637 0.000000
1.000000 0.296745 0.000000
0.000000 0.573659 0.000000
0.000000 0.559766 0.000000
0.175699 0.545874 0.000000
0.363144 0.531982 0.000000
0.550589 0.518089 0.000000
0.738035 0.504197 0.000000
0.925480 0.490305 0.000000
1.000000 0.476413 0.000000
1.000000 0.462520 0.000000
0.000000 0.739434 0.000000
0.000000 0.725541 0.000000
0.149724 0.711649 0.000000
0.337169 0.697757 0.000000
0.524615 0.683865 0.000000
0.712060 0.669972 0.000000
0.899505 0.656080 0.000000
1.000000 0.642188 0.000000
1.000000 0.628295 0.000000
0.000000 0.905209 0.000000
0.000000 0.891317 0.000000
0.123750 0.877424 0.000000
0.311195 0.863532 0.000000
0.498640 0.849640 0.000000
0.686085 0.835748 0.000000
0.873530 0.821855 0.000000
1.000000 0.807963 0.000000
1.000000 0.794071 0.000000
0.000000 1.000000 0.000000
0.000000 1.000000 0.000000
0.097775 1.000000 0.000000
0.285220 1.000000 0.000000
0.472665 1.000000 0.000000
0.660110 1.000000 0.000000
0.847556 0.987631 0.000000
1.000000 0.973738 0.000000
1.000000 0.959846 0.000000
0.000000 1.000000 0.000000
0.000000 1.000000 0.000000
0.071800 1.000000 0.000000
0.259245 1.000000 0.000000
0.446690 1.000000 0.000000
0.634136 1.000000 0.000000
0.821581 1.000000 0.000000
1.000000 1.000000 0.000000
1.000000 1.000000 0.000000
0.000000 0.000000 0.100748
0.086856 0.000000 0.086856
0.274301 0.000000 0.072964
0.461746 0.000000 0.059071
0.649192 0.000000 0.045179
0.836637 0.000000 0.031287
1.000000 0.000000 0.017395
1.000000 0.000000 0.003502
1.000000 0.000000 0.000000
0.000000 0.071036 0.074774
0.060881 0.057144 0.060881
0.248326 0.043252 0.046989
0.435772 0.029359 0.033097
0.623217 0.015467 0.019204
0.810662 0.001575 0.005312
0.998107 0.000000 0.000000
1.000000 0.000000 0.000000
1.000000 0.000000 0.000000
0.000000 0.236811 0.048799
0.034907 0.222919 0.034907
0.222352 0.209027 0.021014
0.409797 0.195134 0.007122
0.597242 0.181242 0.000000
0.784687 0.167350 0.000000
0.972132 0.153458 0.000000
1.000000 0.139565 0.000000
1.000000 0.125673 0.000000
0.000000 0.402587 0.022824
0.008932 0.388694 0.008932
0.196377 0.374802 0.000000
0.383822 0.360910 0.000000
0.571267 0.347017 0.000000
0.758713 0.333125 0.000000
0.946158 0.319233 0.000000
1.000000 0.305341 0.000000
1.000000 0.291448 0.000000
0.000000 0.568362 0.000000
0.000000 0.554470 0.000000
0.170402 0.540577 0.000000
0.357847 0.526685 0.000000
0.545293 0.512793 0.000000
0.732738 0.498900 0.000000
0.920183 0.485008 0.000000
1.000000 0.471116 0.000000
1.000000 0.457224 0.000000
0.000000 0.734137 0.000000
0.000000 0.720245 0.000000
0.144428 0.706352 0.000000
0.331873 0.692460 0.000000
0.519318 0.678568 0.000000
0.706763 0.664676 0.000000
0.894208 0.650783 0.000000
1.000000 0.636891 0.000000
1.000000 0.622999 0.000000
0.000000 0.899912 0.000000
0.000000 0.886020 0.000000
0.118453 0.872128 0.000000
0.305898 0.858235 0.000000
0.493343 0.844343 0.000000
0.680788 0.830451 0.000000
0.868234 0.816559 0.000000
1.000000 0.802666 0.000000
1.000000 0.788774 0.000000
0.000000 1.000000 0.000000
0.000000 1.000000 0.000000
0.092478 1.000000 0.000000
0.279923 1.000000 0.000000
0.467368 1.000000 0.000000
0.654814 0.996226 0.000000
0.842259 0.982334 0.000000
1.000000 0.968442 0.000000
1.000000 0.954549 0.000000
0.000000 1.000000 0.000000
0.000000 1.000000 0.000000
0.066503 1.000000 0.000000
0.253949 1.000000 0.000000
0.441394 1.000000 0.000000
0.628839 1.000000 0.000000
0.816284 1.000000 0.000000
1.000000 1.000000 0.000000
1.000000 1.000000 0.000000
0.000000 0.000000 0.296789
0.081559 0.000000 0.282897
0.269005 0.000000 0.269005
0.456450 0.000000 0.255112
0.643895 0.000000 0.241220
0.831340 0.000000 0.227328
1.000000 0.000000 0.213435
1.000000 0.000000 0.199543
1.000000 0.000000 0.185651
0.000000 0.065739 0.270814
0.055585 0.051847 0.256922
0.243030 0.037955 0.243030
0.430475 0.024062 0.229137
0.617920 0.010170 0.215245
0.805365 0.000000 0.201353
0.992811 0.000000 0.187461
1.000000 0.000000 0.173568
1.000000 0.000000 0.159676
0.000000 0.231515 0.244840
0.029610 0.217622 0.230947
0.217055 0.203730 0.217055
0.404500 0.189838 0.203163
0.591945 0.175945 0.189270
0.779391 0.162053 0.175378
0.966836 0.148161 0.161486
1.000000 0.134269 0.147594
1.000000 0.120376 0.133701
0.000000 0.397290 0.218865
0.003635 0.383398 0.204973
0.191080 0.369505 0.191080
0.378525 0.355613 0.177188
0.565971 0.341721 0.163296
0.753416 0.327828 0.149403
0.940861 0.313936 0.135511
1.000000 0.300044 0.121619
1.000000 0.286152 0.107727
0.000000 0.563065 0.192890
0.000000 0.549173 0.178998
0.165106 0.535281 0.165106
0.352551 0.521388 0.151213
0.539996 0.507496 0.137321
0.727441 0.493604 0.123429
0.914886 0.479711 0.109536
1.000000 0.465819 0.095644
1.000000 0.451927 0.081752
0.000000 0.728840 0.166915
0.000000 0.714948 0.153023
0.139131 0.701056 0.139131
0.326576 0.687163 0.125239
0.514021 0.673271 0.111346
0.701466 0.659379 0.097454
0.888912 0.645487 0.083562
1.000000 0.631594 0.069669
1.000000 0.617702 0.055777
0.000000 0.894616 0.140941
0.000000 0.880723 0.127048
0.113156 0.866831 0.113156
0.300601 0.852939 0.099264
0.488046 0.839046 0.085371
0.675492 0.825154 0.071479
0.862937 0.811262 0.057587
1.000000 0.797370 0.043695
1.000000 0.783477 0.029802
0.000000 1.000000 0.114966
0.000000 1.000000 0.101074
0.087181 1.000000 0.087181
0.274626 1.000000 0.073289
0.462072 1.000000 0.059397
0.649517 0.990929 0.045504
0.836962 0.977037 0.031612
1.000000 0.963145 0.017720
1.000000 0.949253 0.003828
0.000000 1.000000 0.088991
0.000000 1.000000 0.075099
0.061207 1.000000 0.061207
0.248652 1.000000 0.047314
0.436097 1.000000 0.033422
0.623542 1.000000 0.019530
0.810987 1.000000 0.005637
0.998433 1.000000 0.000000
1.000000 1.000000 0.000000
0.000000 0.000000 0.492830
0.076263 0.000000 0.478938
0.263708 0.000000 0.465045
0.451153 0.000000 0.451153
0.638598 0.000000 0.437261
0.826043 0.000000 0.423368
1.000000 0.000000 0.409476
1.000000 0.000000 0.395584
1.000000 0.000000 0.381692
0.000000 0.060443 0.466855
0.050288 0.046550 0.452963
0.237733 0.032658 0.439071
0.425178 0.018766 0.425178
0.612623 0.004873 0.411286
0.800069 0.000000 0.397394
0.987514 0.000000 0.383501
1.000000 0.000000 0.369609
1.000000 0.000000 0.355717
0.000000 0.226218 0.440880
0.024313 0.212326 0.426988
0.211758 0.198433 0.413096
0.399203 0.184541 0.399203
0.586649 0.170649 0.385311
0.774094 0.156756 0.371419
0.961539 0.142864 0.357527
1.000000 0.128972 0.343634
1.000000 0.115080 0.329742
0.000000 0.391993 0.414906
0.000000 0.378101 0.401013
0.185784 0.364209 0.387121
0.373229 0.350316 0.373229
0.560674 0.336424 0.359336
0.748119 0.322532 0.345444
0.935564 0.308639 0.331552
1.000000 0.294747 0.317660
1.000000 0.280855 0.303767
0.000000 0.557768 0.388931
0.000000 0.543876 0.375039
0.159809 0.529984 0.361146
0.347254 0.516092 0.347254
0.534699 0.502199 0.333362
0.722144 0.488307 0.319469
0.909590 0.474415 0.305577
1.000000 0.460522 0.291685
1.000000 0.446630 0.277793
0.000000 0.723544 0.362956
0.000000 0.709651 0.349064
0.133834 0.695759 0.335172
0.321279 0.681867 0.321279
0.508724 0.667974 0.307387
0.696170 0.654082 0.293495
0.883615 0.640190 0.279602
1.000000 0.626298 0.265710
1.000000 0.612405 0.251818
0.000000 0.889319 0.336981
0.000000 0.875427 0.323089
0.107859 0.861534 0.309197
0.295305 0.847642 0.295305
0.482750 0.833750 0.281412
0.670195 0.819857 0.267520
0.857640 0.805965 0.253628
1.000000 0.792073 0.239735
1.000000 0.778181 0.225843
0.000000 1.000000 0.311007
0.000000 1.000000 0.297114
0.081885 1.000000 0.283222
0.269330 1.000000 0.269330
0.456775 0.999525 0.255437
0.644220 0.985633 0.241545
0.831665 0.971740 0.227653
1.000000 0.957848 0.213761
1.000000 0.943956 0.199868
0.000000 1.000000 0.285032
0.000000 1.000000 0.271140
0.055910 1.000000 0.257247
0.243355 1.000000 0.243355
0.430800 1.000000 0.229463
0.618245 1.000000 0.215571
0.805691 1.000000 0.201678
0.993136 1.000000 0.187786
1.000000 1.000000 0.173894
0.000000 0.000000 0.688871
0.070966 0.000000 0.674978
0.258411 0.000000 0.661086
0.445856 0.000000 0.647194
0.633301 0.000000 0.633301
0.820747 0.000000 0.619409
1.000000 0.000000 0.605517
1.000000 0.000000 0.591625
1.000000 0.000000 0.577732
0.000000 0.055146 0.662896
0.044991 0.041254 0.649004
0.232436 0.027361 0.635111
0.419882 0.013469 0.621219
0.607327 0.000000 0.607327
0.794772 0.000000 0.593434
0.982217 0.000000 0.579542
1.000000 0.000000 0.565650
1.000000 0.000000 0.551758
0.000000 0.220921 0.636921
0.019016 0.207029 0.623029
0.206462 0.193137 0.609137
0.393907 0.179244 0.595244
0.581352 0.165352 0.581352
0.768797 0.151460 0.567460
0.956242 0.137567 0.553567
1.000000 0.123675 0.539675
1.000000 0.109783 0.525783
0.000000 0.386696 0.610946
0.000000 0.372804 0.597054
0.180487 0.358912 0.583162
0.367932 0.345020 0.569269
0.555377 0.331127 0.555377
0.742822 0.317235 0.541485
0.930268 0.303343 0.527593
1.000000 0.289450 0.513700
1.000000 0.275558 0.499808
0.000000 0.552472 0.584972
0.000000 0.538579 0.571079
0.154512 0.524687 0.557187
0.341957 0.510795 0.543295
0.529402 0.496903 0.529402
0.716848 0.483010 0.515510
0.904293 0.469118 0.501618
1.000000 0.455226 0.487726
1.000000 0.441333 0.473833
0.000000 0.718247 0.558997
0.000000 0.704355 0.545105
0.128537 0.690462 0.531212
0.315983 0.676570 0.517320
0.503428 0.662678 0.503428
0.690873 0.648785 0.489535
0.878318 0.634893 0.475643
1.000000 0.621001 0.461751
1.000000 0.607109 0.447859
0.000000 0.884022 0.533022
0.000000 0.870130 0.519130
0.102563 0.856238 0.505238
0.290008 0.842345 0.491345
0.477453 0.828453 0.477453
0.664898 0.814561 0.463561
0.852343 0.800668 0.449668
1.000000 0.786776 0.435776
1.000000 0.772884 0.421884
0.000000 1.000000 0.507047
0.000000 1.000000 0.493155
0.076588 1.000000 0.479263
0.264033 1.000000 0.465371
0.451478 0.994228 0.451478
0.638923 0.980336 0.437586
0.826369 0.966444 0.423694
1.000000 0.952551 0.409801
1.000000 0.938659 0.395909
0.000000 1.000000 0.481073
0.000000 1.000000 0.467180
0.050613 1.000000 0.453288
0.238058 1.000000 0.439396
0.425504 1.000000 0.425504
0.612949 1.000000 0.411611
0.800394 1.000000 0.397719
0.987839 1.000000 0.383827
1.000000 1.000000 0.369934
0.000000 0.000000 0.884911
0.065669 0.000000 0.871019
0.253114 0.000000 0.857127
0.440560 0.000000 0.843234
0.628005 0.000000 0.829342
0.815450 0.000000 0.815450
1.000000 0.000000 0.801558
1.000000 0.000000 0.787665
1.000000 0.000000 0.773773
0.000000 0.049849 0.858937
0.039694 0.035957 0.845044
0.227140 0.022065 0.831152
0.414585 0.008172 0.817260
0.602030 0.000000 0.803367
0.789475 0.000000 0.789475
0.976920 0.000000 0.775583
1.000000 0.000000 0.761691
1.000000 0.000000 0.747798
0.000000 0.215624 0.832962
0.013720 0.201732 0.819070
0.201165 0.187840 0.805177
0.388610 0.173948 0.791285
0.576055 0.160055 0.777393
0.763500 0.146163 0.763500
0.950946 0.132271 0.749608
1.000000 0.118378 0.735716
1.000000 0.104486 0.721824
0.000000 0.381400 0.806987
0.000000 0.367507 0.793095
0.175190 0.353615 0.779203
0.362635 0.339723 0.765310
0.550080 0.325831 0.751418
0.737526 0.311938 0.737526
0.924971 0.298046 0.723633
1.000000 0.284154 0.709741
1.000000 0.270261 0.695849
0.000000 0.547175 0.781012
0.000000 0.533283 0.767120
0.149215 0.519390 0.753228
0.336661 0.505498 0.739336
0.524106 0.491606 0.725443
0.711551 0.477713 0.711551
0.898996 0.463821 0.697659
1.000000 0.449929 0.683766
1.000000 0.436037 0.669874
0.000000 0.712950 0.755038
0.000000 0.699058 0.741145
0.123241 0.685166 0.727253
0.310686 0.671273 0.713361
0.498131 0.657381 0.699468
0.685576 0.643489 0.685576
0.873021 0.629596 0.671684
1.000000 0.615704 0.657792
1.000000 0.601812 0.643899
0.000000 0.878725 0.729063
0.000000 0.864833 0.715171
0.097266 0.850941 0.701278
0.284711 0.837049 0.687386
0.472156 0.823156 0.673494
0.659601 0.809264 0.659601
0.847047 0.795372 0.645709
1.000000 0.781479 0.631817
1.000000 0.767587 0.617925
0.000000 1.000000 0.703088
0.000000 1.000000 0.689196
0.071291 1.000000 0.675304
0.258736 1.000000 0.661411
0.446182 0.988932 0.647519
0.633627 0.975039 0.633627
0.821072 0.961147 0.619734
1.000000 0.947255 0.605842
1.000000 0.933362 0.591950
0.000000 1.000000 0.677113
0.000000 1.000000 0.663221
0.045316 1.000000 0.649329
0.232762 1.000000 0.635437
0.420207 1.000000 0.621544
0.607652 1.000000 0.607652
0.795097 1.000000 0.593760
0.982542 1.000000 0.579867
1.000000 1.000000 0.565975
0.000000 0.000000 1.000000
0.060372 0.000000 1.000000
0.247818 0.000000 1.000000
0.435263 0.000000 1.000000
0.622708 0.000000 1.000000
0.810153 0.000000 1.000000
0.997598 0.000000 0.997598
1.000000 0.000000 0.983706
1.000000 0.000000 0.969814
0.000000 0.044552 1.000000
0.034398 0.030660 1.000000
0.221843 0.016768 1.000000
0.409288 0.002876 1.000000
0.596733 0.000000 0.999408
0.784178 0.000000 0.985516
0.971624 0.000000 0.971624
1.000000 0.000000 0.957731
1.000000 0.000000 0.943839
0.000000 0.210328 1.000000
0.008423 0.196435 1.000000
0.195868 0.182543 1.000000
0.383313 0.168651 0.987326
0.570759 0.154759 0.973433
0.758204 0.140866 0.959541
0.945649 0.126974 0.945649
1.000000 0.113082 0.931757
1.000000 0.099189 0.917864
0.000000 0.376103 1.000000
0.000000 0.362211 0.989136
0.169893 0.348318 0.975243
0.357339 0.334426 0.961351
0.544784 0.320534 0.947459
0.732229 0.306642 0.933566
0.919674 0.292749 0.919674
1.000000 0.278857 0.905782
1.000000 0.264965 0.891890
0.000000 0.541878 0.977053
0.000000 0.527986 0.963161
0.143919 0.514094 0.949269
0.331364 0.500201 0.935376
0.518809 0.486309 0.921484
0.706254 0.472417 0.907592
0.893699 0.458524 0.893699
1.000000 0.444632 0.879807
1.000000 0.430740 0.865915
0.000000 0.707653 0.951078
0.000000 0.693761 0.937186
0.117944 0.679869 0.923294
0.305389 0.665977 0.909402
0.492834 0.652084 0.895509
0.680279 0.638192 0.881617
0.867725 0.624300 0.867725
1.000000 0.610407 0.853832
1.000000 0.596515 0.839940
0.000000 0.873429 0.925104
0.000000 0.859536 0.911211
0.091969 0.845644 0.897319
0.279414 0.831752 0.883427
0.466860 0.817860 0.869534
0.654305 0.803967 0.855642
0.841750 0.790075 0.841750
1.000000 0.776183 0.827858
1.000000 0.762290 0.813965
0.000000 1.000000 0.899129
0.000000 1.000000 0.885237
0.065994 1.000000 0.871344
0.253440 0.997527 0.857452
0.440885 0.983635 0.843560
0.628330 0.969743 0.829667
0.815775 0.955850 0.815775
1.000000 0.941958 0.801883
1.000000 0.928066 0.787991
0.000000 1.000000 0.873154
0.000000 1.000000 0.859262
0.040020 1.000000 0.845370
0.227465 1.000000 0.831477
0.414910 1.000000 0.817585
0.602355 1.000000 0.803693
0.789800 1.000000 0.789800
0.977246 1.000000 0.775908
1.000000 1.000000 0.762016
0.000000 0.000000 1.000000
0.055076 0.000000 1.000000
0.242521 0.000000 1.000000
0.429966 0.000000 1.000000
0.617411 0.000000 1.000000
0.804856 0.000000 1.000000
0.992302 0.000000 1.000000
1.000000 0.000000 1.000000
1.000000 0.000000 1.000000
0.000000 0.039256 1.000000
0.029101 0.025363 1.000000
0.216546 0.011471 1.000000
0.403991 0.000000 1.000000
0.591437 0.000000 1.000000
0.778882 0.000000 1.000000
0.966327 0.000000 1.000000
1.000000 0.000000 1.000000
1.000000 0.000000 1.000000
0.000000 0.205031 1.000000
0.003126 0.191139 1.000000
0.190571 0.177246 1.000000
0.378017 0.163354 1.000000
0.565462 0.149462 1.000000
0.752907 0.135570 1.000000
0.940352 0.121677 1.000000
1.000000 0.107785 1.000000
1.000000 0.093893 1.000000
0.000000 0.370806 1.000000
0.000000 0.356914 1.000000
0.164597 0.343022 1.000000
0.352042 0.329129 1.000000
0.539487 0.315237 1.000000
0.726932 0.301345 1.000000
0.914377 0.287453 1.000000
1.000000 0.273560 1.000000
1.000000 0.259668 1.000000
0.000000 0.536581 1.000000
0.000000 0.522689 1.000000
0.138622 0.508797 1.000000
0.326067 0.494905 1.000000
0.513512 0.481012 1.000000
0.700957 0.467120 1.000000
0.888403 0.453228 1.000000
1.000000 0.439335 1.000000
1.000000 0.425443 1.000000
0.000000 0.702357 1.000000
0.000000 0.688464 1.000000
0.112647 0.674572 1.000000
0.300092 0.660680 1.000000
0.487538 0.646788 1.000000
0.674983 0.632895 1.000000
0.862428 0.619003 1.000000
1.000000 0.605111 1.000000
1.000000 0.591218 1.000000
0.000000 0.868132 1.000000
0.000000 0.854240 1.000000
0.086672 0.840347 1.000000
0.274118 0.826455 1.000000
0.461563 0.812563 1.000000
0.649008 0.798671 1.000000
0.836453 0.784778 1.000000
1.000000 0.770886 1.000000
1.000000 0.756994 1.000000
0.000000 1.000000 1.000000
0.000000 1.000000 1.000000
0.060698 1.000000 1.000000
0.248143 0.992230 1.000000
0.435588 0.978338 1.000000
0.623033 0.964446 1.000000
0.810478 0.950554 1.000000
0.997924 0.936661 0.997924
1.000000 0.922769 0.984031
0.000000 1.000000 1.000000
0.000000 1.000000 1.000000
0.034723 1.000000 1.000000
0.222168 1.000000 1.000000
0.409613 1.000000 1.000000
0.597059 1.000000 0.999734
0.784504 1.000000 0.985841
0.971949 1.000000 0.971949
1.000000 1.000000 0.958057
0.000000 0.000000 1.000000
0.049779 0.000000 1.000000
0.237224 0.000000 1.000000
0.424669 0.000000 1.000000
0.612115 0.000000 1.000000
0.799560 0.000000 1.000000
0.987005 0.000000 1.000000
1.000000 0.000000 1.000000
1.000000 0.000000 1.000000
0.000000 0.033959 1.000000
0.023804 0.020067 1.000000
0.211249 0.006174 1.000000
0.398695 0.000000 1.000000
0.586140 0.000000 1.000000
0.773585 0.000000 1.000000
0.961030 0.000000 1.000000
1.000000 0.000000 1.000000
1.000000 0.000000 1.000000
0.000000 0.199734 1.000000
0.000000 0.185842 1.000000
0.185275 0.171950 1.000000
0.372720 0.158057 1.000000
0.560165 0.144165 1.000000
0.747610 0.130273 1.000000
0.935055 0.116381 1.000000
1.000000 0.102488 1.000000
1.000000 0.088596 1.000000
0.000000 0.365510 1.000000
0.000000 0.351617 1.000000
0.159300 0.337725 1.000000
0.346745 0.323833 1.000000
0.534190 0.309940 1.000000
0.721635 0.296048 1.000000
0.909081 0.282156 1.000000
1.000000 0.268264 1.000000
1.000000 0.254371 1.000000
0.000000 0.531285 1.000000
0.000000 0.517392 1.000000
0.133325 0.503500 1.000000
0.320770 0.489608 1.000000
0.508216 0.475716 1.000000
0.695661 0.461823 1.000000
0.883106 0.447931 1.000000
1.000000 0.434039 1.000000
1.000000 0.420146 1.000000
0.000000 0.697060 1.000000
0.000000 0.683168 1.000000
0.107350 0.669275 1.000000
0.294796 0.655383 1.000000
0.482241 0.641491 1.000000
0.669686 0.627599 1.000000
0.857131 0.613706 1.000000
1.000000 0.599814 1.000000
1.000000 0.585922 1.000000
0.000000 0.862835 1.000000
0.000000 0.848943 1.000000
0.081376 0.835051 1.000000
0.268821 0.821158 1.000000
0.456266 0.807266 1.000000
0.643711 0.793374 1.000000
0.831156 0.779481 1.000000
1.000000 0.765589 1.000000
1.000000 0.751697 1.000000
0.000000 1.000000 1.000000
0.000000 1.000000 1.000000
0.055401 1.000000 1.000000
0.242846 0.986934 1.000000
0.430291 0.973041 1.000000
0.617737 0.959149 1.000000
0.805182 0.945257 1.000000
0.992627 0.931364 1.000000
1.000000 0.917472 1.000000
0.000000 1.000000 1.000000
0.000000 1.000000 1.000000
0.029426 1.000000 1.000000
0.216871 1.000000 1.000000
0.404317 1.000000 1.000000
0.591762 1.000000 1.000000
0.779207 1.000000 1.000000
0.966652 1.000000 1.000000
1.000000 1.000000 1.000000
