app/src/main/assets/luts/film_faded_negative.cube
# V-Cam procedural LUT — film_faded_negative
# Generated by LutBaker. Do not edit by hand.
TITLE "V-Cam film_faded_negative"
LUT_3D_SIZE 33
DOMAIN_MIN 0.0 0.0 0.0
DOMAIN_MAX 1.0 1.0 1.0
0.363303 0.357304 0.355646
0.364338 0.357305 0.355647
0.365548 0.357307 0.355649
0.367351 0.357309 0.355652
0.369896 0.357313 0.355657
0.373341 0.357320 0.355665
0.377866 0.357332 0.355679
0.383672 0.357352 0.355701
0.390974 0.357385 0.355737
0.399981 0.357439 0.355795
0.410889 0.357525 0.355886
0.423861 0.357660 0.356027
0.439010 0.357867 0.356243
0.456391 0.358180 0.356566
0.475993 0.358643 0.357041
0.497735 0.359313 0.357726
0.521471 0.360266 0.358696
0.546993 0.361592 0.360045
0.574038 0.363408 0.361887
0.602288 0.365849 0.364361
0.631375 0.369080 0.367630
0.660874 0.373287 0.371883
0.690297 0.378680 0.377329
0.719282 0.385290 0.383998
0.747916 0.392630 0.391396
0.775333 0.400932 0.399758
0.800975 0.409985 0.408871
0.824277 0.419443 0.418388
0.844670 0.428812 0.427809
0.861560 0.437441 0.436483
0.874289 0.444520 0.443598
0.882038 0.449095 0.448195
0.883921 0.450239 0.449344
0.363304 0.358130 0.355647
0.364339 0.358131 0.355648
0.365549 0.358132 0.355650
0.367352 0.358134 0.355653
0.369898 0.358138 0.355659
0.373342 0.358145 0.355667
0.377868 0.358156 0.355681
0.383675 0.358175 0.355704
0.390977 0.358208 0.355741
0.399985 0.358261 0.355800
0.410895 0.358345 0.355892
0.423867 0.358479 0.356035
0.439018 0.358684 0.356252
0.456401 0.358995 0.356577
0.476004 0.359454 0.357055
0.497748 0.360120 0.357743
0.521486 0.361067 0.358717
0.547011 0.362386 0.360070
0.574057 0.364193 0.361916
0.602310 0.366623 0.364395
0.631400 0.369841 0.367670
0.660902 0.374032 0.371929
0.690327 0.379405 0.377382
0.719311 0.385997 0.384063
0.747948 0.393314 0.391467
0.775368 0.401593 0.399836
0.801012 0.410622 0.408955
0.824317 0.420057 0.418476
0.844711 0.429404 0.427902
0.861603 0.438014 0.436580
0.874333 0.445079 0.443698
0.882083 0.449645 0.448296
0.883966 0.450786 0.449445
0.363305 0.359108 0.355648
0.364340 0.359108 0.355649
0.365550 0.359110 0.355651
0.367353 0.359112 0.355655
0.369899 0.359115 0.355660
0.373345 0.359122 0.355669
0.377870 0.359133 0.355684
0.383679 0.359151 0.355708
0.390981 0.359183 0.355746
0.399991 0.359235 0.355806
0.410901 0.359318 0.355899
0.423875 0.359450 0.356044
0.439027 0.359653 0.356264
0.456412 0.359960 0.356591
0.476018 0.360415 0.357072
0.497764 0.361076 0.357764
0.521504 0.362016 0.358742
0.547031 0.363327 0.360099
0.574081 0.365123 0.361951
0.602337 0.367541 0.364436
0.631430 0.370742 0.367717
0.660935 0.374915 0.371984
0.690363 0.380265 0.377446
0.719347 0.386835 0.384139
0.747986 0.394126 0.391552
0.775409 0.402377 0.399928
0.801057 0.411378 0.409054
0.824363 0.420785 0.418581
0.844760 0.430107 0.428013
0.861654 0.438694 0.436695
0.874385 0.445741 0.443816
0.882137 0.450296 0.448416
0.884020 0.451434 0.449566
0.363306 0.360590 0.355649
0.364342 0.360591 0.355651
0.365552 0.360592 0.355653
0.367356 0.360593 0.355657
0.369902 0.360597 0.355663
0.373348 0.360603 0.355673
0.377874 0.360613 0.355688
0.383684 0.360631 0.355713
0.390988 0.360661 0.355753
0.399999 0.360711 0.355814
0.410911 0.360793 0.355910
0.423887 0.360921 0.356058
0.439042 0.361121 0.356281
0.456429 0.361424 0.356613
0.476038 0.361873 0.357098
0.497788 0.362526 0.357795
0.521532 0.363456 0.358779
0.547063 0.364754 0.360144
0.574117 0.366534 0.362004
0.602377 0.368933 0.364498
0.631475 0.372110 0.367789
0.660985 0.376254 0.372068
0.690418 0.381570 0.377543
0.719400 0.388107 0.384256
0.748045 0.395358 0.391680
0.775472 0.403567 0.400068
0.801124 0.412525 0.409204
0.824435 0.421891 0.418742
0.844835 0.431173 0.428181
0.861732 0.439727 0.436870
0.874465 0.446748 0.443996
0.882219 0.451286 0.448599
0.884102 0.452420 0.449749
0.363308 0.362726 0.355651
0.364344 0.362726 0.355653
0.365554 0.362727 0.355656
0.367359 0.362728 0.355660
0.369906 0.362731 0.355667
0.373352 0.362736 0.355678
0.377880 0.362746 0.355695
0.383691 0.362762 0.355721
0.390997 0.362791 0.355763
0.400010 0.362839 0.355827
0.410925 0.362917 0.355926
0.423904 0.363042 0.356078
0.439062 0.363236 0.356306
0.456454 0.363532 0.356643
0.476067 0.363972 0.357135
0.497822 0.364614 0.357841
0.521572 0.365530 0.358834
0.547108 0.366811 0.360208
0.574168 0.368568 0.362080
0.602435 0.370939 0.364587
0.631540 0.374082 0.367893
0.661057 0.378184 0.372189
0.690498 0.383452 0.377683
0.719478 0.389941 0.384424
0.748129 0.397136 0.391866
0.775563 0.405285 0.400271
0.801221 0.414181 0.409423
0.824538 0.423487 0.418974
0.844943 0.432714 0.428425
0.861845 0.441218 0.437123
0.874581 0.448201 0.444256
0.882337 0.452716 0.448864
0.884221 0.453844 0.450015
0.363311 0.365682 0.355658
0.364347 0.365683 0.355659
0.365558 0.365684 0.355660
0.367363 0.365685 0.355665
0.369911 0.365687 0.355672
0.373359 0.365691 0.355684
0.377888 0.365699 0.355703
0.383701 0.365714 0.355732
0.391010 0.365740 0.355776
0.400026 0.365784 0.355845
0.410945 0.365858 0.355949
0.423928 0.365978 0.356106
0.439091 0.366165 0.356340
0.456489 0.366452 0.356686
0.476108 0.366880 0.357188
0.497870 0.367507 0.357904
0.521627 0.368403 0.358909
0.547172 0.369659 0.360298
0.574241 0.371386 0.362186
0.602517 0.373718 0.364711
0.631631 0.376815 0.368039
0.661158 0.380861 0.372357
0.690609 0.386061 0.377878
0.719587 0.392485 0.384660
0.748248 0.399602 0.392126
0.775691 0.407668 0.400554
0.801357 0.416481 0.409727
0.824682 0.425704 0.419297
0.845094 0.434854 0.428766
0.862002 0.443292 0.437477
0.874744 0.450222 0.444619
0.882502 0.454704 0.449233
0.884386 0.455824 0.450386
0.363319 0.369658 0.355673
0.364354 0.369659 0.355674
0.365564 0.369661 0.355675
0.367369 0.369662 0.355677
0.369918 0.369664 0.355680
0.373368 0.369667 0.355694
0.377899 0.369673 0.355715
0.383715 0.369686 0.355747
0.391027 0.369709 0.355795
0.400047 0.369749 0.355868
0.410971 0.369818 0.355979
0.423961 0.369930 0.356143
0.439131 0.370108 0.356387
0.456536 0.370382 0.356744
0.476164 0.370795 0.357258
0.497935 0.371402 0.357989
0.521702 0.372272 0.359012
0.547258 0.373495 0.360421
0.574339 0.375181 0.362330
0.602628 0.377463 0.364880
0.631755 0.380497 0.368236
0.661295 0.384468 0.372586
0.690760 0.389580 0.378143
0.719736 0.395917 0.384981
0.748409 0.402930 0.392480
0.775864 0.410887 0.400939
0.801542 0.419587 0.410142
0.824878 0.428700 0.419738
0.845300 0.437747 0.429228
0.862216 0.446095 0.437958
0.874964 0.452956 0.445114
0.882726 0.457394 0.449735
0.884612 0.458503 0.450890
0.363335 0.374883 0.355699
0.364370 0.374884 0.355700
0.365579 0.374886 0.355702
0.367382 0.374888 0.355704
0.369929 0.374891 0.355707
0.373379 0.374895 0.355712
0.377914 0.374900 0.355730
0.383733 0.374909 0.355766
0.391050 0.374928 0.355820
0.400076 0.374963 0.355900
0.411007 0.375025 0.356019
0.424004 0.375128 0.356194
0.439183 0.375294 0.356450
0.456598 0.375552 0.356821
0.476238 0.375945 0.357352
0.498021 0.376525 0.358103
0.521803 0.377362 0.359149
0.547373 0.378543 0.360583
0.574470 0.380177 0.362522
0.602775 0.382392 0.365105
0.631920 0.385347 0.368497
0.661479 0.389221 0.372890
0.690963 0.394218 0.378496
0.719934 0.400443 0.385408
0.748623 0.407322 0.392952
0.776095 0.415136 0.401453
0.801789 0.423690 0.410695
0.825139 0.432660 0.420325
0.845575 0.441573 0.429846
0.862502 0.449805 0.438599
0.875259 0.456574 0.445773
0.883026 0.460954 0.450405
0.884913 0.462050 0.451562
0.363368 0.381602 0.355744
0.364401 0.381604 0.355746
0.365609 0.381606 0.355748
0.367410 0.381609 0.355751
0.369954 0.381613 0.355755
0.373400 0.381619 0.355761
0.377933 0.381626 0.355769
0.383757 0.381635 0.355792
0.391080 0.381649 0.355853
0.400113 0.381677 0.355941
0.411053 0.381730 0.356071
0.424060 0.381821 0.356259
0.439251 0.381972 0.356531
0.456680 0.382211 0.356921
0.476334 0.382578 0.357475
0.498135 0.383125 0.358252
0.521934 0.383921 0.359327
0.547524 0.385049 0.360794
0.574641 0.386616 0.362771
0.602969 0.388749 0.365397
0.632137 0.391603 0.368839
0.661720 0.395355 0.373287
0.691229 0.400207 0.378956
0.720194 0.406291 0.385969
0.748905 0.413000 0.393570
0.776399 0.420635 0.402126
0.802113 0.429004 0.411419
0.825483 0.437792 0.421095
0.845936 0.446536 0.430655
0.862878 0.454619 0.439440
0.875645 0.461271 0.446637
0.883420 0.465579 0.451283
0.885309 0.466656 0.452443
0.363429 0.390069 0.355821
0.364460 0.390071 0.355823
0.365666 0.390073 0.355826
0.367464 0.390077 0.355830
0.370004 0.390083 0.355836
0.373445 0.390090 0.355844
0.377971 0.390100 0.355855
0.383789 0.390113 0.355869
0.391118 0.390128 0.355894
0.400161 0.390149 0.355994
0.411112 0.390190 0.356137
0.424133 0.390267 0.356343
0.439339 0.390399 0.356635
0.456785 0.390615 0.357050
0.476458 0.390951 0.357632
0.498280 0.391458 0.358442
0.522103 0.392203 0.359554
0.547718 0.393266 0.361065
0.574862 0.394752 0.363091
0.603219 0.396785 0.365773
0.632417 0.399515 0.369277
0.662032 0.403117 0.373796
0.691573 0.407790 0.379547
0.720530 0.413701 0.386693
0.749270 0.420203 0.394368
0.776792 0.427615 0.402995
0.802533 0.435757 0.412354
0.825927 0.444320 0.422089
0.846402 0.452853 0.431698
0.863363 0.460752 0.440524
0.876145 0.467259 0.447751
0.883929 0.471475 0.452415
0.885820 0.472530 0.453580
0.363535 0.400521 0.355949
0.364564 0.400524 0.355952
0.365767 0.400527 0.355956
0.367562 0.400532 0.355961
0.370097 0.400539 0.355969
0.373531 0.400549 0.355979
0.378048 0.400561 0.355993
0.383854 0.400578 0.356012
0.391171 0.400599 0.356035
0.400221 0.400626 0.356065
0.411186 0.400655 0.356221
0.424224 0.400715 0.356448
0.439449 0.400825 0.356766
0.456917 0.401012 0.357211
0.476615 0.401311 0.357829
0.498464 0.401771 0.358681
0.522316 0.402455 0.359841
0.547964 0.403442 0.361407
0.575143 0.404831 0.363494
0.603536 0.406744 0.366245
0.632773 0.409327 0.369828
0.662429 0.412750 0.374438
0.692012 0.417210 0.380292
0.720960 0.422912 0.387612
0.749735 0.429165 0.395383
0.777292 0.436311 0.404100
0.803067 0.444179 0.413542
0.826493 0.452470 0.423351
0.846996 0.460748 0.433024
0.863981 0.468423 0.441901
0.876782 0.474754 0.449166
0.884577 0.478860 0.453853
0.886471 0.479887 0.455023
0.363715 0.413167 0.356157
0.364741 0.413171 0.356161
0.365941 0.413175 0.356165
0.367730 0.413181 0.356172
0.370259 0.413190 0.356182
0.373683 0.413202 0.356196
0.378188 0.413218 0.356214
0.383980 0.413239 0.356238
0.391278 0.413265 0.356268
0.400306 0.413299 0.356306
0.411276 0.413341 0.356354
0.424337 0.413385 0.356578
0.439586 0.413470 0.356928
0.457081 0.413624 0.357411
0.476810 0.413880 0.358074
0.498693 0.414286 0.358976
0.522582 0.414899 0.360196
0.548270 0.415797 0.361828
0.575493 0.417075 0.363992
0.603932 0.418849 0.366830
0.633219 0.421260 0.370511
0.662927 0.424475 0.375234
0.692564 0.428685 0.381216
0.721567 0.434094 0.388684
0.750319 0.440108 0.396654
0.777920 0.446942 0.405484
0.803738 0.454488 0.415029
0.827204 0.462460 0.424931
0.847743 0.470438 0.434683
0.864758 0.477847 0.443625
0.877582 0.483969 0.450938
0.885391 0.487943 0.455653
0.887288 0.488939 0.456830
0.364007 0.428165 0.356485
0.365029 0.428170 0.356490
0.366225 0.428175 0.356496
0.368008 0.428182 0.356505
0.370527 0.428193 0.356517
0.373940 0.428208 0.356535
0.378429 0.428227 0.356558
0.384201 0.428253 0.356587
0.391474 0.428286 0.356626
0.400474 0.428327 0.356674
0.411410 0.428379 0.356734
0.424469 0.428443 0.356808
0.439753 0.428508 0.357125
0.457281 0.428625 0.357653
0.477048 0.428834 0.358369
0.498972 0.429178 0.359334
0.522907 0.429713 0.360626
0.548646 0.430511 0.362340
0.575923 0.431662 0.364596
0.604421 0.433279 0.367540
0.633770 0.435496 0.371342
0.663543 0.438475 0.376202
0.693249 0.442401 0.382342
0.722323 0.447476 0.389991
0.751042 0.453219 0.398224
0.778699 0.459699 0.407192
0.804570 0.466876 0.416865
0.828085 0.474483 0.426881
0.848668 0.482114 0.436731
0.865720 0.489218 0.445752
0.878573 0.495098 0.453123
0.886400 0.498920 0.457873
0.888301 0.499878 0.459059
0.364465 0.445609 0.356990
0.365483 0.445614 0.356996
0.366673 0.445620 0.357003
0.368448 0.445629 0.357015
0.370955 0.445642 0.357030
0.374352 0.445660 0.357052
0.378821 0.445684 0.357080
0.384567 0.445715 0.357118
0.391809 0.445755 0.357165
0.400770 0.445805 0.357226
0.411663 0.445868 0.357301
0.424672 0.445945 0.357393
0.439944 0.446038 0.357505
0.457521 0.446133 0.357941
0.477333 0.446290 0.358721
0.499308 0.446566 0.359760
0.523299 0.447015 0.361136
0.549099 0.447704 0.362948
0.576442 0.448717 0.365316
0.605013 0.450161 0.368385
0.634439 0.452164 0.372332
0.664295 0.454882 0.377358
0.694087 0.458494 0.383689
0.723250 0.463197 0.391558
0.751927 0.468641 0.400134
0.779652 0.474726 0.409270
0.805587 0.481494 0.419098
0.829161 0.488692 0.429252
0.849798 0.495935 0.439221
0.866895 0.502696 0.448338
0.879783 0.508303 0.455780
0.887632 0.511953 0.460573
0.889539 0.512869 0.461769
0.365163 0.465520 0.357746
0.366175 0.465526 0.357754
0.367357 0.465533 0.357763
0.369121 0.465544 0.357776
0.371613 0.465560 0.357796
0.374989 0.465581 0.357822
0.379432 0.465609 0.357857
0.385144 0.465646 0.357903
0.392346 0.465694 0.357961
0.401259 0.465754 0.358035
0.412094 0.465828 0.358127
0.425039 0.465920 0.358240
0.440239 0.466031 0.358377
0.457790 0.466164 0.358540
0.477667 0.466297 0.359129
0.499703 0.466503 0.360255
0.523761 0.466860 0.361730
0.549635 0.467432 0.363656
0.577060 0.468297 0.366153
0.605718 0.469556 0.369371
0.635240 0.471330 0.373488
0.665197 0.473766 0.378710
0.695097 0.477037 0.385268
0.724373 0.481335 0.393399
0.752995 0.486455 0.402428
0.780801 0.492114 0.411764
0.806813 0.498438 0.421776
0.830460 0.505190 0.432096
0.851161 0.512010 0.442206
0.868314 0.518394 0.451437
0.881244 0.523701 0.458964
0.889118 0.527161 0.463808
0.891032 0.528030 0.465016
0.366194 0.487847 0.358850
0.367197 0.487854 0.358859
0.368370 0.487863 0.358870
0.370120 0.487875 0.358886
0.372592 0.487894 0.358909
0.375942 0.487919 0.358941
0.380351 0.487952 0.358983
0.386020 0.487995 0.359038
0.393170 0.488051 0.359109
0.402020 0.488121 0.359198
0.412783 0.488208 0.359308
0.425644 0.488316 0.359444
0.440753 0.488446 0.359609
0.458204 0.488602 0.359805
0.478036 0.488786 0.360036
0.500159 0.488969 0.360815
0.524296 0.489231 0.362404
0.550258 0.489682 0.364459
0.577780 0.490393 0.367105
0.606545 0.491457 0.370493
0.636182 0.492989 0.374806
0.666264 0.495129 0.380256
0.696297 0.498040 0.387079
0.725713 0.501907 0.395517
0.754266 0.506682 0.405143
0.782169 0.511891 0.414714
0.808274 0.517743 0.424945
0.832006 0.524022 0.435458
0.852784 0.530389 0.445734
0.870002 0.536370 0.455101
0.882982 0.541354 0.462727
0.890888 0.544611 0.467631
0.892808 0.545429 0.468853
0.367671 0.512470 0.360417
0.368664 0.512478 0.360429
0.369825 0.512488 0.360441
0.371557 0.512503 0.360461
0.374004 0.512524 0.360488
0.377321 0.512553 0.360526
0.381686 0.512591 0.360576
0.387302 0.512641 0.360641
0.394385 0.512706 0.360724
0.403156 0.512787 0.360830
0.413826 0.512888 0.360961
0.426582 0.513012 0.361122
0.441574 0.513163 0.361317
0.458898 0.513343 0.361549
0.478597 0.513556 0.361822
0.500650 0.513803 0.362139
0.524902 0.514047 0.363146
0.550967 0.514374 0.365345
0.578603 0.514928 0.368156
0.607495 0.515794 0.371735
0.637271 0.517078 0.376269
0.667504 0.518910 0.381978
0.697699 0.521447 0.389104
0.727289 0.524865 0.397896
0.755762 0.529273 0.408314
0.783778 0.534018 0.418158
0.809992 0.539382 0.428640
0.833824 0.545169 0.439378
0.854692 0.551064 0.449847
0.871986 0.556622 0.459370
0.885024 0.561268 0.467112
0.892966 0.564310 0.472085
0.894896 0.565075 0.473325
0.369732 0.539209 0.362589
0.370712 0.539218 0.362602
0.371858 0.539230 0.362617
0.373567 0.539246 0.362640
0.375983 0.539271 0.362672
0.379258 0.539303 0.362715
0.383570 0.539347 0.362774
0.389118 0.539404 0.362849
0.396117 0.539477 0.362947
0.404788 0.539570 0.363069
0.415343 0.539685 0.363222
0.427967 0.539827 0.363409
0.442812 0.539999 0.363636
0.459978 0.540205 0.363907
0.479508 0.540448 0.364225
0.501387 0.540731 0.364594
0.525540 0.541055 0.365015
0.551754 0.541373 0.366287
0.579523 0.541770 0.369277
0.608563 0.542437 0.373064
0.638504 0.543470 0.377843
0.668918 0.544991 0.383839
0.699311 0.547146 0.391305
0.729112 0.550104 0.400497
0.757664 0.554044 0.411634
0.785647 0.558396 0.422121
0.811985 0.563265 0.432890
0.835935 0.568551 0.443885
0.856906 0.573963 0.454574
0.874288 0.579088 0.464276
0.887394 0.583387 0.472151
0.895378 0.586207 0.477203
0.897318 0.586917 0.478462
0.372532 0.567832 0.365523
0.373496 0.567842 0.365538
0.374623 0.567855 0.365555
0.376305 0.567874 0.365581
0.378683 0.567901 0.365618
0.381906 0.567939 0.365668
0.386151 0.567988 0.365735
0.391615 0.568052 0.365822
0.398511 0.568135 0.365933
0.407059 0.568239 0.366074
0.417470 0.568369 0.366249
0.429931 0.568529 0.366464
0.444594 0.568723 0.366724
0.461563 0.568956 0.367034
0.480884 0.569230 0.367399
0.502547 0.569550 0.367822
0.526480 0.569917 0.368305
0.552561 0.570333 0.368847
0.580524 0.570736 0.370422
0.609736 0.571208 0.374428
0.639869 0.571993 0.379467
0.670498 0.573203 0.385774
0.701126 0.574975 0.393613
0.731183 0.577469 0.403249
0.760007 0.580857 0.414907
0.787789 0.584868 0.426619
0.814271 0.589244 0.437712
0.838353 0.594029 0.448996
0.859443 0.598957 0.459933
0.876925 0.603647 0.469836
0.890108 0.607596 0.477859
0.898140 0.610193 0.483002
0.900091 0.610847 0.484282
0.376244 0.598066 0.369396
0.377189 0.598078 0.369413
0.378294 0.598093 0.369432
0.379942 0.598114 0.369461
0.382273 0.598144 0.369503
0.385433 0.598186 0.369560
0.389597 0.598241 0.369635
0.394959 0.598312 0.369734
0.401730 0.598405 0.369860
0.410128 0.598521 0.370019
0.420363 0.598666 0.370217
0.432624 0.598845 0.370460
0.447065 0.599062 0.370754
0.463793 0.599322 0.371105
0.482859 0.599630 0.371518
0.504255 0.599989 0.371997
0.527918 0.600401 0.372543
0.553729 0.600867 0.373157
0.581522 0.601388 0.373834
0.610985 0.601889 0.375748
0.641341 0.602433 0.381053
0.672219 0.603339 0.387687
0.703126 0.604732 0.395923
0.733490 0.606763 0.406042
0.762640 0.609597 0.418272
0.790213 0.613231 0.431655
0.816856 0.617122 0.443106
0.841088 0.621414 0.454710
0.862312 0.625866 0.465921
0.879906 0.630126 0.476048
0.893176 0.633728 0.484237
0.901261 0.636103 0.489479
0.903226 0.636702 0.490784
0.381057 0.629602 0.374397
0.381978 0.629616 0.374415
0.383056 0.629632 0.374437
0.384664 0.629655 0.374470
0.386939 0.629689 0.374516
0.390025 0.629735 0.374580
0.394091 0.629796 0.374664
0.399331 0.629875 0.374774
0.405952 0.629977 0.374915
0.414170 0.630106 0.375093
0.424194 0.630268 0.375315
0.436215 0.630466 0.375587
0.450388 0.630707 0.375916
0.466824 0.630996 0.376309
0.485580 0.631338 0.376772
0.506654 0.631737 0.377308
0.529988 0.632195 0.377921
0.555470 0.632716 0.378609
0.582938 0.633298 0.379370
0.612192 0.633938 0.380197
0.642876 0.634549 0.382482
0.674042 0.635160 0.389444
0.705272 0.636184 0.398092
0.735996 0.637759 0.408720
0.765536 0.640043 0.421567
0.793080 0.643191 0.436740
0.819743 0.646660 0.449054
0.844140 0.650474 0.461007
0.865513 0.654463 0.472519
0.883233 0.658304 0.482890
0.896599 0.661567 0.491260
0.904743 0.663725 0.496612
0.906722 0.664271 0.497943
0.387169 0.662095 0.380728
0.388063 0.662109 0.380748
0.389109 0.662127 0.380773
0.390671 0.662153 0.380809
0.392880 0.662189 0.380860
0.395877 0.662240 0.380931
0.399830 0.662307 0.381024
0.404925 0.662395 0.381146
0.411370 0.662507 0.381303
0.419375 0.662650 0.381500
0.429150 0.662827 0.381746
0.440886 0.663046 0.382049
0.454740 0.663312 0.382415
0.470829 0.663631 0.382852
0.489214 0.664008 0.383366
0.509902 0.664450 0.383964
0.532842 0.664958 0.384647
0.557926 0.665535 0.385415
0.585002 0.666182 0.386266
0.613873 0.666895 0.387192
0.644306 0.667670 0.388183
0.675902 0.668400 0.390871
0.707504 0.669068 0.399930
0.738644 0.670200 0.411082
0.768638 0.671944 0.424577
0.796662 0.674453 0.440521
0.822921 0.677576 0.455517
0.847501 0.680932 0.467846
0.869036 0.684476 0.479681
0.886892 0.687915 0.490315
0.900363 0.690852 0.498882
0.908572 0.692802 0.504351
0.910567 0.693295 0.505710
0.394789 0.695154 0.388598
0.395652 0.695170 0.388621
0.396662 0.695189 0.388648
0.398170 0.695218 0.388688
0.400303 0.695258 0.388745
0.403199 0.695314 0.388823
0.407020 0.695387 0.388926
0.411949 0.695483 0.389061
0.418188 0.695606 0.389234
0.425947 0.695762 0.389453
0.435432 0.695957 0.389725
0.446834 0.696197 0.390060
0.460316 0.696489 0.390466
0.475996 0.696840 0.390950
0.493945 0.697255 0.391522
0.514177 0.697741 0.392186
0.536647 0.698302 0.392946
0.561260 0.698940 0.393804
0.587867 0.699656 0.394755
0.616279 0.700448 0.395794
0.646267 0.701310 0.396909
0.677566 0.702233 0.398083
0.709733 0.703095 0.401203
0.741347 0.703800 0.412876
0.771863 0.705020 0.427037
0.800443 0.706903 0.443790
0.826371 0.709551 0.462434
0.851147 0.712472 0.475161
0.872856 0.715594 0.487339
0.890860 0.718650 0.498252
0.904444 0.721277 0.507026
0.912722 0.723028 0.512621
0.914734 0.723472 0.514010
0.404128 0.728341 0.398219
0.404956 0.728359 0.398244
0.405925 0.728379 0.398274
0.407371 0.728410 0.398318
0.409419 0.728454 0.398381
0.412200 0.728515 0.398467
0.415872 0.728595 0.398582
0.420612 0.728700 0.398731
0.426618 0.728835 0.398923
0.434094 0.729005 0.399165
0.443248 0.729218 0.399467
0.454268 0.729481 0.399838
0.467320 0.729800 0.400288
0.482528 0.730184 0.400827
0.499971 0.730640 0.401463
0.519669 0.731174 0.402203
0.541591 0.731790 0.403052
0.565647 0.732493 0.404012
0.591701 0.733284 0.405081
0.619568 0.734160 0.406252
0.649027 0.735117 0.407514
0.679817 0.736147 0.408850
0.711638 0.737235 0.410238
0.743989 0.738239 0.413813
0.775092 0.738955 0.428639
0.804303 0.740229 0.446224
0.830702 0.742195 0.466617
0.855040 0.744733 0.482857
0.876934 0.747457 0.495392
0.895094 0.750152 0.506596
0.908797 0.752485 0.515588
0.917149 0.754048 0.521314
0.919179 0.754445 0.522735
0.415373 0.761135 0.409775
0.416162 0.761154 0.409803
0.417085 0.761177 0.409836
0.418465 0.761211 0.409886
0.420418 0.761259 0.409956
0.423072 0.761324 0.410051
0.426577 0.761412 0.410179
0.431107 0.761526 0.410345
0.436853 0.761672 0.410558
0.444015 0.761858 0.410827
0.452796 0.762089 0.411163
0.463386 0.762375 0.411576
0.475951 0.762724 0.412079
0.490624 0.763143 0.412680
0.507487 0.763640 0.413392
0.526574 0.764224 0.414222
0.547862 0.764899 0.415176
0.571274 0.765671 0.416258
0.596683 0.766540 0.417467
0.623913 0.767507 0.418797
0.652750 0.768565 0.420237
0.682938 0.769708 0.421771
0.714181 0.770920 0.423376
0.746134 0.772186 0.425023
0.778075 0.773252 0.430539
0.807826 0.773934 0.449819
0.834992 0.775265 0.470473
0.859124 0.777247 0.490811
0.881211 0.779591 0.503712
0.899533 0.781940 0.515215
0.913359 0.783992 0.524430
0.921787 0.785374 0.530290
0.923835 0.785726 0.531744
0.428642 0.792852 0.423381
0.429389 0.792873 0.423413
0.430263 0.792898 0.423449
0.431570 0.792934 0.423504
0.433421 0.792986 0.423582
0.435937 0.793057 0.423689
0.439263 0.793151 0.423831
0.443565 0.793274 0.424017
0.449027 0.793432 0.424255
0.455846 0.793633 0.424556
0.464218 0.793883 0.424932
0.474334 0.794193 0.425396
0.486363 0.794570 0.425959
0.500439 0.795024 0.426635
0.516655 0.795565 0.427436
0.535055 0.796199 0.428371
0.555627 0.796934 0.429451
0.578307 0.797775 0.430678
0.602978 0.798725 0.432054
0.629476 0.799784 0.433575
0.657594 0.800947 0.435230
0.687102 0.802184 0.437160
0.717755 0.803352 0.440465
0.749009 0.804627 0.444022
0.780399 0.805996 0.447786
0.811170 0.807302 0.453866
0.839045 0.808092 0.474664
0.863790 0.809468 0.495753
0.885606 0.811369 0.512135
0.904092 0.813392 0.523940
0.918044 0.815177 0.533379
0.926549 0.816388 0.539375
0.928616 0.816697 0.540862
0.443896 0.822705 0.438988
0.444599 0.822728 0.439023
0.445422 0.822754 0.439065
0.446652 0.822793 0.439126
0.448396 0.822848 0.439214
0.450768 0.822924 0.439334
0.453905 0.823026 0.439493
0.457967 0.823158 0.439701
0.463131 0.823328 0.439968
0.469585 0.823543 0.440306
0.477523 0.823812 0.440729
0.487133 0.824145 0.441250
0.498584 0.824551 0.441884
0.512016 0.825040 0.442647
0.527530 0.825623 0.443551
0.545178 0.826307 0.444610
0.564963 0.827102 0.445835
0.586832 0.828013 0.447232
0.610681 0.829045 0.448804
0.636598 0.830026 0.451401
0.664085 0.831121 0.454363
0.692868 0.832341 0.457631
0.722647 0.833684 0.461189
0.753072 0.835141 0.465003
