app/src/main/assets/luts/film_soft.cube
# V-Cam procedural LUT — film_soft
# Generated by LutBaker. Do not edit by hand.
TITLE "V-Cam film_soft"
LUT_3D_SIZE 9
DOMAIN_MIN 0.0 0.0 0.0
DOMAIN_MAX 1.0 1.0 1.0
0.123418 0.123418 0.123418
0.151025 0.123424 0.123424
0.217018 0.123530 0.123530
0.323193 0.124353 0.124353
0.462290 0.128463 0.128463
0.621141 0.142770 0.142770
0.779346 0.176644 0.176644
0.909099 0.221301 0.221301
0.963157 0.245078 0.245078
0.123430 0.151030 0.123430
0.151035 0.151035 0.123436
0.217047 0.151099 0.123582
0.323248 0.151714 0.124497
0.462377 0.154978 0.128778
0.621266 0.166785 0.143332
0.779491 0.196148 0.177517
0.909273 0.236626 0.222297
0.963343 0.258730 0.246105
0.123637 0.217079 0.123637
0.151166 0.217094 0.123662
0.217141 0.217141 0.123745
0.323423 0.217432 0.124955
0.462657 0.219393 0.129781
0.621672 0.227182 0.145123
0.779965 0.248387 0.180328
0.909837 0.280057 0.225504
0.963948 0.298261 0.249411
0.125198 0.323520 0.125198
0.152352 0.323547 0.125267
0.217743 0.323633 0.125489
0.323842 0.323842 0.126028
0.463332 0.324669 0.132122
0.622671 0.328896 0.149306
0.781142 0.342088 0.187128
0.911241 0.363529 0.233274
0.965452 0.376588 0.257431
0.132534 0.463509 0.132534
0.158250 0.463549 0.132671
0.221401 0.463677 0.133109
0.325541 0.463991 0.134168
0.464611 0.464611 0.136215
0.624665 0.466322 0.156681
0.783580 0.473592 0.200420
0.914143 0.486776 0.248518
0.968561 0.495262 0.273206
0.155004 0.624816 0.155004
0.177138 0.624870 0.155203
0.234272 0.625045 0.155844
0.332892 0.625471 0.157392
0.468051 0.626322 0.160388
0.627697 0.627697 0.164964
0.788505 0.630450 0.215534
0.919178 0.638049 0.272814
0.973954 0.643211 0.298441
0.202209 0.788314 0.202209
0.219008 0.788383 0.202459
0.265668 0.788606 0.203266
0.353046 0.789155 0.205230
0.479539 0.790265 0.209104
0.633218 0.792112 0.215261
0.794489 0.794489 0.226125
0.926375 0.797447 0.303955
0.981662 0.800364 0.330917
0.273650 0.923030 0.273650
0.285568 0.923104 0.274050
0.320810 0.923344 0.275348
0.392921 0.923945 0.278560
0.505475 0.925202 0.285136
0.648476 0.927424 0.296354
0.801817 0.930697 0.312017
0.934373 0.934373 0.328575
0.990018 0.935697 0.362594
0.317214 0.978666 0.317214
0.327088 0.978758 0.317603
0.356981 0.979055 0.318863
0.420640 0.979796 0.321976
0.524265 0.981331 0.328325
0.660035 0.984006 0.339078
0.808340 0.987854 0.353927
0.937877 0.992060 0.369417
0.994142 0.994142 0.376833
0.123420 0.123420 0.151022
0.151027 0.123427 0.151027
0.217024 0.123540 0.151065
0.323204 0.124381 0.151619
0.462308 0.128522 0.154765
0.621170 0.142867 0.166386
0.779374 0.176814 0.195517
0.909133 0.221495 0.235879
0.963194 0.245278 0.257950
0.123433 0.151032 0.151032
0.151037 0.151037 0.151037
0.217079 0.151091 0.151091
0.323315 0.151681 0.151681
0.462484 0.154892 0.154892
0.621422 0.166610 0.166610
0.779692 0.195905 0.195905
0.909512 0.236337 0.236337
0.963600 0.258428 0.258428
0.123647 0.217085 0.151153
0.151142 0.217115 0.151142
0.217151 0.217151 0.151194
0.323477 0.217425 0.152028
0.462754 0.219350 0.155700
0.621821 0.227073 0.168121
0.780160 0.248214 0.198410
0.910073 0.279831 0.239313
0.964201 0.298017 0.261537
0.125225 0.323530 0.152317
0.152266 0.323590 0.152266
0.217710 0.323669 0.152435
0.323860 0.323860 0.152844
0.463405 0.324665 0.157594
0.622803 0.328849 0.171671
0.781325 0.341992 0.204500
0.911466 0.363385 0.246544
0.965696 0.376424 0.269099
0.132594 0.463523 0.158185
0.158044 0.463614 0.158044
0.221282 0.463738 0.158401
0.325505 0.464041 0.159261
0.464638 0.464638 0.160931
0.624761 0.466324 0.177988
0.783765 0.473543 0.216405
0.914347 0.486707 0.260814
0.968785 0.495176 0.284041
0.155131 0.624830 0.177073
0.176748 0.624962 0.176748
0.234010 0.625133 0.177299
0.332757 0.625552 0.178630
0.468014 0.626386 0.181213
0.627733 0.627733 0.185175
0.788636 0.630460 0.230208
0.919347 0.638039 0.283754
0.974145 0.643188 0.308109
0.202494 0.788315 0.219036
0.218361 0.788516 0.218361
0.265172 0.788736 0.219093
0.352733 0.789279 0.220876
0.479383 0.790375 0.224398
0.633181 0.792198 0.230008
0.794539 0.794539 0.240042
0.926494 0.797481 0.313441
0.981806 0.800388 0.339321
0.274191 0.922999 0.285698
0.284671 0.923299 0.284671
0.320056 0.923536 0.285903
0.392383 0.924129 0.288956
0.505159 0.925370 0.295218
0.648339 0.927565 0.305935
0.801808 0.930802 0.320963
0.934442 0.934442 0.336927
0.990112 0.935754 0.369967
0.317729 0.978640 0.327206
0.326158 0.978980 0.326158
0.356171 0.979274 0.327373
0.420031 0.980006 0.330376
0.523883 0.981524 0.336509
0.659851 0.984170 0.346920
0.808298 0.987980 0.361341
0.937922 0.992149 0.376435
0.994216 0.994216 0.383679
0.123461 0.123461 0.216979
0.151022 0.123488 0.216994
0.217042 0.123573 0.217042
0.323239 0.124471 0.217154
0.462366 0.128715 0.218768
0.621266 0.143180 0.225973
0.779466 0.177366 0.246320
0.909242 0.222124 0.277429
0.963311 0.245926 0.295439
0.123513 0.151042 0.217008
0.151058 0.151058 0.217056
0.217093 0.151111 0.217093
0.323347 0.151748 0.217230
0.462541 0.155045 0.218890
0.621517 0.166872 0.226167
0.779783 0.196394 0.246649
0.909621 0.236919 0.277836
0.963717 0.259035 0.295872
0.123679 0.217103 0.217103
0.151162 0.217128 0.217128
0.217164 0.217164 0.217164
0.323638 0.217383 0.217383
0.463063 0.219191 0.219191
0.622299 0.226700 0.226700
0.780792 0.247636 0.247636
0.910835 0.279081 0.279081
0.965021 0.297206 0.297206
0.125313 0.323563 0.217640
0.152332 0.323620 0.217637
0.217585 0.323774 0.217585
0.323910 0.323910 0.217787
0.463636 0.324643 0.220370
0.623225 0.328687 0.229144
0.781918 0.341672 0.252259
0.912196 0.362907 0.285029
0.966485 0.375880 0.303618
0.132790 0.463568 0.221203
0.158202 0.463658 0.221138
0.220884 0.463929 0.220884
0.325377 0.464195 0.221423
0.464718 0.464718 0.222472
0.625065 0.466323 0.233559
0.784358 0.473379 0.261191
0.915011 0.486476 0.296922
0.969512 0.494889 0.316427
0.155547 0.624875 0.234054
0.177102 0.625006 0.233849
0.233146 0.625414 0.233146
0.332311 0.625806 0.234079
0.467891 0.626586 0.235897
0.627843 0.627843 0.238700
0.789056 0.630489 0.272055
0.919894 0.638001 0.316425
0.974764 0.643106 0.337408
0.203428 0.788319 0.265736
0.219204 0.788520 0.265231
0.263553 0.789153 0.263553
0.351713 0.789674 0.264933
0.478872 0.790727 0.267666
0.633055 0.792472 0.272033
0.794697 0.794697 0.280136
0.926877 0.797588 0.342254
0.982272 0.800462 0.365153
0.275943 0.922900 0.321243
0.286322 0.923201 0.320386
0.317605 0.924150 0.317605
0.390639 0.924718 0.320239
0.504135 0.925906 0.325667
0.647895 0.928016 0.335035
0.801775 0.931137 0.348330
0.934663 0.934663 0.362635
0.990414 0.935934 0.392874
0.318727 0.978667 0.356831
0.327749 0.978897 0.356478
0.353535 0.979974 0.353535
0.418051 0.980678 0.356232
0.522645 0.982140 0.361760
0.659250 0.984695 0.371201
0.808160 0.988384 0.384395
0.938063 0.992436 0.398340
0.994451 0.994451 0.405079
0.123780 0.123780 0.322978
0.151186 0.123855 0.323007
0.216942 0.124099 0.323100
0.323326 0.124691 0.323326
0.462511 0.129183 0.323508
0.621506 0.143937 0.326622
0.779695 0.178732 0.337958
0.909515 0.223683 0.357917
0.963604 0.247533 0.370368
0.123928 0.151246 0.323034
0.151286 0.151286 0.323136
0.217037 0.151469 0.323220
0.323427 0.151914 0.323427
0.462680 0.155420 0.323640
0.621753 0.167505 0.326803
0.780009 0.197607 0.338236
0.909892 0.238359 0.358264
0.964008 0.260540 0.370743
0.124403 0.217116 0.323214
0.151644 0.217158 0.323300
0.217248 0.217248 0.323549
0.323693 0.217463 0.323693
0.463185 0.219418 0.324006
0.622522 0.227124 0.327328
0.781011 0.248541 0.339082
0.911100 0.280248 0.359338
0.965306 0.298464 0.371909
0.125533 0.323643 0.323643
0.152498 0.323693 0.323693
0.217665 0.323826 0.323826
0.323960 0.323960 0.323960
0.464157 0.324517 0.324517
0.624227 0.328216 0.328216
0.783365 0.340799 0.340799
0.913990 0.361644 0.361644
0.968428 0.374455 0.374455
0.133282 0.463680 0.325146
0.158598 0.463766 0.325157
0.221125 0.464023 0.325162
0.324999 0.464527 0.324999
0.464873 0.464873 0.325469
0.625777 0.466277 0.330762
0.785783 0.472925 0.346265
0.916638 0.485852 0.370170
0.971299 0.494126 0.384010
0.156602 0.624986 0.332399
0.178000 0.625115 0.332319
0.233755 0.625516 0.332033
0.331164 0.626396 0.331164
0.467551 0.627045 0.332208
0.628084 0.628084 0.333815
0.790049 0.630526 0.353442
0.921235 0.637873 0.384500
0.976283 0.642871 0.400020
0.205795 0.788329 0.353031
0.221344 0.788529 0.352737
0.265184 0.789162 0.351757
0.349161 0.790609 0.349161
0.477592 0.791554 0.350907
0.632724 0.793111 0.353688
0.795055 0.795055 0.359234
0.927811 0.797830 0.404081
0.983412 0.800620 0.421807
0.280248 0.922672 0.393627
0.290386 0.922976 0.393030
0.321030 0.923934 0.391093
0.386331 0.926115 0.386331
0.501606 0.927181 0.390403
0.646786 0.929086 0.397530
0.801673 0.931931 0.407851
0.935182 0.935182 0.419213
0.991147 0.936364 0.444184
0.319915 0.978954 0.419080
0.328950 0.979171 0.418872
0.356535 0.979871 0.418170
0.413148 0.982286 0.413148
0.519584 0.983616 0.417584
0.657756 0.985951 0.425249
0.807798 0.989351 0.436141
0.938389 0.993122 0.447875
0.995010 0.995010 0.453625
0.125402 0.125402 0.461506
0.152319 0.125575 0.461553
0.217277 0.126132 0.461704
0.322864 0.127481 0.462074
0.462809 0.130106 0.462809
0.622007 0.145394 0.462847
0.780173 0.181519 0.467056
0.910081 0.226877 0.477525
0.964210 0.250826 0.484781
0.125741 0.152457 0.461597
0.152545 0.152545 0.461761
0.217459 0.152988 0.461906
0.323022 0.154061 0.462261
0.462966 0.156159 0.462966
0.622244 0.168726 0.463039
0.780507 0.200023 0.467310
0.910454 0.241314 0.477837
0.964610 0.263629 0.485117
0.126826 0.217679 0.461888
0.153410 0.217754 0.462041
0.217951 0.217951 0.462516
0.323471 0.218597 0.462823
0.463433 0.219866 0.463433
0.622985 0.227941 0.463621
0.781569 0.250198 0.468091
0.911648 0.282649 0.478813
0.965895 0.301053 0.486172
0.129404 0.323601 0.462582
0.155474 0.323672 0.462710
0.219208 0.323874 0.463101
0.324174 0.324174 0.463928
0.464314 0.324707 0.464314
0.624614 0.328660 0.464785
0.784061 0.341601 0.469733
0.914505 0.363319 0.480985
0.968986 0.376334 0.488543
0.134324 0.463911 0.463911
0.159438 0.463988 0.463988
0.221635 0.464218 0.464218
0.325209 0.464655 0.464655
0.464998 0.464998 0.464998
0.627050 0.465996 0.465996
0.788502 0.471793 0.471793
0.919906 0.484339 0.484339
0.974905 0.492327 0.492327
0.158887 0.625219 0.467037
0.179949 0.625343 0.467063
0.235081 0.625728 0.467125
0.331859 0.626572 0.467155
0.466724 0.627819 0.466724
0.628437 0.628437 0.467417
0.791884 0.630453 0.475845
0.923913 0.637455 0.493435
0.979338 0.642230 0.502957
0.210888 0.788358 0.478967
0.225962 0.788558 0.478863
0.268727 0.789189 0.478507
0.351334 0.790631 0.477493
0.474925 0.793056 0.474925
0.631965 0.794240 0.476363
0.795656 0.795656 0.479553
0.929848 0.798184 0.505364
0.985685 0.800837 0.517804
0.287561 0.922481 0.505269
0.298000 0.922681 0.505197
0.327994 0.923562 0.504365
0.391254 0.925781 0.501766
0.496469 0.929563 0.496469
0.644483 0.931084 0.501050
0.801372 0.933408 0.507864
0.936131 0.936131 0.515601
0.992654 0.937179 0.532834
0.322362 0.979547 0.520819
0.331303 0.979761 0.520722
0.358631 0.980450 0.520389
0.417918 0.982111 0.519445
0.513331 0.986416 0.513331
0.654668 0.988338 0.518722
0.806981 0.991187 0.526572
0.938961 0.994416 0.535272
0.996058 0.996058 0.539624
0.131152 0.131152 0.619112
0.156748 0.131477 0.619181
0.219573 0.132523 0.619405
0.323143 0.135049 0.619956
0.461452 0.139955 0.621064
0.622883 0.147544 0.622883
0.781734 0.183871 0.621825
0.911068 0.232332 0.624888
0.965267 0.256458 0.628122
0.131792 0.157012 0.619244
0.157174 0.157174 0.619482
0.219898 0.158031 0.619701
0.323395 0.160110 0.620241
0.461675 0.164174 0.621324
0.623104 0.170530 0.623104
0.782056 0.202101 0.622093
0.911433 0.246374 0.625195
0.965660 0.268922 0.628448
0.133835 0.220356 0.619666
0.158858 0.220483 0.619897
0.220846 0.220846 0.620629
0.324148 0.222208 0.621131
0.462353 0.224894 0.622138
0.623789 0.229148 0.623789
0.783079 0.251718 0.622934
0.912604 0.286784 0.626165
0.966923 0.305509 0.629482
0.138694 0.324593 0.620675
0.162886 0.324699 0.620887
0.223518 0.325011 0.621560
0.325573 0.325573 0.623113
0.463744 0.327017 0.623936
0.625276 0.329311 0.625276
0.785459 0.342509 0.624809
0.915403 0.366219 0.628397
0.969960 0.379586 0.631872
0.148012 0.463630 0.622603
0.170698 0.463733 0.622780
0.228761 0.464045 0.623335
0.328421 0.464677 0.624596
0.465371 0.465371 0.626667
0.627421 0.466263 0.627421
0.789618 0.472258 0.627726
0.920686 0.486122 0.632200
0.975768 0.494414 0.636005
0.163200 0.625638 0.625638
0.183645 0.625754 0.625754
0.237614 0.626113 0.626113
0.333194 0.626893 0.626893
0.467179 0.628013 0.628013
0.628650 0.628650 0.628650
0.794394 0.629934 0.629934
0.928260 0.636230 0.636230
0.984360 0.640622 0.640622
0.220367 0.788444 0.630961
0.234605 0.788643 0.631017
0.275440 0.789271 0.631180
0.355511 0.790705 0.631464
0.476867 0.793110 0.631550
0.630524 0.795642 0.630524
0.796316 0.796316 0.631786
0.933136 0.798352 0.641913
0.989356 0.800847 0.649342
0.291734 0.923450 0.644905
0.301977 0.923643 0.644934
0.332828 0.924261 0.645015
0.398031 0.925743 0.645129
0.501217 0.929290 0.643853
0.640480 0.933940 0.640480
0.800592 0.935498 0.644087
0.937413 0.937413 0.648353
0.995004 0.938280 0.657556
0.326579 0.980582 0.654541
0.335362 0.980790 0.654549
0.362253 0.981457 0.654562
0.420780 0.983067 0.654508
0.518667 0.986238 0.653887
0.649310 0.991869 0.649310
0.805344 0.993901 0.654038
0.939642 0.996300 0.659477
0.997557 0.997557 0.662274
0.145222 0.145222 0.775602
0.168201 0.145727 0.775692
0.226612 0.147353 0.775987
0.325961 0.151282 0.776714
0.460953 0.158933 0.778192
0.619775 0.170895 0.780675
0.784045 0.185624 0.784045
0.912488 0.239953 0.780464
0.966788 0.264337 0.780778
0.146225 0.168630 0.775767
0.168873 0.168873 0.776093
0.227126 0.170254 0.776384
0.326344 0.173606 0.777103
0.461268 0.180188 0.778564
0.620069 0.190612 0.781018
0.784346 0.203634 0.784346
0.912843 0.253469 0.780786
0.967171 0.276348 0.781116
0.149431 0.227928 0.776295
0.171610 0.228119 0.776617
0.228683 0.228683 0.777651
0.327519 0.231027 0.778343
0.462244 0.235685 0.779749
0.620990 0.243201 0.782107
0.785297 0.252799 0.785297
0.913980 0.292627 0.781812
0.968403 0.311803 0.782195
0.157100 0.328460 0.777550
0.178205 0.328611 0.777861
0.233345 0.329065 0.778860
0.329956 0.329956 0.781254
0.464353 0.332734 0.782521
0.623056 0.337258 0.784638
0.787481 0.343094 0.787481
0.916696 0.370353 0.784228
0.971362 0.384216 0.784740
0.172032 0.464745 0.779921
0.191224 0.464883 0.780212
0.242726 0.465306 0.781143
0.335576 0.466195 0.783356
0.467329 0.467329 0.787436
0.626328 0.469612 0.789051
0.791182 0.472512 0.791182
0.922242 0.488106 0.788814
0.977011 0.497404 0.789391
0.197008 0.624588 0.783573
0.213441 0.624741 0.783829
0.259226 0.625216 0.784645
0.345558 0.626269 0.786555
0.472173 0.627881 0.789962
0.629084 0.629084 0.794128
0.795135 0.630062 0.795135
0.930300 0.636517 0.794569
0.985333 0.642327 0.795522
0.228651 0.789309 0.789309
0.242626 0.789454 0.789454
0.282845 0.789916 0.789916
0.361970 0.790999 0.790999
0.480179 0.793293 0.793293
0.631533 0.795707 0.795707
0.796614 0.796614 0.796614
0.936561 0.797874 0.797874
0.994403 0.799816 0.799816
0.297631 0.924845 0.795583
0.307604 0.925028 0.795695
0.337738 0.925614 0.796048
0.401769 0.927017 0.796861
0.506242 0.929673 0.798245
0.643310 0.934002 0.799410
0.798978 0.937603 0.798978
0.938543 0.938543 0.800497
0.997548 0.939145 0.803969
0.332548 0.982072 0.800900
0.341113 0.982271 0.800995
0.367400 0.982908 0.801295
0.424864 0.984444 0.801973
0.521733 0.987394 0.803083
0.652801 0.992045 0.803830
0.802531 0.996894 0.802531
0.939976 0.998293 0.805047
0.999060 0.999060 0.806389
0.167237 0.167237 0.901770
0.186955 0.167900 0.901869
0.239340 0.170036 0.902193
0.332481 0.175214 0.902995
0.462487 0.185386 0.904643
0.617363 0.201585 0.907475
0.778346 0.222224 0.911455
0.915681 0.242037 0.915681
0.968451 0.272669 0.912410
0.168568 0.187549 0.901934
0.187856 0.187856 0.902353
0.240052 0.189736 0.902675
0.333012 0.194314 0.903473
0.462908 0.203378 0.905114
0.617739 0.217987 0.907929
0.778723 0.236853 0.911885
0.916080 0.255177 0.916080
0.968824 0.284227 0.912767
0.172839 0.241256 0.902457
0.191631 0.241504 0.902875
0.242248 0.242248 0.904229
0.334663 0.245654 0.905014
0.464226 0.252485 0.906627
0.618929 0.263727 0.909390
0.779923 0.278613 0.913262
0.917357 0.293400 0.917357
0.970022 0.318530 0.913913
0.183157 0.336255 0.903681
0.200816 0.336450 0.904099
0.249139 0.337045 0.905447
0.338255 0.338255 0.908739
0.467172 0.342630 0.910273
0.621658 0.349939 0.912894
0.782727 0.359801 0.916545
0.920375 0.369767 0.920375
0.972895 0.389212 0.916651
0.203310 0.468301 0.906106
0.219162 0.468486 0.906423
0.263328 0.469036 0.907677
0.347344 0.470193 0.910927
0.471754 0.471754 0.917224
0.626239 0.475860 0.919504
0.787697 0.481383 0.922641
0.925875 0.486918 0.925875
0.979018 0.499647 0.922321
0.233051 0.625104 0.911200
0.246613 0.625271 0.911480
0.285828 0.625802 0.912382
0.363520 0.627030 0.914567
0.480820 0.629130 0.920122
0.630858 0.630858 0.928687
0.793637 0.633330 0.930836
0.932288 0.636462 0.932288
0.987826 0.642594 0.930196
0.269587 0.787809 0.918480
0.280933 0.787975 0.918707
0.314665 0.788506 0.919440
0.384412 0.789759 0.921206
0.494999 0.792047 0.924609
0.637345 0.795253 0.930913
0.797009 0.797009 0.936472
0.937136 0.798191 0.937136
0.995408 0.800313 0.936608
0.303939 0.926371 0.926371
0.313634 0.926543 0.926543
0.343022 0.927094 0.927094
0.405816 0.928410 0.928410
0.508904 0.930888 0.930888
0.646242 0.934408 0.934408
0.799779 0.937856 0.937856
0.938947 0.938947 0.938947
0.999397 0.939226 0.939226
0.338945 0.983701 0.928886
0.347285 0.983890 0.929044
0.372942 0.984495 0.929551
0.429285 0.985951 0.930759
0.524795 0.988735 0.933012
0.655375 0.992845 0.936146
0.803790 0.997279 0.938902
0.939510 0.999635 0.939510
0.999895 0.999895 0.939835
0.180385 0.180385 0.953221
0.198487 0.181117 0.953318
0.247636 0.183476 0.953635
0.337165 0.189209 0.954421
0.464148 0.200526 0.956049
0.616593 0.218724 0.958877
0.775506 0.242271 0.962927
0.911144 0.265331 0.967328
0.969498 0.275936 0.969498
0.181863 0.199161 0.953368
0.199492 0.199492 0.953835
0.248447 0.201602 0.954151
0.337775 0.206750 0.954936
0.464627 0.216988 0.956560
0.617014 0.233633 0.959380
0.775923 0.255441 0.963416
0.911585 0.277031 0.967798
0.969957 0.287022 0.969957
0.186523 0.249811 0.953920
0.203758 0.250137 0.954302
0.250960 0.250960 0.955821
0.339679 0.254902 0.956601
0.466132 0.262845 0.958212
0.618349 0.276027 0.961005
0.777254 0.293734 0.964992
0.912998 0.311667 0.969306
0.971426 0.320080 0.971426
0.197468 0.341452 0.955444
0.213693 0.341705 0.955809
0.258939 0.342498 0.956989
0.343889 0.343889 0.960670
0.469535 0.349140 0.962239
0.621437 0.358006 0.964949
0.780386 0.370180 0.968792
0.916360 0.382774 0.972917
0.974931 0.388761 0.974931
0.218270 0.470916 0.958596
0.232791 0.471119 0.958941
0.274234 0.471759 0.960055
0.354823 0.473219 0.962770
0.475013 0.475013 0.970110
0.626737 0.480188 0.972585
0.786029 0.487312 0.976049
0.922582 0.494681 0.979708
0.981280 0.498498 0.981280
0.250032 0.626008 0.964063
0.262420 0.626189 0.964373
0.298770 0.626764 0.965375
0.372374 0.628102 0.967813
0.486614 0.630450 0.972777
0.632421 0.632421 0.983800
0.793044 0.635857 0.986429
0.930158 0.640223 0.988131
0.989044 0.642499 0.989044
0.289000 0.787504 0.971875
0.299339 0.787681 0.972137
0.330443 0.788245 0.972980
0.396038 0.789582 0.975023
0.502192 0.792044 0.979016
0.641359 0.795418 0.986032
0.797589 0.797589 0.994359
0.936308 0.799502 0.995296
0.995834 0.800546 0.995834
0.325606 0.925261 0.980342
0.334426 0.925441 0.980551
0.361417 0.926021 0.981224
0.420118 0.927406 0.982845
0.518465 0.930027 0.985971
0.651618 0.933794 0.990670
0.801956 0.937563 0.996113
0.939049 0.939049 0.999271
0.999494 0.939333 0.999494
0.342066 0.984509 0.984509
0.350299 0.984692 0.984692
0.375655 0.985282 0.985282
0.431458 0.986697 0.986697
0.526306 0.989399 0.989399
0.656277 0.993369 0.993369
0.804397 0.997520 0.997520
0.939636 0.999729 0.999729
1.000000 1.000000 1.000000
