app/src/main/assets/luts/food_warm_table.cube
# V-Cam procedural LUT — food_warm_table
# Generated by LutBaker. Do not edit by hand.
TITLE "V-Cam food_warm_table"
LUT_3D_SIZE 33
DOMAIN_MIN 0.0 0.0 0.0
DOMAIN_MAX 1.0 1.0 1.0
0.086760 0.020000 0.020000
0.125042 0.020000 0.020000
0.163325 0.020000 0.020000
0.201608 0.020000 0.020000
0.239891 0.020000 0.020000
0.278174 0.020000 0.020000
0.316457 0.020000 0.020000
0.354739 0.020000 0.020000
0.393022 0.020000 0.020000
0.431305 0.020000 0.020000
0.469588 0.020000 0.020000
0.507871 0.020000 0.020000
0.544061 0.020000 0.020000
0.579282 0.020000 0.020000
0.614502 0.020000 0.020000
0.649722 0.020000 0.020000
0.684942 0.020000 0.020000
0.720162 0.020000 0.020000
0.755383 0.020000 0.020000
0.790603 0.020000 0.020000
0.825823 0.020000 0.020000
0.861043 0.020000 0.020000
0.896263 0.020000 0.020000
0.931484 0.020000 0.020000
0.966704 0.020000 0.020000
0.980000 0.020000 0.020000
0.980000 0.020000 0.020000
0.980000 0.020000 0.020000
0.980000 0.020000 0.020000
0.980000 0.020000 0.020000
0.980000 0.020000 0.020000
0.980000 0.020000 0.020000
0.980000 0.020000 0.020000
0.084815 0.043830 0.020000
0.123098 0.042761 0.020000
0.161381 0.041691 0.020000
0.199664 0.040621 0.020000
0.237947 0.039552 0.020000
0.276229 0.038482 0.020000
0.314512 0.037412 0.020000
0.352795 0.036343 0.020000
0.391078 0.035273 0.020000
0.429361 0.034203 0.020000
0.467643 0.033134 0.020000
0.505926 0.032064 0.020000
0.542272 0.030994 0.020000
0.577493 0.029925 0.020000
0.612713 0.028855 0.020000
0.647933 0.027785 0.020000
0.683153 0.026716 0.020000
0.718373 0.025646 0.020000
0.753594 0.024576 0.020000
0.788814 0.023507 0.020000
0.824034 0.022437 0.020000
0.859254 0.021367 0.020000
0.894475 0.020298 0.020000
0.929695 0.020000 0.020000
0.964915 0.020000 0.020000
0.980000 0.020000 0.020000
0.980000 0.020000 0.020000
0.980000 0.020000 0.020000
0.980000 0.020000 0.020000
0.980000 0.020000 0.020000
0.980000 0.020000 0.020000
0.980000 0.020000 0.020000
0.980000 0.020000 0.020000
0.082871 0.078323 0.020000
0.121154 0.077254 0.020000
0.159436 0.076184 0.020000
0.197719 0.075114 0.020000
0.236002 0.074045 0.020000
0.274285 0.072975 0.020000
0.312568 0.071905 0.020000
0.350851 0.070836 0.020000
0.389133 0.069766 0.020000
0.427416 0.068696 0.020000
0.465699 0.067627 0.020000
0.503982 0.066557 0.020000
0.540484 0.065487 0.020000
0.575704 0.064418 0.020000
0.610924 0.063348 0.020000
0.646144 0.062278 0.020000
0.681364 0.061209 0.020000
0.716585 0.060139 0.020000
0.751805 0.059069 0.020000
0.787025 0.058000 0.020000
0.822245 0.056930 0.020000
0.857465 0.055860 0.020000
0.892686 0.054791 0.020000
0.927906 0.053721 0.020000
0.963126 0.052651 0.020000
0.980000 0.051581 0.020000
0.980000 0.050512 0.020000
0.980000 0.049442 0.020000
0.980000 0.048372 0.020000
0.980000 0.047303 0.020000
0.980000 0.046233 0.020000
0.980000 0.045163 0.020000
0.980000 0.044094 0.020000
0.080926 0.112816 0.020000
0.119209 0.111747 0.020000
0.157492 0.110677 0.020000
0.195775 0.109607 0.020000
0.234058 0.108538 0.020000
0.272340 0.107468 0.020000
0.310623 0.106398 0.020000
0.348906 0.105329 0.020000
0.387189 0.104259 0.020000
0.425472 0.103189 0.020000
0.463755 0.102120 0.020000
0.502037 0.101050 0.020000
0.538695 0.099980 0.020000
0.573915 0.098911 0.020000
0.609135 0.097841 0.020000
0.644355 0.096771 0.020000
0.679575 0.095702 0.020000
0.714796 0.094632 0.020000
0.750016 0.093562 0.020000
0.785236 0.092493 0.020000
0.820456 0.091423 0.020000
0.855676 0.090353 0.020000
0.890897 0.089284 0.020000
0.926117 0.088214 0.020000
0.961337 0.087144 0.020000
0.980000 0.086075 0.020000
0.980000 0.085005 0.020000
0.980000 0.083935 0.020000
0.980000 0.082866 0.020000
0.980000 0.081796 0.020000
0.980000 0.080726 0.020000
0.980000 0.079657 0.020000
0.980000 0.078587 0.020000
0.078982 0.147309 0.020000
0.117265 0.146240 0.020000
0.155547 0.145170 0.020000
0.193830 0.144100 0.020000
0.232113 0.143031 0.020000
0.270396 0.141961 0.020000
0.308679 0.140891 0.020000
0.346962 0.139822 0.020000
0.385244 0.138752 0.020000
0.423527 0.137682 0.020000
0.461810 0.136613 0.020000
0.500093 0.135543 0.020000
0.536906 0.134473 0.020000
0.572126 0.133404 0.020000
0.607346 0.132334 0.020000
0.642566 0.131264 0.020000
0.677787 0.130195 0.020000
0.713007 0.129125 0.020000
0.748227 0.128055 0.020000
0.783447 0.126986 0.020000
0.818667 0.125916 0.020000
0.853888 0.124846 0.020000
0.889108 0.123777 0.020000
0.924328 0.122707 0.020000
0.959548 0.121637 0.020000
0.980000 0.120568 0.020000
0.980000 0.119498 0.020000
0.980000 0.118428 0.020000
0.980000 0.117359 0.020000
0.980000 0.116289 0.020000
0.980000 0.115219 0.020000
0.980000 0.114150 0.020000
0.980000 0.113080 0.020000
0.077037 0.181802 0.020000
0.115320 0.180733 0.020000
0.153603 0.179663 0.020000
0.191886 0.178593 0.020000
0.230169 0.177524 0.020000
0.268452 0.176454 0.020000
0.306734 0.175384 0.020000
0.345017 0.174315 0.020000
0.383300 0.173245 0.020000
0.421583 0.172175 0.020000
0.459866 0.171106 0.020000
0.498149 0.170036 0.020000
0.535117 0.168966 0.020000
0.570337 0.167897 0.020000
0.605557 0.166827 0.020000
0.640777 0.165757 0.020000
0.675998 0.164688 0.020000
0.711218 0.163618 0.020000
0.746438 0.162548 0.020000
0.781658 0.161479 0.020000
0.816879 0.160409 0.020000
0.852099 0.159339 0.020000
0.887319 0.158270 0.020000
0.922539 0.157200 0.020000
0.957759 0.156130 0.020000
0.980000 0.155061 0.020000
0.980000 0.153991 0.020000
0.980000 0.152921 0.020000
0.980000 0.151852 0.020000
0.980000 0.150782 0.020000
0.980000 0.149712 0.020000
0.980000 0.148643 0.020000
0.980000 0.147573 0.020000
0.075093 0.216296 0.020000
0.113376 0.215226 0.020000
0.151659 0.214156 0.020000
0.189941 0.213087 0.020000
0.228224 0.212017 0.020000
0.266507 0.210947 0.020000
0.304790 0.209878 0.020000
0.343073 0.208808 0.020000
0.381356 0.207738 0.020000
0.419638 0.206668 0.020000
0.457921 0.205599 0.020000
0.496204 0.204529 0.020000
0.533328 0.203459 0.020000
0.568548 0.202390 0.020000
0.603768 0.201320 0.020000
0.638989 0.200250 0.020000
0.674209 0.199181 0.020000
0.709429 0.198111 0.020000
0.744649 0.197041 0.020000
0.779869 0.195972 0.020000
0.815090 0.194902 0.020000
0.850310 0.193832 0.020000
0.885530 0.192763 0.020000
0.920750 0.191693 0.020000
0.955970 0.190623 0.020000
0.980000 0.189554 0.020000
0.980000 0.188484 0.020000
0.980000 0.187414 0.020000
0.980000 0.186345 0.020000
0.980000 0.185275 0.020000
0.980000 0.184205 0.020000
0.980000 0.183136 0.020000
0.980000 0.182066 0.020000
0.073149 0.250789 0.020000
0.111431 0.249719 0.020000
0.149714 0.248649 0.020000
0.187997 0.247580 0.020000
0.226280 0.246510 0.020000
0.264563 0.245440 0.020000
0.302846 0.244371 0.020000
0.341128 0.243301 0.020000
0.379411 0.242231 0.020000
0.417694 0.241162 0.020000
0.455977 0.240092 0.020000
0.494260 0.239022 0.020000
0.531539 0.237953 0.020000
0.566759 0.236883 0.020000
0.601980 0.235813 0.020000
0.637200 0.234744 0.020000
0.672420 0.233674 0.020000
0.707640 0.232604 0.020000
0.742860 0.231535 0.020000
0.778081 0.230465 0.020000
0.813301 0.229395 0.020000
0.848521 0.228325 0.020000
0.883741 0.227256 0.020000
0.918961 0.226186 0.020000
0.954182 0.225116 0.020000
0.980000 0.224047 0.020000
0.980000 0.222977 0.020000
0.980000 0.221907 0.020000
0.980000 0.220838 0.020000
0.980000 0.219768 0.020000
0.980000 0.218698 0.020000
0.980000 0.217629 0.020000
0.980000 0.216559 0.020000
0.071204 0.285282 0.020000
0.109487 0.284212 0.020000
0.147770 0.283142 0.020000
0.186053 0.282073 0.020000
0.224335 0.281003 0.020000
0.262618 0.279933 0.020000
0.300901 0.278864 0.020000
0.339184 0.277794 0.020000
0.377467 0.276724 0.020000
0.415750 0.275655 0.020000
0.454032 0.274585 0.020000
0.492315 0.273515 0.020000
0.529750 0.272446 0.020000
0.564970 0.271376 0.020000
0.600191 0.270306 0.020000
0.635411 0.269237 0.020000
0.670631 0.268167 0.020000
0.705851 0.267097 0.020000
0.741071 0.266028 0.020000
0.776292 0.264958 0.020000
0.811512 0.263888 0.020000
0.846732 0.262819 0.020000
0.881952 0.261749 0.020000
0.917172 0.260679 0.020000
0.952393 0.259610 0.020000
0.980000 0.258540 0.020000
0.980000 0.257470 0.020000
0.980000 0.256401 0.020000
0.980000 0.255331 0.020000
0.980000 0.254261 0.020000
0.980000 0.253192 0.020000
0.980000 0.252122 0.020000
0.980000 0.251052 0.020000
0.069260 0.319775 0.020000
0.107543 0.318705 0.020000
0.145825 0.317635 0.020000
0.184108 0.316566 0.020000
0.222391 0.315496 0.020000
0.260674 0.314426 0.020000
0.298957 0.313357 0.020000
0.337239 0.312287 0.020000
0.375522 0.311217 0.020000
0.413805 0.310148 0.020000
0.452088 0.309078 0.020000
0.490371 0.308008 0.020000
0.527961 0.306939 0.020000
0.563182 0.305869 0.020000
0.598402 0.304799 0.020000
0.633622 0.303730 0.020000
0.668842 0.302660 0.020000
0.704062 0.301590 0.020000
0.739283 0.300521 0.020000
0.774503 0.299451 0.020000
0.809723 0.298381 0.020000
0.844943 0.297312 0.020000
0.880163 0.296242 0.020000
0.915384 0.295172 0.020000
0.950604 0.294103 0.020000
0.980000 0.293033 0.020000
0.980000 0.291963 0.020000
0.980000 0.290894 0.020000
0.980000 0.289824 0.020000
0.980000 0.288754 0.020000
0.980000 0.287685 0.020000
0.980000 0.286615 0.020000
0.980000 0.285545 0.020000
0.067315 0.354268 0.020000
0.105598 0.353198 0.020000
0.143881 0.352129 0.020000
0.182164 0.351059 0.020000
0.220447 0.349989 0.020000
0.258729 0.348919 0.020000
0.297012 0.347850 0.020000
0.335295 0.346780 0.020000
0.373578 0.345710 0.020000
0.411861 0.344641 0.020000
0.450144 0.343571 0.020000
0.488426 0.342501 0.020000
0.526172 0.341432 0.020000
0.561393 0.340362 0.020000
0.596613 0.339292 0.020000
0.631833 0.338223 0.020000
0.667053 0.337153 0.020000
0.702273 0.336083 0.020000
0.737494 0.335014 0.020000
0.772714 0.333944 0.020000
0.807934 0.332874 0.020000
0.843154 0.331805 0.020000
0.878375 0.330735 0.020000
0.913595 0.329665 0.020000
0.948815 0.328596 0.020000
0.980000 0.327526 0.020000
0.980000 0.326456 0.020000
0.980000 0.325387 0.020000
0.980000 0.324317 0.020000
0.980000 0.323247 0.020000
0.980000 0.322178 0.020000
0.980000 0.321108 0.020000
0.980000 0.320038 0.020000
0.065371 0.388761 0.020000
0.103654 0.387691 0.020000
0.141936 0.386622 0.020000
0.180219 0.385552 0.020000
0.218502 0.384482 0.020000
0.256785 0.383413 0.020000
0.295068 0.382343 0.020000
0.333351 0.381273 0.020000
0.371633 0.380204 0.020000
0.409916 0.379134 0.020000
0.448199 0.378064 0.020000
0.486482 0.376994 0.020000
0.524384 0.375925 0.020000
0.559604 0.374855 0.020000
0.594824 0.373785 0.020000
0.630044 0.372716 0.020000
0.665264 0.371646 0.020000
0.700485 0.370576 0.020000
0.735705 0.369507 0.020000
0.770925 0.368437 0.020000
0.806145 0.367367 0.020000
0.841365 0.366298 0.020000
0.876586 0.365228 0.020000
0.911806 0.364158 0.020000
0.947026 0.363089 0.020000
0.980000 0.362019 0.020000
0.980000 0.360949 0.020000
0.980000 0.359880 0.020000
0.980000 0.358810 0.020000
0.980000 0.357740 0.020000
0.980000 0.356671 0.020000
0.980000 0.355601 0.020000
0.980000 0.354531 0.020000
0.063426 0.423254 0.020000
0.101709 0.422184 0.020000
0.139992 0.421115 0.020000
0.178275 0.420045 0.020000
0.216558 0.418975 0.020000
0.254840 0.417906 0.020000
0.293123 0.416836 0.020000
0.331406 0.415766 0.020000
0.369689 0.414697 0.020000
0.407972 0.413627 0.020000
0.446255 0.412557 0.020000
0.484537 0.411488 0.020000
0.522595 0.410418 0.020000
0.557815 0.409348 0.020000
0.593035 0.408279 0.020000
0.628255 0.407209 0.020000
0.663476 0.406139 0.020000
0.698696 0.405070 0.020000
0.733916 0.404000 0.020000
0.769136 0.402930 0.020000
0.804356 0.401860 0.020000
0.839577 0.400791 0.020000
0.874797 0.399721 0.020000
0.910017 0.398651 0.020000
0.945237 0.397582 0.020000
0.980000 0.396512 0.020000
0.980000 0.395442 0.020000
0.980000 0.394373 0.020000
0.980000 0.393303 0.020000
0.980000 0.392233 0.020000
0.980000 0.391164 0.020000
0.980000 0.390094 0.020000
0.980000 0.389024 0.020000
0.061482 0.457747 0.020000
0.099765 0.456677 0.020000
0.138048 0.455608 0.020000
0.176330 0.454538 0.020000
0.214613 0.453468 0.020000
0.252896 0.452399 0.020000
0.291179 0.451329 0.020000
0.329462 0.450259 0.020000
0.367745 0.449190 0.020000
0.406027 0.448120 0.020000
0.444310 0.447050 0.020000
0.482593 0.445981 0.020000
0.520806 0.444911 0.020000
0.556026 0.443841 0.020000
0.591246 0.442772 0.020000
0.626466 0.441702 0.020000
0.661687 0.440632 0.020000
0.696907 0.439563 0.020000
0.732127 0.438493 0.020000
0.767347 0.437423 0.020000
0.802567 0.436354 0.020000
0.837788 0.435284 0.020000
0.873008 0.434214 0.020000
0.908228 0.433145 0.020000
0.943448 0.432075 0.020000
0.978668 0.431005 0.020000
0.980000 0.429936 0.020000
0.980000 0.428866 0.020000
0.980000 0.427796 0.020000
0.980000 0.426727 0.020000
0.980000 0.425657 0.020000
0.980000 0.424587 0.020000
0.980000 0.423517 0.020000
0.059537 0.492240 0.020000
0.097820 0.491170 0.020000
0.136103 0.490101 0.020000
0.174386 0.489031 0.020000
0.212669 0.487961 0.020000
0.250952 0.486892 0.020000
0.289234 0.485822 0.020000
0.327517 0.484752 0.020000
0.365800 0.483683 0.020000
0.404083 0.482613 0.020000
0.442366 0.481543 0.020000
0.480649 0.480474 0.020000
0.518931 0.479404 0.020000
0.554237 0.478334 0.020000
0.589457 0.477265 0.020000
0.624677 0.476195 0.020000
0.659898 0.475125 0.020000
0.695118 0.474056 0.020000
0.730338 0.472986 0.020000
0.765558 0.471916 0.020000
0.800779 0.470847 0.020000
0.835999 0.469777 0.020000
0.871219 0.468707 0.020000
0.906439 0.467638 0.020000
0.941659 0.466568 0.020000
0.976880 0.465498 0.020000
0.980000 0.464429 0.020000
0.980000 0.463359 0.020000
0.980000 0.462289 0.020000
0.980000 0.461220 0.020000
0.980000 0.460150 0.020000
0.980000 0.459080 0.020000
0.980000 0.458011 0.020000
0.057593 0.526195 0.020000
0.095876 0.525210 0.020000
0.134159 0.524226 0.020000
0.172442 0.523242 0.020000
0.210724 0.522258 0.020000
0.249007 0.521274 0.020000
0.287290 0.520290 0.020000
0.325573 0.519245 0.020000
0.363856 0.518176 0.020000
0.402139 0.517106 0.020000
0.440421 0.516036 0.020000
0.478704 0.514967 0.020000
0.516987 0.513897 0.020000
0.552448 0.512827 0.020000
0.587668 0.511758 0.020000
0.622889 0.510688 0.020000
0.658109 0.509618 0.020000
0.693329 0.508549 0.020000
0.728549 0.507479 0.020000
0.763770 0.506409 0.020000
0.798990 0.505340 0.020000
0.834210 0.504270 0.020000
0.869430 0.503200 0.020000
0.904650 0.502131 0.020000
0.939870 0.501061 0.020000
0.975091 0.499991 0.020000
0.980000 0.498922 0.020000
0.980000 0.497852 0.020000
0.980000 0.496782 0.020000
0.980000 0.495713 0.020000
0.980000 0.494643 0.020000
0.980000 0.493573 0.020000
0.980000 0.492504 0.020000
0.055649 0.557928 0.020000
0.093931 0.556944 0.020000
0.132214 0.555960 0.020000
0.170497 0.554976 0.020000
0.208780 0.553992 0.020000
0.247063 0.553008 0.020000
0.285346 0.552023 0.020000
0.323628 0.551039 0.020000
0.361911 0.550055 0.020000
0.400194 0.549071 0.020000
0.438477 0.548087 0.020000
0.476760 0.547103 0.020000
0.515043 0.546119 0.020000
0.550659 0.545135 0.020000
0.585880 0.544151 0.020000
0.621100 0.543167 0.020000
0.656320 0.542183 0.020000
0.691540 0.541198 0.020000
0.726760 0.540214 0.020000
0.761981 0.539230 0.020000
0.797201 0.538246 0.020000
0.832421 0.537262 0.020000
0.867641 0.536278 0.020000
0.902861 0.535294 0.020000
0.938082 0.534310 0.020000
0.973302 0.533326 0.020000
0.980000 0.532342 0.020000
0.980000 0.531357 0.020000
0.980000 0.530373 0.020000
0.980000 0.529389 0.020000
0.980000 0.528405 0.020000
0.980000 0.527421 0.020000
0.980000 0.526437 0.020000
0.053704 0.589662 0.020000
0.091987 0.588678 0.020000
0.130270 0.587694 0.020000
0.168553 0.586709 0.020000
0.206836 0.585725 0.020000
0.245118 0.584741 0.020000
0.283401 0.583757 0.020000
0.321684 0.582773 0.020000
0.359967 0.581789 0.020000
0.398250 0.580805 0.020000
0.436532 0.579821 0.020000
0.474815 0.578837 0.020000
0.513098 0.577853 0.020000
0.548871 0.576868 0.020000
0.584091 0.575884 0.020000
0.619311 0.574900 0.020000
0.654531 0.573916 0.020000
0.689751 0.572932 0.020000
0.724972 0.571948 0.020000
0.760192 0.570964 0.020000
0.795412 0.569980 0.020000
0.830632 0.568996 0.020000
0.865852 0.568012 0.020000
0.901073 0.567027 0.020000
0.936293 0.566043 0.020000
0.971513 0.565059 0.020000
0.980000 0.564075 0.020000
0.980000 0.563091 0.020000
0.980000 0.562107 0.020000
0.980000 0.561123 0.020000
0.980000 0.560139 0.020000
0.980000 0.559155 0.020000
0.980000 0.558171 0.020000
0.051760 0.621395 0.020000
0.090043 0.620411 0.020000
0.128325 0.619427 0.020000
0.166608 0.618443 0.020000
0.204891 0.617459 0.020000
0.243174 0.616475 0.020000
0.281457 0.615491 0.020000
0.319740 0.614507 0.020000
0.358022 0.613522 0.020000
0.396305 0.612538 0.020000
0.434588 0.611554 0.020000
0.472871 0.610570 0.020000
0.511154 0.609586 0.020000
0.547082 0.608602 0.020000
0.582302 0.607618 0.020000
0.617522 0.606634 0.020000
0.652742 0.605650 0.020000
0.687962 0.604666 0.020000
0.723183 0.603682 0.020000
0.758403 0.602697 0.020000
0.793623 0.601713 0.020000
0.828843 0.600729 0.020000
0.864064 0.599745 0.020000
0.899284 0.598761 0.020000
0.934504 0.597777 0.020000
0.969724 0.596793 0.020000
0.980000 0.595809 0.020000
0.980000 0.594825 0.020000
0.980000 0.593841 0.020000
0.980000 0.592856 0.020000
0.980000 0.591872 0.020000
0.980000 0.590888 0.020000
0.980000 0.589904 0.020000
0.049815 0.653129 0.020000
0.088098 0.652145 0.020000
0.126381 0.651161 0.020000
0.164664 0.650177 0.020000
0.202947 0.649193 0.020000
0.241229 0.648208 0.020000
0.279512 0.647224 0.020000
0.317795 0.646240 0.020000
0.356078 0.645256 0.020000
0.394361 0.644272 0.020000
0.432644 0.643288 0.020000
0.470926 0.642304 0.020000
0.509209 0.641320 0.020000
0.545293 0.640336 0.020000
0.580513 0.639352 0.020000
0.615733 0.638367 0.020000
0.650953 0.637383 0.020000
0.686174 0.636399 0.020000
0.721394 0.635415 0.020000
0.756614 0.634431 0.020000
0.791834 0.633447 0.020000
0.827054 0.632463 0.020000
0.862275 0.631479 0.020000
0.897495 0.630495 0.020000
0.932715 0.629511 0.020000
0.967935 0.628526 0.020000
0.980000 0.627542 0.020000
0.980000 0.626558 0.020000
0.980000 0.625574 0.020000
0.980000 0.624590 0.020000
0.980000 0.623606 0.020000
0.980000 0.622622 0.020000
0.980000 0.621638 0.020000
0.047871 0.684863 0.020000
0.086154 0.683878 0.020000
0.124437 0.682894 0.020000
0.162719 0.681910 0.020000
0.201002 0.680926 0.020000
0.239285 0.679942 0.020000
0.277568 0.678958 0.020000
0.315851 0.677974 0.020000
0.354133 0.676990 0.020000
0.392416 0.676006 0.020000
0.430699 0.675022 0.020000
0.468982 0.674038 0.020000
0.507265 0.673053 0.020000
0.543504 0.672069 0.020000
0.578724 0.671085 0.020000
0.613944 0.670101 0.020000
0.649164 0.669117 0.020000
0.684385 0.668133 0.020000
0.719605 0.667149 0.020000
0.754825 0.666165 0.020000
0.790045 0.665181 0.020000
0.825265 0.664196 0.020000
0.860486 0.663212 0.020000
0.895706 0.662228 0.020000
0.930926 0.661244 0.020000
0.966146 0.660260 0.020000
0.980000 0.659276 0.020000
0.980000 0.658292 0.020000
0.980000 0.657308 0.020000
0.980000 0.656324 0.020000
0.980000 0.655340 0.020000
0.980000 0.654356 0.020000
0.980000 0.653371 0.020000
0.045926 0.716596 0.020000
0.084209 0.715612 0.020000
0.122492 0.714628 0.020000
0.160775 0.713644 0.020000
0.199058 0.712660 0.020000
0.237341 0.711676 0.020000
0.275623 0.710692 0.020000
0.313906 0.709707 0.020000
0.352189 0.708723 0.020000
0.390472 0.707739 0.020000
0.428755 0.706755 0.020000
0.467038 0.705771 0.020000
0.505320 0.704787 0.020000
0.541715 0.703803 0.020000
0.576935 0.702819 0.020000
0.612155 0.701835 0.020000
0.647376 0.700851 0.020000
0.682596 0.699866 0.020000
0.717816 0.698882 0.020000
0.753036 0.697898 0.020000
0.788256 0.696914 0.020000
0.823477 0.695930 0.020000
0.858697 0.694946 0.020000
0.893917 0.693962 0.020000
0.929137 0.692978 0.020000
0.964357 0.691994 0.020000
0.980000 0.691010 0.020000
0.980000 0.690026 0.020000
0.980000 0.689041 0.020000
0.980000 0.688057 0.020000
0.980000 0.687073 0.020000
0.980000 0.686089 0.020000
0.980000 0.685105 0.020000
0.043982 0.748330 0.020000
0.082265 0.747346 0.020000
0.120548 0.746362 0.020000
0.158830 0.745377 0.020000
0.197113 0.744393 0.020000
0.235396 0.743409 0.020000
0.273679 0.742425 0.020000
0.311962 0.741441 0.020000
0.350245 0.740457 0.020000
0.388527 0.739473 0.020000
0.426810 0.738489 0.020000
0.465093 0.737505 0.020000
0.503376 0.736521 0.020000
0.539926 0.735536 0.020000
0.575146 0.734552 0.020000
0.610366 0.733568 0.020000
0.645587 0.732584 0.020000
0.680807 0.731600 0.020000
0.716027 0.730616 0.020000
0.751247 0.729632 0.020000
0.786468 0.728648 0.020000
0.821688 0.727664 0.020000
0.856908 0.726680 0.020000
0.892128 0.725695 0.020000
0.927348 0.724711 0.020000
0.962569 0.723727 0.020000
0.980000 0.722743 0.020000
0.980000 0.721759 0.020000
0.980000 0.720775 0.020000
0.980000 0.719791 0.020000
0.980000 0.718807 0.020000
0.980000 0.717823 0.020000
0.980000 0.716839 0.020000
0.042038 0.780063 0.020000
0.080320 0.779079 0.020000
0.118603 0.778095 0.020000
0.156886 0.777111 0.020000
0.195169 0.776127 0.020000
0.233452 0.775143 0.020000
0.271735 0.774159 0.020000
0.310017 0.773175 0.020000
0.348300 0.772191 0.020000
0.386583 0.771207 0.020000
0.424866 0.770222 0.020000
0.463149 0.769238 0.020000
0.501431 0.768254 0.020000
0.538137 0.767270 0.020000
0.573357 0.766286 0.020000
0.608578 0.765302 0.020000
0.643798 0.764318 0.020000
0.679018 0.763334 0.020000
0.714238 0.762350 0.020000
0.749458 0.761366 0.020000
0.784679 0.760381 0.020000
0.819899 0.759397 0.020000
0.855119 0.758413 0.020000
0.890339 0.757429 0.020000
0.925559 0.756445 0.020000
0.960780 0.755461 0.020000
0.980000 0.754477 0.020000
0.980000 0.753493 0.020000
0.980000 0.752509 0.020000
0.980000 0.751525 0.020000
0.980000 0.750540 0.020000
0.980000 0.749556 0.020000
0.980000 0.748572 0.020000
0.040093 0.811797 0.020000
0.078376 0.810813 0.020000
0.116659 0.809829 0.020000
0.154942 0.808845 0.020000
0.193224 0.807861 0.020000
0.231507 0.806877 0.020000
0.269790 0.805892 0.020000
0.308073 0.804908 0.020000
0.346356 0.803924 0.020000
0.384639 0.802940 0.020000
0.422921 0.801956 0.020000
0.461204 0.800972 0.020000
0.499487 0.799988 0.020000
0.536348 0.799004 0.020000
0.571568 0.798020 0.020000
0.606789 0.797035 0.020000
0.642009 0.796051 0.020000
0.677229 0.795067 0.020000
0.712449 0.794083 0.020000
0.747670 0.793099 0.020000
0.782890 0.792115 0.020000
0.818110 0.791131 0.020000
0.853330 0.790147 0.020000
0.888550 0.789163 0.020000
0.923771 0.788179 0.020000
0.958991 0.787194 0.020000
0.980000 0.786210 0.020000
0.980000 0.785226 0.020000
0.980000 0.784242 0.020000
0.980000 0.783258 0.020000
0.980000 0.782274 0.020000
0.980000 0.781290 0.020000
0.980000 0.780306 0.020000
0.038149 0.843531 0.020000
0.076431 0.842547 0.020000
0.114714 0.841562 0.020000
0.152997 0.840578 0.020000
0.191280 0.839594 0.020000
0.229563 0.838610 0.020000
0.267846 0.837626 0.020000
0.306128 0.836642 0.020000
0.344411 0.835658 0.020000
0.382694 0.834674 0.020000
0.420977 0.833690 0.020000
0.459260 0.832706 0.020000
0.497543 0.831721 0.020000
0.534559 0.830737 0.020000
0.569780 0.829753 0.020000
0.605000 0.828769 0.020000
0.640220 0.827785 0.020000
0.675440 0.826801 0.020000
0.710660 0.825817 0.020000
0.745881 0.824833 0.020000
0.781101 0.823849 0.020000
0.816321 0.822865 0.020000
0.851541 0.821880 0.020000
0.886761 0.820896 0.020000
0.921982 0.819912 0.020000
0.957202 0.818928 0.020000
0.980000 0.817944 0.020000
0.980000 0.816960 0.020000
0.980000 0.815976 0.020000
0.980000 0.814992 0.020000
0.980000 0.814008 0.020000
0.980000 0.813024 0.020000
0.980000 0.812039 0.020000
0.036204 0.875264 0.020000
0.074487 0.874280 0.020000
0.112770 0.873296 0.020000
0.151053 0.872312 0.020000
0.189336 0.871328 0.020000
0.227618 0.870344 0.020000
0.265901 0.869360 0.020000
0.304184 0.868376 0.020000
0.342467 0.867391 0.020000
0.380750 0.866407 0.020000
0.419033 0.865423 0.020000
0.457315 0.864439 0.020000
0.495598 0.863455 0.020000
0.532771 0.862471 0.020000
0.567991 0.861487 0.020000
0.603211 0.860503 0.020000
0.638431 0.859519 0.020000
0.673651 0.858535 0.020000
0.708872 0.857550 0.020000
0.744092 0.856566 0.020000
0.779312 0.855582 0.020000
0.814532 0.854598 0.020000
0.849752 0.853614 0.020000
0.884973 0.852630 0.020000
