app/src/main/assets/luts/food_creamy.cube
# V-Cam procedural LUT — food_creamy
# Generated by LutBaker. Do not edit by hand.
TITLE "V-Cam food_creamy"
LUT_3D_SIZE 5
DOMAIN_MIN 0.0 0.0 0.0
DOMAIN_MAX 1.0 1.0 1.0
0.104707 0.082601 0.071221
0.205011 0.082635 0.071264
0.465893 0.083953 0.072783
0.806684 0.098435 0.088926
0.993895 0.120083 0.112338
0.104736 0.186258 0.071276
0.205033 0.186269 0.071323
0.465949 0.186780 0.073121
0.806774 0.193542 0.090027
0.994006 0.205070 0.113779
0.106448 0.452981 0.073740
0.205766 0.453009 0.073897
0.466295 0.453170 0.075059
0.807381 0.454946 0.097141
0.994751 0.458729 0.123049
0.124564 0.801493 0.097676
0.215126 0.801541 0.098047
0.468994 0.801832 0.100253
0.809322 0.802571 0.108385
0.996998 0.803508 0.147606
0.161159 0.996428 0.141498
0.237100 0.996490 0.142155
0.476959 0.996880 0.146193
0.811516 0.998019 0.157385
0.999010 0.999010 0.166505
0.104708 0.082609 0.176399
0.205016 0.082642 0.176404
0.465908 0.083996 0.176868
0.806707 0.098584 0.183770
0.993924 0.120284 0.195727
0.104736 0.186264 0.176417
0.205042 0.186271 0.176423
0.466008 0.186744 0.176952
0.806888 0.193400 0.184078
0.994147 0.204848 0.196188
0.106439 0.452997 0.177290
0.205695 0.453044 0.177266
0.466313 0.453185 0.177720
0.807475 0.454923 0.187578
0.994878 0.458672 0.201516
0.124622 0.801511 0.188323
0.214747 0.801617 0.188028
0.468897 0.801896 0.189133
0.809354 0.802600 0.193375
0.997078 0.803523 0.216729
0.161264 0.996454 0.213432
0.236336 0.996614 0.212903
0.476711 0.996989 0.215512
0.811497 0.998089 0.222967
0.999052 0.999052 0.229279
0.105013 0.083053 0.445092
0.205036 0.083216 0.445123
0.465983 0.084351 0.445275
0.806822 0.099862 0.446277
0.994065 0.122002 0.449465
0.105237 0.186378 0.445157
0.205141 0.186430 0.445240
0.466080 0.186878 0.445369
0.807012 0.193999 0.446440
0.994302 0.205770 0.449684
0.106734 0.453053 0.445479
0.205782 0.453102 0.445526
0.466387 0.453229 0.445639
0.808163 0.454646 0.447151
0.995739 0.458212 0.450851
0.126754 0.801514 0.448443
0.215646 0.801650 0.448346
0.468217 0.802291 0.447703
0.809537 0.802765 0.448834
0.997620 0.803596 0.456052
0.162544 0.996594 0.456392
0.237274 0.996738 0.456303
0.475020 0.997684 0.455084
0.811342 0.998536 0.457867
0.999318 0.999318 0.460381
0.109230 0.088392 0.794550
0.206762 0.088955 0.794612
0.465651 0.092313 0.794987
0.807470 0.101499 0.795902
0.994499 0.127146 0.795413
0.110028 0.188596 0.794671
0.207109 0.188773 0.794850
0.465843 0.190327 0.795211
0.807657 0.194737 0.796087
0.994727 0.208732 0.795617
0.115443 0.453230 0.795270
0.209808 0.453323 0.795467
0.466739 0.453687 0.796499
0.808695 0.454766 0.797104
0.996132 0.459159 0.796818
0.132231 0.801681 0.796890
0.218920 0.801780 0.796988
0.469078 0.802365 0.797559
0.809757 0.802945 0.798107
0.999100 0.803451 0.798652
0.166415 0.997026 0.798786
0.239788 0.997159 0.798851
0.476381 0.997921 0.799167
0.810663 0.999505 0.799111
0.999845 0.999845 0.799722
0.117561 0.098516 0.992305
0.210781 0.099437 0.992369
0.466139 0.105028 0.992765
0.806109 0.119931 0.993919
0.994919 0.131559 0.994919
0.118908 0.193346 0.992433
0.211375 0.193645 0.992671
0.466432 0.196480 0.993065
0.806359 0.204456 0.994207
0.995192 0.211068 0.995192
0.127780 0.454331 0.993176
0.216243 0.454472 0.993403
0.467979 0.455084 0.994982
0.807826 0.457426 0.996000
0.996822 0.459380 0.996822
0.151470 0.801384 0.995417
0.230262 0.801503 0.995589
0.472916 0.802155 0.996596
0.809882 0.803110 0.999115
0.999343 0.803562 0.999343
0.169899 0.997423 0.997423
0.242078 0.997546 0.997546
0.477233 0.998249 0.998249
0.810892 0.999634 0.999634
1.000000 1.000000 1.000000
