app/src/main/assets/luts/food_sweet.cube
# V-Cam procedural LUT — food_sweet
# Generated by LutBaker. Do not edit by hand.
TITLE "V-Cam food_sweet"
LUT_3D_SIZE 5
DOMAIN_MIN 0.0 0.0 0.0
DOMAIN_MAX 1.0 1.0 1.0
0.027730 0.000000 0.000000
0.342832 0.000000 0.000000
0.657934 0.000000 0.000000
0.973036 0.000000 0.000000
1.000000 0.000000 0.000000
0.000000 0.283440 0.000000
0.309256 0.265482 0.000000
0.624358 0.247524 0.000000
0.939460 0.229566 0.000000
1.000000 0.211608 0.000000
0.000000 0.567064 0.000000
0.275680 0.549106 0.000000
0.590782 0.531148 0.000000
0.905884 0.513190 0.000000
1.000000 0.495232 0.000000
0.000000 0.850687 0.000000
0.242103 0.832729 0.000000
0.557205 0.814772 0.000000
0.872307 0.796814 0.000000
1.000000 0.778856 0.000000
0.000000 1.000000 0.000000
0.208527 1.000000 0.000000
0.523629 1.000000 0.000000
0.838731 1.000000 0.000000
1.000000 1.000000 0.000000
0.022923 0.000000 0.203473
0.338025 0.000000 0.185515
0.653127 0.000000 0.167557
0.968229 0.000000 0.149600
1.000000 0.000000 0.131642
0.000000 0.278633 0.169897
0.304449 0.260675 0.151939
0.619551 0.242717 0.133981
0.934653 0.224759 0.116023
1.000000 0.206801 0.098065
0.000000 0.562257 0.136321
0.270872 0.544299 0.118363
0.585974 0.526341 0.100405
0.901076 0.508383 0.082447
1.000000 0.490425 0.064489
0.000000 0.845880 0.102744
0.237296 0.827922 0.084786
0.552398 0.809964 0.066828
0.867500 0.792006 0.048870
1.000000 0.774049 0.030912
0.000000 1.000000 0.069168
0.203720 1.000000 0.051210
0.518822 1.000000 0.033252
0.833924 1.000000 0.015294
1.000000 1.000000 0.000000
0.016598 0.000000 0.504832
0.331700 0.000000 0.486874
0.646802 0.000000 0.468916
0.961904 0.000000 0.450958
1.000000 0.000000 0.433000
0.000000 0.272308 0.471256
0.298124 0.254350 0.453298
0.613226 0.236392 0.435340
0.928328 0.218434 0.417382
1.000000 0.200476 0.399424
0.000000 0.555932 0.437679
0.264547 0.537974 0.419721
0.579649 0.520016 0.401763
0.894751 0.502058 0.383806
1.000000 0.484100 0.365848
0.000000 0.839555 0.404103
0.230971 0.821597 0.386145
0.546073 0.803639 0.368187
0.861175 0.785681 0.350229
1.000000 0.767723 0.332271
0.000000 1.000000 0.370527
0.197394 1.000000 0.352569
0.512496 1.000000 0.334611
0.827598 1.000000 0.316653
1.000000 1.000000 0.298695
0.010273 0.000000 0.806191
0.325375 0.000000 0.788233
0.640477 0.000000 0.770275
0.955579 0.000000 0.752317
1.000000 0.000000 0.734359
0.000000 0.265983 0.772615
0.291798 0.248025 0.754657
0.606900 0.230067 0.736699
0.922002 0.212109 0.718741
1.000000 0.194151 0.700783
0.000000 0.549606 0.739038
0.258222 0.531648 0.721080
0.573324 0.513690 0.703122
0.888426 0.495732 0.685164
1.000000 0.477775 0.667206
0.000000 0.833230 0.705462
0.224646 0.815272 0.687504
0.539748 0.797314 0.669546
0.854850 0.779356 0.651588
1.000000 0.761398 0.633630
0.000000 1.000000 0.671885
0.191069 1.000000 0.653927
0.506171 1.000000 0.635970
0.821273 1.000000 0.618012
1.000000 1.000000 0.600054
0.003948 0.000000 1.000000
0.319050 0.000000 1.000000
0.634152 0.000000 1.000000
0.949254 0.000000 1.000000
1.000000 0.000000 1.000000
0.000000 0.259658 1.000000
0.285473 0.241700 1.000000
0.600575 0.223742 1.000000
0.915677 0.205784 1.000000
1.000000 0.187826 1.000000
0.000000 0.543281 1.000000
0.251897 0.525323 1.000000
0.566999 0.507365 1.000000
0.882101 0.489407 0.986523
1.000000 0.471449 0.968565
0.000000 0.826905 1.000000
0.218320 0.808947 0.988863
0.533422 0.790989 0.970905
0.848525 0.773031 0.952947
1.000000 0.755073 0.934989
0.000000 1.000000 0.973244
0.184744 1.000000 0.955286
0.499846 1.000000 0.937328
0.814948 1.000000 0.919370
1.000000 1.000000 0.901412
