app/src/main/assets/luts/food_sweet.cube
# V-Cam procedural LUT — food_sweet
# Generated by LutBaker. Do not edit by hand.
TITLE "V-Cam food_sweet"
LUT_3D_SIZE 33
DOMAIN_MIN 0.0 0.0 0.0
DOMAIN_MAX 1.0 1.0 1.0
0.027730 0.000000 0.000000
0.067118 0.000000 0.000000
0.106506 0.000000 0.000000
0.145893 0.000000 0.000000
0.185281 0.000000 0.000000
0.224669 0.000000 0.000000
0.264057 0.000000 0.000000
0.303445 0.000000 0.000000
0.342832 0.000000 0.000000
0.382220 0.000000 0.000000
0.421608 0.000000 0.000000
0.460996 0.000000 0.000000
0.500383 0.000000 0.000000
0.539771 0.000000 0.000000
0.579159 0.000000 0.000000
0.618547 0.000000 0.000000
0.657934 0.000000 0.000000
0.697322 0.000000 0.000000
0.736710 0.000000 0.000000
0.776098 0.000000 0.000000
0.815485 0.000000 0.000000
0.854873 0.000000 0.000000
0.894261 0.000000 0.000000
0.933649 0.000000 0.000000
0.973036 0.000000 0.000000
1.000000 0.000000 0.000000
1.000000 0.000000 0.000000
1.000000 0.000000 0.000000
1.000000 0.000000 0.000000
1.000000 0.000000 0.000000
1.000000 0.000000 0.000000
1.000000 0.000000 0.000000
1.000000 0.000000 0.000000
0.023533 0.035270 0.000000
0.062921 0.033025 0.000000
0.102309 0.030780 0.000000
0.141696 0.028535 0.000000
0.181084 0.026291 0.000000
0.220472 0.024046 0.000000
0.259860 0.021801 0.000000
0.299247 0.019556 0.000000
0.338635 0.017312 0.000000
0.378023 0.015067 0.000000
0.417411 0.012822 0.000000
0.456798 0.010577 0.000000
0.496186 0.008333 0.000000
0.535574 0.006088 0.000000
0.574962 0.003843 0.000000
0.614350 0.001598 0.000000
0.653737 0.000000 0.000000
0.693125 0.000000 0.000000
0.732513 0.000000 0.000000
0.771901 0.000000 0.000000
0.811288 0.000000 0.000000
0.850676 0.000000 0.000000
0.890064 0.000000 0.000000
0.929452 0.000000 0.000000
0.968839 0.000000 0.000000
1.000000 0.000000 0.000000
1.000000 0.000000 0.000000
1.000000 0.000000 0.000000
1.000000 0.000000 0.000000
1.000000 0.000000 0.000000
1.000000 0.000000 0.000000
1.000000 0.000000 0.000000
1.000000 0.000000 0.000000
0.019336 0.070722 0.000000
0.058724 0.068478 0.000000
0.098112 0.066233 0.000000
0.137499 0.063988 0.000000
0.176887 0.061744 0.000000
0.216275 0.059499 0.000000
0.255663 0.057254 0.000000
0.295050 0.055009 0.000000
0.334438 0.052765 0.000000
0.373826 0.050520 0.000000
0.413214 0.048275 0.000000
0.452601 0.046030 0.000000
0.491989 0.043786 0.000000
0.531377 0.041541 0.000000
0.570765 0.039296 0.000000
0.610152 0.037051 0.000000
0.649540 0.034807 0.000000
0.688928 0.032562 0.000000
0.728316 0.030317 0.000000
0.767704 0.028072 0.000000
0.807091 0.025828 0.000000
0.846479 0.023583 0.000000
0.885867 0.021338 0.000000
0.925255 0.019093 0.000000
0.964642 0.016849 0.000000
1.000000 0.014604 0.000000
1.000000 0.012359 0.000000
1.000000 0.010114 0.000000
1.000000 0.007870 0.000000
1.000000 0.005625 0.000000
1.000000 0.003380 0.000000
1.000000 0.001135 0.000000
1.000000 0.000000 0.000000
0.015139 0.106175 0.000000
0.054527 0.103931 0.000000
0.093915 0.101686 0.000000
0.133302 0.099441 0.000000
0.172690 0.097196 0.000000
0.212078 0.094952 0.000000
0.251466 0.092707 0.000000
0.290853 0.090462 0.000000
0.330241 0.088217 0.000000
0.369629 0.085973 0.000000
0.409017 0.083728 0.000000
0.448404 0.081483 0.000000
0.487792 0.079239 0.000000
0.527180 0.076994 0.000000
0.566568 0.074749 0.000000
0.605955 0.072504 0.000000
0.645343 0.070260 0.000000
0.684731 0.068015 0.000000
0.724119 0.065770 0.000000
0.763507 0.063525 0.000000
0.802894 0.061281 0.000000
0.842282 0.059036 0.000000
0.881670 0.056791 0.000000
0.921057 0.054546 0.000000
0.960445 0.052302 0.000000
0.999833 0.050057 0.000000
1.000000 0.047812 0.000000
1.000000 0.045567 0.000000
1.000000 0.043323 0.000000
1.000000 0.041078 0.000000
1.000000 0.038833 0.000000
1.000000 0.036588 0.000000
1.000000 0.034344 0.000000
0.010942 0.141628 0.000000
0.050330 0.139384 0.000000
0.089718 0.137139 0.000000
0.129105 0.134894 0.000000
0.168493 0.132649 0.000000
0.207881 0.130405 0.000000
0.247269 0.128160 0.000000
0.286656 0.125915 0.000000
0.326044 0.123670 0.000000
0.365432 0.121426 0.000000
0.404820 0.119181 0.000000
0.444207 0.116936 0.000000
0.483595 0.114691 0.000000
0.522983 0.112447 0.000000
0.562371 0.110202 0.000000
0.601758 0.107957 0.000000
0.641146 0.105713 0.000000
0.680534 0.103468 0.000000
0.719922 0.101223 0.000000
0.759309 0.098978 0.000000
0.798697 0.096734 0.000000
0.838085 0.094489 0.000000
0.877473 0.092244 0.000000
0.916860 0.089999 0.000000
0.956248 0.087755 0.000000
0.995636 0.085510 0.000000
1.000000 0.083265 0.000000
1.000000 0.081020 0.000000
1.000000 0.078776 0.000000
1.000000 0.076531 0.000000
1.000000 0.074286 0.000000
1.000000 0.072041 0.000000
1.000000 0.069797 0.000000
0.006745 0.177081 0.000000
0.046133 0.174837 0.000000
0.085521 0.172592 0.000000
0.124908 0.170347 0.000000
0.164296 0.168102 0.000000
0.203684 0.165858 0.000000
0.243071 0.163613 0.000000
0.282459 0.161368 0.000000
0.321847 0.159123 0.000000
0.361235 0.156879 0.000000
0.400623 0.154634 0.000000
0.440010 0.152389 0.000000
0.479398 0.150144 0.000000
0.518786 0.147900 0.000000
0.558174 0.145655 0.000000
0.597561 0.143410 0.000000
0.636949 0.141165 0.000000
0.676337 0.138921 0.000000
0.715725 0.136676 0.000000
0.755112 0.134431 0.000000
0.794500 0.132186 0.000000
0.833888 0.129942 0.000000
0.873276 0.127697 0.000000
0.912663 0.125452 0.000000
0.952051 0.123208 0.000000
0.991439 0.120963 0.000000
1.000000 0.118718 0.000000
1.000000 0.116473 0.000000
1.000000 0.114229 0.000000
1.000000 0.111984 0.000000
1.000000 0.109739 0.000000
1.000000 0.107494 0.000000
1.000000 0.105250 0.000000
0.002548 0.212534 0.000000
0.041936 0.210290 0.000000
0.081323 0.208045 0.000000
0.120711 0.205800 0.000000
0.160099 0.203555 0.000000
0.199487 0.201311 0.000000
0.238874 0.199066 0.000000
0.278262 0.196821 0.000000
0.317650 0.194576 0.000000
0.357038 0.192332 0.000000
0.396425 0.190087 0.000000
0.435813 0.187842 0.000000
0.475201 0.185597 0.000000
0.514589 0.183353 0.000000
0.553977 0.181108 0.000000
0.593364 0.178863 0.000000
0.632752 0.176618 0.000000
0.672140 0.174374 0.000000
0.711528 0.172129 0.000000
0.750915 0.169884 0.000000
0.790303 0.167639 0.000000
0.829691 0.165395 0.000000
0.869079 0.163150 0.000000
0.908466 0.160905 0.000000
0.947854 0.158660 0.000000
0.987242 0.156416 0.000000
1.000000 0.154171 0.000000
1.000000 0.151926 0.000000
1.000000 0.149682 0.000000
1.000000 0.147437 0.000000
1.000000 0.145192 0.000000
1.000000 0.142947 0.000000
1.000000 0.140703 0.000000
0.000000 0.247987 0.000000
0.037739 0.245742 0.000000
0.077126 0.243498 0.000000
0.116514 0.241253 0.000000
0.155902 0.239008 0.000000
0.195290 0.236764 0.000000
0.234677 0.234519 0.000000
0.274065 0.232274 0.000000
0.313453 0.230029 0.000000
0.352841 0.227785 0.000000
0.392228 0.225540 0.000000
0.431616 0.223295 0.000000
0.471004 0.221050 0.000000
0.510392 0.218806 0.000000
0.549780 0.216561 0.000000
0.589167 0.214316 0.000000
0.628555 0.212071 0.000000
0.667943 0.209827 0.000000
0.707330 0.207582 0.000000
0.746718 0.205337 0.000000
0.786106 0.203092 0.000000
0.825494 0.200848 0.000000
0.864882 0.198603 0.000000
0.904269 0.196358 0.000000
0.943657 0.194113 0.000000
0.983045 0.191869 0.000000
1.000000 0.189624 0.000000
1.000000 0.187379 0.000000
1.000000 0.185134 0.000000
1.000000 0.182890 0.000000
1.000000 0.180645 0.000000
1.000000 0.178400 0.000000
1.000000 0.176155 0.000000
0.000000 0.283440 0.000000
0.033542 0.281195 0.000000
0.072929 0.278951 0.000000
0.112317 0.276706 0.000000
0.151705 0.274461 0.000000
0.191093 0.272216 0.000000
0.230480 0.269972 0.000000
0.269868 0.267727 0.000000
0.309256 0.265482 0.000000
0.348644 0.263238 0.000000
0.388031 0.260993 0.000000
0.427419 0.258748 0.000000
0.466807 0.256503 0.000000
0.506195 0.254259 0.000000
0.545582 0.252014 0.000000
0.584970 0.249769 0.000000
0.624358 0.247524 0.000000
0.663746 0.245280 0.000000
0.703133 0.243035 0.000000
0.742521 0.240790 0.000000
0.781909 0.238545 0.000000
0.821297 0.236301 0.000000
0.860685 0.234056 0.000000
0.900072 0.231811 0.000000
0.939460 0.229566 0.000000
0.978848 0.227322 0.000000
1.000000 0.225077 0.000000
1.000000 0.222832 0.000000
1.000000 0.220587 0.000000
1.000000 0.218343 0.000000
1.000000 0.216098 0.000000
1.000000 0.213853 0.000000
1.000000 0.211608 0.000000
0.000000 0.318893 0.000000
0.029345 0.316648 0.000000
0.068732 0.314404 0.000000
0.108120 0.312159 0.000000
0.147508 0.309914 0.000000
0.186896 0.307669 0.000000
0.226283 0.305425 0.000000
0.265671 0.303180 0.000000
0.305059 0.300935 0.000000
0.344447 0.298691 0.000000
0.383834 0.296446 0.000000
0.423222 0.294201 0.000000
0.462610 0.291956 0.000000
0.501998 0.289712 0.000000
0.541385 0.287467 0.000000
0.580773 0.285222 0.000000
0.620161 0.282977 0.000000
0.659549 0.280733 0.000000
0.698936 0.278488 0.000000
0.738324 0.276243 0.000000
0.777712 0.273998 0.000000
0.817100 0.271754 0.000000
0.856488 0.269509 0.000000
0.895875 0.267264 0.000000
0.935263 0.265019 0.000000
0.974651 0.262775 0.000000
1.000000 0.260530 0.000000
1.000000 0.258285 0.000000
1.000000 0.256040 0.000000
1.000000 0.253796 0.000000
1.000000 0.251551 0.000000
1.000000 0.249306 0.000000
1.000000 0.247061 0.000000
0.000000 0.354346 0.000000
0.025148 0.352101 0.000000
0.064535 0.349857 0.000000
0.103923 0.347612 0.000000
0.143311 0.345367 0.000000
0.182699 0.343122 0.000000
0.222086 0.340878 0.000000
0.261474 0.338633 0.000000
0.300862 0.336388 0.000000
0.340250 0.334143 0.000000
0.379637 0.331899 0.000000
0.419025 0.329654 0.000000
0.458413 0.327409 0.000000
0.497801 0.325164 0.000000
0.537188 0.322920 0.000000
0.576576 0.320675 0.000000
0.615964 0.318430 0.000000
0.655352 0.316186 0.000000
0.694739 0.313941 0.000000
0.734127 0.311696 0.000000
0.773515 0.309451 0.000000
0.812903 0.307207 0.000000
0.852290 0.304962 0.000000
0.891678 0.302717 0.000000
0.931066 0.300472 0.000000
0.970454 0.298228 0.000000
1.000000 0.295983 0.000000
1.000000 0.293738 0.000000
1.000000 0.291493 0.000000
1.000000 0.289249 0.000000
1.000000 0.287004 0.000000
1.000000 0.284759 0.000000
1.000000 0.282514 0.000000
0.000000 0.389799 0.000000
0.020950 0.387554 0.000000
0.060338 0.385310 0.000000
0.099726 0.383065 0.000000
0.139114 0.380820 0.000000
0.178501 0.378575 0.000000
0.217889 0.376331 0.000000
0.257277 0.374086 0.000000
0.296665 0.371841 0.000000
0.336053 0.369596 0.000000
0.375440 0.367352 0.000000
0.414828 0.365107 0.000000
0.454216 0.362862 0.000000
0.493604 0.360617 0.000000
0.532991 0.358373 0.000000
0.572379 0.356128 0.000000
0.611767 0.353883 0.000000
0.651155 0.351638 0.000000
0.690542 0.349394 0.000000
0.729930 0.347149 0.000000
0.769318 0.344904 0.000000
0.808706 0.342660 0.000000
0.848093 0.340415 0.000000
0.887481 0.338170 0.000000
0.926869 0.335925 0.000000
0.966257 0.333681 0.000000
1.000000 0.331436 0.000000
1.000000 0.329191 0.000000
1.000000 0.326946 0.000000
1.000000 0.324702 0.000000
1.000000 0.322457 0.000000
1.000000 0.320212 0.000000
1.000000 0.317967 0.000000
0.000000 0.425252 0.000000
0.016753 0.423007 0.000000
0.056141 0.420763 0.000000
0.095529 0.418518 0.000000
0.134917 0.416273 0.000000
0.174304 0.414028 0.000000
0.213692 0.411784 0.000000
0.253080 0.409539 0.000000
0.292468 0.407294 0.000000
0.331855 0.405049 0.000000
0.371243 0.402805 0.000000
0.410631 0.400560 0.000000
0.450019 0.398315 0.000000
0.489406 0.396070 0.000000
0.528794 0.393826 0.000000
0.568182 0.391581 0.000000
0.607570 0.389336 0.000000
0.646958 0.387091 0.000000
0.686345 0.384847 0.000000
0.725733 0.382602 0.000000
0.765121 0.380357 0.000000
0.804508 0.378112 0.000000
0.843896 0.375868 0.000000
0.883284 0.373623 0.000000
0.922672 0.371378 0.000000
0.962059 0.369133 0.000000
1.000000 0.366889 0.000000
1.000000 0.364644 0.000000
1.000000 0.362399 0.000000
1.000000 0.360154 0.000000
1.000000 0.357910 0.000000
1.000000 0.355665 0.000000
1.000000 0.353420 0.000000
0.000000 0.460705 0.000000
0.012556 0.458460 0.000000
0.051944 0.456216 0.000000
0.091332 0.453971 0.000000
0.130720 0.451726 0.000000
0.170107 0.449481 0.000000
0.209495 0.447237 0.000000
0.248883 0.444992 0.000000
0.288271 0.442747 0.000000
0.327658 0.440502 0.000000
0.367046 0.438258 0.000000
0.406434 0.436013 0.000000
0.445822 0.433768 0.000000
0.485209 0.431523 0.000000
0.524597 0.429279 0.000000
0.563985 0.427034 0.000000
0.603373 0.424789 0.000000
0.642760 0.422544 0.000000
0.682148 0.420300 0.000000
0.721536 0.418055 0.000000
0.760924 0.415810 0.000000
0.800311 0.413565 0.000000
0.839699 0.411321 0.000000
0.879087 0.409076 0.000000
0.918475 0.406831 0.000000
0.957862 0.404586 0.000000
0.997250 0.402342 0.000000
1.000000 0.400097 0.000000
1.000000 0.397852 0.000000
1.000000 0.395607 0.000000
1.000000 0.393363 0.000000
1.000000 0.391118 0.000000
1.000000 0.388873 0.000000
0.000000 0.496158 0.000000
0.008359 0.493913 0.000000
0.047747 0.491668 0.000000
0.087135 0.489424 0.000000
0.126523 0.487179 0.000000
0.165910 0.484934 0.000000
0.205298 0.482689 0.000000
0.244686 0.480445 0.000000
0.284074 0.478200 0.000000
0.323461 0.475955 0.000000
0.362849 0.473710 0.000000
0.402237 0.471466 0.000000
0.441625 0.469221 0.000000
0.481012 0.466976 0.000000
0.520400 0.464732 0.000000
0.559788 0.462487 0.000000
0.599176 0.460242 0.000000
0.638563 0.457997 0.000000
0.677951 0.455753 0.000000
0.717339 0.453508 0.000000
0.756727 0.451263 0.000000
0.796114 0.449018 0.000000
0.835502 0.446774 0.000000
0.874890 0.444529 0.000000
0.914278 0.442284 0.000000
0.953665 0.440039 0.000000
0.993053 0.437795 0.000000
1.000000 0.435550 0.000000
1.000000 0.433305 0.000000
1.000000 0.431060 0.000000
1.000000 0.428816 0.000000
1.000000 0.426571 0.000000
1.000000 0.424326 0.000000
0.000000 0.531611 0.000000
0.004162 0.529366 0.000000
0.043550 0.527121 0.000000
0.082938 0.524877 0.000000
0.122325 0.522632 0.000000
0.161713 0.520387 0.000000
0.201101 0.518142 0.000000
0.240489 0.515898 0.000000
0.279877 0.513653 0.000000
0.319264 0.511408 0.000000
0.358652 0.509163 0.000000
0.398040 0.506919 0.000000
0.437428 0.504674 0.000000
0.476815 0.502429 0.000000
0.516203 0.500185 0.000000
0.555591 0.497940 0.000000
0.594979 0.495695 0.000000
0.634366 0.493450 0.000000
0.673754 0.491206 0.000000
0.713142 0.488961 0.000000
0.752530 0.486716 0.000000
0.791917 0.484471 0.000000
0.831305 0.482227 0.000000
0.870693 0.479982 0.000000
0.910081 0.477737 0.000000
0.949468 0.475492 0.000000
0.988856 0.473248 0.000000
1.000000 0.471003 0.000000
1.000000 0.468758 0.000000
1.000000 0.466513 0.000000
1.000000 0.464269 0.000000
1.000000 0.462024 0.000000
1.000000 0.459779 0.000000
0.000000 0.567064 0.000000
0.000000 0.564819 0.000000
0.039353 0.562574 0.000000
0.078741 0.560330 0.000000
0.118128 0.558085 0.000000
0.157516 0.555840 0.000000
0.196904 0.553595 0.000000
0.236292 0.551351 0.000000
0.275680 0.549106 0.000000
0.315067 0.546861 0.000000
0.354455 0.544616 0.000000
0.393843 0.542372 0.000000
0.433231 0.540127 0.000000
0.472618 0.537882 0.000000
0.512006 0.535637 0.000000
0.551394 0.533393 0.000000
0.590782 0.531148 0.000000
0.630169 0.528903 0.000000
0.669557 0.526658 0.000000
0.708945 0.524414 0.000000
0.748333 0.522169 0.000000
0.787720 0.519924 0.000000
0.827108 0.517679 0.000000
0.866496 0.515435 0.000000
0.905884 0.513190 0.000000
0.945271 0.510945 0.000000
0.984659 0.508700 0.000000
1.000000 0.506456 0.000000
1.000000 0.504211 0.000000
1.000000 0.501966 0.000000
1.000000 0.499722 0.000000
1.000000 0.497477 0.000000
1.000000 0.495232 0.000000
0.000000 0.602517 0.000000
0.000000 0.600272 0.000000
0.035156 0.598027 0.000000
0.074544 0.595783 0.000000
0.113931 0.593538 0.000000
0.153319 0.591293 0.000000
0.192707 0.589048 0.000000
0.232095 0.586804 0.000000
0.271482 0.584559 0.000000
0.310870 0.582314 0.000000
0.350258 0.580069 0.000000
0.389646 0.577825 0.000000
0.429033 0.575580 0.000000
0.468421 0.573335 0.000000
0.507809 0.571090 0.000000
0.547197 0.568846 0.000000
0.586584 0.566601 0.000000
0.625972 0.564356 0.000000
0.665360 0.562111 0.000000
0.704748 0.559867 0.000000
0.744135 0.557622 0.000000
0.783523 0.555377 0.000000
0.822911 0.553132 0.000000
0.862299 0.550888 0.000000
0.901687 0.548643 0.000000
0.941074 0.546398 0.000000
0.980462 0.544153 0.000000
1.000000 0.541909 0.000000
1.000000 0.539664 0.000000
1.000000 0.537419 0.000000
1.000000 0.535174 0.000000
1.000000 0.532930 0.000000
1.000000 0.530685 0.000000
0.000000 0.637970 0.000000
0.000000 0.635725 0.000000
0.030959 0.633480 0.000000
0.070347 0.631235 0.000000
0.109734 0.628991 0.000000
0.149122 0.626746 0.000000
0.188510 0.624501 0.000000
0.227898 0.622257 0.000000
0.267285 0.620012 0.000000
0.306673 0.617767 0.000000
0.346061 0.615522 0.000000
0.385449 0.613278 0.000000
0.424836 0.611033 0.000000
0.464224 0.608788 0.000000
0.503612 0.606543 0.000000
0.543000 0.604299 0.000000
0.582387 0.602054 0.000000
0.621775 0.599809 0.000000
0.661163 0.597564 0.000000
0.700551 0.595320 0.000000
0.739938 0.593075 0.000000
0.779326 0.590830 0.000000
0.818714 0.588585 0.000000
0.858102 0.586341 0.000000
0.897489 0.584096 0.000000
0.936877 0.581851 0.000000
0.976265 0.579606 0.000000
1.000000 0.577362 0.000000
1.000000 0.575117 0.000000
1.000000 0.572872 0.000000
1.000000 0.570627 0.000000
1.000000 0.568383 0.000000
1.000000 0.566138 0.000000
0.000000 0.673423 0.000000
0.000000 0.671178 0.000000
0.026762 0.668933 0.000000
0.066150 0.666688 0.000000
0.105537 0.664444 0.000000
0.144925 0.662199 0.000000
0.184313 0.659954 0.000000
0.223701 0.657709 0.000000
0.263088 0.655465 0.000000
0.302476 0.653220 0.000000
0.341864 0.650975 0.000000
0.381252 0.648730 0.000000
0.420639 0.646486 0.000000
0.460027 0.644241 0.000000
0.499415 0.641996 0.000000
0.538803 0.639751 0.000000
0.578190 0.637507 0.000000
0.617578 0.635262 0.000000
0.656966 0.633017 0.000000
0.696354 0.630773 0.000000
0.735741 0.628528 0.000000
0.775129 0.626283 0.000000
0.814517 0.624038 0.000000
0.853905 0.621794 0.000000
0.893292 0.619549 0.000000
0.932680 0.617304 0.000000
0.972068 0.615059 0.000000
1.000000 0.612815 0.000000
1.000000 0.610570 0.000000
1.000000 0.608325 0.000000
1.000000 0.606080 0.000000
1.000000 0.603836 0.000000
1.000000 0.601591 0.000000
0.000000 0.708876 0.000000
0.000000 0.706631 0.000000
0.022565 0.704386 0.000000
0.061952 0.702141 0.000000
0.101340 0.699897 0.000000
0.140728 0.697652 0.000000
0.180116 0.695407 0.000000
0.219504 0.693162 0.000000
0.258891 0.690918 0.000000
0.298279 0.688673 0.000000
0.337667 0.686428 0.000000
0.377055 0.684183 0.000000
0.416442 0.681939 0.000000
0.455830 0.679694 0.000000
0.495218 0.677449 0.000000
0.534606 0.675204 0.000000
0.573993 0.672960 0.000000
0.613381 0.670715 0.000000
0.652769 0.668470 0.000000
0.692157 0.666225 0.000000
0.731544 0.663981 0.000000
0.770932 0.661736 0.000000
0.810320 0.659491 0.000000
0.849708 0.657247 0.000000
0.889095 0.655002 0.000000
0.928483 0.652757 0.000000
0.967871 0.650512 0.000000
1.000000 0.648268 0.000000
1.000000 0.646023 0.000000
1.000000 0.643778 0.000000
1.000000 0.641533 0.000000
1.000000 0.639289 0.000000
1.000000 0.637044 0.000000
0.000000 0.744328 0.000000
0.000000 0.742084 0.000000
0.018368 0.739839 0.000000
0.057755 0.737594 0.000000
0.097143 0.735350 0.000000
0.136531 0.733105 0.000000
0.175919 0.730860 0.000000
0.215306 0.728615 0.000000
0.254694 0.726371 0.000000
0.294082 0.724126 0.000000
0.333470 0.721881 0.000000
0.372858 0.719636 0.000000
0.412245 0.717392 0.000000
0.451633 0.715147 0.000000
0.491021 0.712902 0.000000
0.530409 0.710657 0.000000
0.569796 0.708413 0.000000
0.609184 0.706168 0.000000
0.648572 0.703923 0.000000
0.687960 0.701678 0.000000
0.727347 0.699434 0.000000
0.766735 0.697189 0.000000
0.806123 0.694944 0.000000
0.845511 0.692699 0.000000
0.884898 0.690455 0.000000
0.924286 0.688210 0.000000
0.963674 0.685965 0.000000
1.000000 0.683720 0.000000
1.000000 0.681476 0.000000
1.000000 0.679231 0.000000
1.000000 0.676986 0.000000
1.000000 0.674742 0.000000
1.000000 0.672497 0.000000
0.000000 0.779782 0.000000
0.000000 0.777537 0.000000
0.014171 0.775292 0.000000
0.053558 0.773047 0.000000
0.092946 0.770802 0.000000
0.132334 0.768558 0.000000
0.171722 0.766313 0.000000
0.211109 0.764068 0.000000
0.250497 0.761824 0.000000
0.289885 0.759579 0.000000
0.329273 0.757334 0.000000
0.368660 0.755089 0.000000
0.408048 0.752845 0.000000
0.447436 0.750600 0.000000
0.486824 0.748355 0.000000
0.526212 0.746110 0.000000
0.565599 0.743866 0.000000
0.604987 0.741621 0.000000
0.644375 0.739376 0.000000
0.683763 0.737131 0.000000
0.723150 0.734887 0.000000
0.762538 0.732642 0.000000
0.801926 0.730397 0.000000
0.841314 0.728152 0.000000
0.880701 0.725908 0.000000
0.920089 0.723663 0.000000
0.959477 0.721418 0.000000
0.998865 0.719173 0.000000
1.000000 0.716929 0.000000
1.000000 0.714684 0.000000
1.000000 0.712439 0.000000
1.000000 0.710194 0.000000
1.000000 0.707950 0.000000
0.000000 0.815234 0.000000
0.000000 0.812990 0.000000
0.009974 0.810745 0.000000
0.049361 0.808500 0.000000
0.088749 0.806255 0.000000
0.128137 0.804011 0.000000
0.167525 0.801766 0.000000
0.206912 0.799521 0.000000
0.246300 0.797276 0.000000
0.285688 0.795032 0.000000
0.325076 0.792787 0.000000
0.364463 0.790542 0.000000
0.403851 0.788298 0.000000
0.443239 0.786053 0.000000
0.482627 0.783808 0.000000
0.522014 0.781563 0.000000
0.561402 0.779319 0.000000
0.600790 0.777074 0.000000
0.640178 0.774829 0.000000
0.679565 0.772584 0.000000
0.718953 0.770340 0.000000
0.758341 0.768095 0.000000
0.797729 0.765850 0.000000
0.837116 0.763605 0.000000
0.876504 0.761361 0.000000
0.915892 0.759116 0.000000
0.955280 0.756871 0.000000
0.994668 0.754626 0.000000
1.000000 0.752382 0.000000
1.000000 0.750137 0.000000
1.000000 0.747892 0.000000
1.000000 0.745647 0.000000
1.000000 0.743403 0.000000
0.000000 0.850687 0.000000
0.000000 0.848443 0.000000
0.005777 0.846198 0.000000
0.045164 0.843953 0.000000
0.084552 0.841708 0.000000
0.123940 0.839464 0.000000
0.163328 0.837219 0.000000
0.202715 0.834974 0.000000
0.242103 0.832729 0.000000
0.281491 0.830485 0.000000
0.320879 0.828240 0.000000
0.360266 0.825995 0.000000
0.399654 0.823750 0.000000
0.439042 0.821506 0.000000
0.478430 0.819261 0.000000
0.517817 0.817016 0.000000
0.557205 0.814772 0.000000
0.596593 0.812527 0.000000
0.635981 0.810282 0.000000
0.675368 0.808037 0.000000
0.714756 0.805793 0.000000
0.754144 0.803548 0.000000
0.793532 0.801303 0.000000
0.832919 0.799058 0.000000
0.872307 0.796814 0.000000
0.911695 0.794569 0.000000
0.951083 0.792324 0.000000
0.990471 0.790079 0.000000
1.000000 0.787835 0.000000
1.000000 0.785590 0.000000
1.000000 0.783345 0.000000
1.000000 0.781100 0.000000
1.000000 0.778856 0.000000
0.000000 0.886140 0.000000
0.000000 0.883896 0.000000
0.001580 0.881651 0.000000
0.040967 0.879406 0.000000
0.080355 0.877161 0.000000
0.119743 0.874917 0.000000
0.159130 0.872672 0.000000
0.198518 0.870427 0.000000
0.237906 0.868182 0.000000
0.277294 0.865938 0.000000
0.316682 0.863693 0.000000
0.356069 0.861448 0.000000
0.395457 0.859203 0.000000
0.434845 0.856959 0.000000
0.474233 0.854714 0.000000
0.513620 0.852469 0.000000
0.553008 0.850224 0.000000
0.592396 0.847980 0.000000
0.631784 0.845735 0.000000
0.671171 0.843490 0.000000
0.710559 0.841245 0.000000
0.749947 0.839001 0.000000
0.789335 0.836756 0.000000
0.828722 0.834511 0.000000
0.868110 0.832267 0.000000
0.907498 0.830022 0.000000
0.946886 0.827777 0.000000
0.986273 0.825532 0.000000
1.000000 0.823288 0.000000
1.000000 0.821043 0.000000
1.000000 0.818798 0.000000
1.000000 0.816553 0.000000
1.000000 0.814309 0.000000
0.000000 0.921593 0.000000
0.000000 0.919348 0.000000
0.000000 0.917104 0.000000
0.036770 0.914859 0.000000
0.076158 0.912614 0.000000
0.115546 0.910370 0.000000
0.154933 0.908125 0.000000
0.194321 0.905880 0.000000
0.233709 0.903635 0.000000
0.273097 0.901391 0.000000
0.312485 0.899146 0.000000
0.351872 0.896901 0.000000
0.391260 0.894656 0.000000
0.430648 0.892412 0.000000
0.470036 0.890167 0.000000
0.509423 0.887922 0.000000
0.548811 0.885677 0.000000
0.588199 0.883433 0.000000
0.627587 0.881188 0.000000
0.666974 0.878943 0.000000
0.706362 0.876698 0.000000
0.745750 0.874454 0.000000
0.785138 0.872209 0.000000
0.824525 0.869964 0.000000
