app/src/main/assets/luts/food_fresh.cube
# V-Cam procedural LUT — food_fresh
# Generated by LutBaker. Do not edit by hand.
TITLE "V-Cam food_fresh"
LUT_3D_SIZE 5
DOMAIN_MIN 0.0 0.0 0.0
DOMAIN_MAX 1.0 1.0 1.0
0.016632 0.000000 0.000000
0.336387 0.000000 0.000000
0.720040 0.000000 0.000000
0.983236 0.000000 0.000000
1.000000 0.000000 0.000000
0.000000 0.237749 0.000000
0.299514 0.218406 0.000000
0.689870 0.204979 0.000000
0.963123 0.191552 0.000000
1.000000 0.178125 0.000000
0.000000 0.614065 0.000000
0.261103 0.597587 0.000000
0.658444 0.581108 0.000000
0.942172 0.564629 0.000000
1.000000 0.547740 0.000000
0.000000 0.895739 0.000000
0.222693 0.884753 0.000000
0.627017 0.873767 0.000000
0.921221 0.862782 0.000000
1.000000 0.851796 0.000000
0.000000 1.000000 0.000000
0.196188 1.000000 0.000000
0.595590 1.000000 0.000000
0.900269 1.000000 0.000000
1.000000 1.000000 0.000000
0.012326 0.000000 0.229511
0.329928 0.000000 0.212913
0.714755 0.000000 0.199486
0.979713 0.000000 0.186059
1.000000 0.000000 0.172632
0.000000 0.231290 0.201758
0.293054 0.214100 0.188331
0.684585 0.200673 0.174904
0.959600 0.187246 0.161477
1.000000 0.173819 0.148050
0.000000 0.608780 0.176151
0.254644 0.592302 0.162724
0.653159 0.575823 0.149297
0.938648 0.559345 0.135870
1.000000 0.541281 0.122443
0.000000 0.892216 0.150544
0.217489 0.881230 0.137117
0.621732 0.870244 0.123690
0.917697 0.859258 0.110263
1.000000 0.848273 0.096836
0.000000 1.000000 0.124937
0.191882 1.000000 0.111510
0.590306 1.000000 0.098083
0.896746 1.000000 0.084656
1.000000 1.000000 0.071229
0.007646 0.000000 0.612362
0.322908 0.000000 0.595883
0.709011 0.000000 0.579404
0.975883 0.000000 0.562926
1.000000 0.000000 0.545658
0.000000 0.224269 0.582192
0.286034 0.209419 0.565713
0.678841 0.195992 0.549065
0.955770 0.182565 0.528924
1.000000 0.169138 0.508784
0.000000 0.603036 0.550765
0.247623 0.586558 0.530795
0.647415 0.570079 0.510654
0.934819 0.553600 0.490514
1.000000 0.534260 0.470373
0.000000 0.888386 0.512525
0.212809 0.877400 0.492385
0.615988 0.866415 0.472244
0.913868 0.855429 0.452104
1.000000 0.844443 0.431963
0.000000 1.000000 0.474115
0.187202 1.000000 0.453974
0.584561 1.000000 0.433834
0.892917 1.000000 0.413693
1.000000 1.000000 0.393553
0.002965 0.000000 0.897961
0.315887 0.000000 0.886975
0.703267 0.000000 0.875990
0.972054 0.000000 0.865004
1.000000 0.000000 0.854018
0.000000 0.218166 0.877848
0.279013 0.204739 0.866862
0.673097 0.191312 0.855877
0.951941 0.177885 0.844891
1.000000 0.164458 0.833905
0.000000 0.597292 0.856897
0.240602 0.580813 0.845911
0.641670 0.564335 0.834926
0.930989 0.547380 0.823940
1.000000 0.527239 0.809431
0.000000 0.884557 0.835946
0.208128 0.873571 0.824960
0.610244 0.862585 0.810962
0.910038 0.851599 0.794483
1.000000 0.840614 0.778004
0.000000 1.000000 0.812492
0.182521 1.000000 0.796014
0.578817 1.000000 0.779535
0.889087 1.000000 0.763056
1.000000 1.000000 0.746578
0.000000 0.000000 1.000000
0.308866 0.000000 1.000000
0.697522 0.000000 1.000000
0.968224 0.000000 1.000000
1.000000 0.000000 1.000000
0.000000 0.213485 1.000000
0.271992 0.200058 1.000000
0.667353 0.186631 1.000000
0.948111 0.173204 1.000000
1.000000 0.159777 1.000000
0.000000 0.591548 1.000000
0.233582 0.575069 1.000000
0.635926 0.558590 1.000000
0.927160 0.540359 1.000000
1.000000 0.520218 1.000000
0.000000 0.880727 1.000000
0.203448 0.869741 1.000000
0.604499 0.858756 1.000000
0.906209 0.847770 1.000000
1.000000 0.836784 1.000000
0.000000 1.000000 1.000000
0.177841 1.000000 1.000000
0.573073 1.000000 1.000000
0.885258 1.000000 0.998424
1.000000 1.000000 0.987439
