app/src/main/assets/luts/food_creamy.cube
# V-Cam procedural LUT — food_creamy
# Generated by LutBaker. Do not edit by hand.
TITLE "V-Cam food_creamy"
LUT_3D_SIZE 33
DOMAIN_MIN 0.0 0.0 0.0
DOMAIN_MAX 1.0 1.0 1.0
0.104707 0.082601 0.071221
0.109810 0.082602 0.071221
0.115536 0.082602 0.071222
0.123660 0.082603 0.071223
0.134419 0.082604 0.071226
0.147910 0.082607 0.071229
0.164176 0.082612 0.071236
0.183221 0.082620 0.071247
0.205011 0.082635 0.071264
0.229482 0.082658 0.071293
0.256547 0.082697 0.071339
0.286096 0.082757 0.071410
0.318001 0.082852 0.071520
0.352112 0.082995 0.071686
0.388262 0.083207 0.071930
0.426259 0.083515 0.072283
0.465893 0.083953 0.072783
0.506927 0.084564 0.073478
0.549096 0.085400 0.074425
0.592106 0.086523 0.075693
0.635623 0.088005 0.077359
0.679275 0.089929 0.079512
0.722639 0.092382 0.082244
0.765283 0.095236 0.085405
0.806684 0.098435 0.088926
0.846216 0.101990 0.092819
0.883178 0.105786 0.096951
0.916746 0.109647 0.101132
0.945937 0.113335 0.105107
0.969555 0.116550 0.108559
0.986109 0.118928 0.111105
0.993672 0.120049 0.112303
0.993895 0.120083 0.112338
0.104707 0.087917 0.071221
0.109810 0.087917 0.071222
0.115536 0.087917 0.071223
0.123660 0.087918 0.071224
0.134419 0.087919 0.071226
0.147910 0.087922 0.071230
0.164177 0.087926 0.071237
0.183222 0.087934 0.071248
0.205012 0.087947 0.071266
0.229483 0.087969 0.071295
0.256548 0.088005 0.071342
0.286097 0.088062 0.071414
0.318002 0.088151 0.071525
0.352114 0.088286 0.071692
0.388263 0.088486 0.071938
0.426261 0.088777 0.072293
0.465895 0.089192 0.072795
0.506929 0.089771 0.073492
0.549098 0.090563 0.074441
0.592108 0.091629 0.075712
0.635626 0.093038 0.077381
0.679278 0.094869 0.079537
0.722642 0.097209 0.082273
0.765286 0.099939 0.085438
0.806687 0.103003 0.088963
0.846219 0.106417 0.092858
0.883182 0.110069 0.096993
0.916750 0.113791 0.101176
0.945941 0.117355 0.105153
0.969559 0.120466 0.108606
0.986112 0.122770 0.111153
0.993676 0.123857 0.112351
0.993898 0.123889 0.112387
0.104707 0.093873 0.071222
0.109810 0.093873 0.071222
0.115536 0.093874 0.071223
0.123661 0.093874 0.071225
0.134420 0.093875 0.071227
0.147911 0.093878 0.071231
0.164178 0.093882 0.071239
0.183223 0.093889 0.071250
0.205012 0.093901 0.071269
0.229484 0.093921 0.071299
0.256549 0.093955 0.071346
0.286099 0.094008 0.071419
0.318004 0.094091 0.071531
0.352116 0.094217 0.071700
0.388265 0.094405 0.071947
0.426263 0.094679 0.072304
0.465897 0.095070 0.072808
0.506931 0.095616 0.073508
0.549101 0.096364 0.074460
0.592111 0.097371 0.075734
0.635629 0.098704 0.077407
0.679281 0.100440 0.079567
0.722646 0.102662 0.082307
0.765290 0.105261 0.085479
0.806690 0.108184 0.089007
0.846223 0.111448 0.092905
0.883185 0.114947 0.097043
0.916754 0.118522 0.101228
0.945945 0.121951 0.105208
0.969563 0.124950 0.108662
0.986117 0.127174 0.111210
0.993681 0.128225 0.112409
0.993903 0.128256 0.112444
0.104708 0.102312 0.071222
0.109811 0.102312 0.071223
0.115537 0.102312 0.071224
0.123661 0.102313 0.071226
0.134421 0.102314 0.071229
0.147911 0.102316 0.071233
0.164179 0.102319 0.071241
0.183224 0.102325 0.071253
0.205014 0.102336 0.071272
0.229485 0.102355 0.071303
0.256551 0.102385 0.071352
0.286101 0.102433 0.071427
0.318006 0.102509 0.071541
0.352118 0.102625 0.071711
0.388268 0.102797 0.071961
0.426266 0.103049 0.072321
0.465900 0.103409 0.072829
0.506935 0.103912 0.073532
0.549105 0.104604 0.074489
0.592116 0.105536 0.075767
0.635634 0.106772 0.077446
0.679286 0.108386 0.079612
0.722651 0.110456 0.082359
0.765295 0.112886 0.085539
0.806696 0.115625 0.089073
0.846229 0.118691 0.092977
0.883191 0.121988 0.097119
0.916760 0.125367 0.101308
0.945951 0.128615 0.105290
0.969570 0.131463 0.108747
0.986123 0.133579 0.111296
0.993687 0.134579 0.112495
0.993910 0.134608 0.112531
0.104708 0.113468 0.071224
0.109812 0.113468 0.071224
0.115538 0.113468 0.071225
0.123662 0.113468 0.071227
0.134422 0.113469 0.071230
0.147913 0.113470 0.071236
0.164180 0.113473 0.071244
0.183226 0.113478 0.071257
0.205016 0.113488 0.071277
0.229487 0.113504 0.071310
0.256553 0.113530 0.071360
0.286103 0.113573 0.071437
0.318009 0.113640 0.071554
0.352122 0.113744 0.071728
0.388272 0.113899 0.071982
0.426270 0.114125 0.072346
0.465905 0.114450 0.072858
0.506940 0.114905 0.073567
0.549111 0.115530 0.074530
0.592122 0.116376 0.075815
0.635641 0.117501 0.077502
0.679294 0.118971 0.079677
0.722659 0.120864 0.082433
0.765302 0.123095 0.085627
0.806704 0.125615 0.089169
0.846237 0.128445 0.093079
0.883200 0.131499 0.097228
0.916769 0.134639 0.101422
0.945960 0.137667 0.105409
0.969579 0.140328 0.108869
0.986133 0.142310 0.111420
0.993697 0.143248 0.112621
0.993919 0.143275 0.112656
0.104710 0.127427 0.071229
0.109813 0.127427 0.071229
0.115539 0.127427 0.071229
0.123664 0.127428 0.071230
0.134423 0.127428 0.071233
0.147914 0.127429 0.071239
0.164182 0.127431 0.071248
0.183228 0.127435 0.071262
0.205018 0.127443 0.071285
0.229490 0.127456 0.071319
0.256557 0.127479 0.071372
0.286107 0.127516 0.071452
0.318014 0.127574 0.071573
0.352127 0.127665 0.071751
0.388277 0.127801 0.072010
0.426276 0.128001 0.072380
0.465912 0.128288 0.072899
0.506948 0.128691 0.073616
0.549119 0.129248 0.074587
0.592131 0.130002 0.075882
0.635650 0.131006 0.077579
0.679304 0.132324 0.079766
0.722670 0.134025 0.082536
0.765313 0.136042 0.085749
0.806714 0.138322 0.089301
0.846248 0.140892 0.093222
0.883212 0.143676 0.097379
0.916781 0.146548 0.101581
0.945973 0.149327 0.105573
0.969592 0.151776 0.109038
0.986146 0.153604 0.111592
0.993710 0.154470 0.112794
0.993932 0.154496 0.112830
0.104714 0.144224 0.071237
0.109816 0.144224 0.071237
0.115542 0.144224 0.071238
0.123666 0.144225 0.071239
0.134425 0.144226 0.071240
0.147917 0.144226 0.071243
0.164185 0.144228 0.071254
0.183231 0.144231 0.071270
0.205022 0.144237 0.071294
0.229495 0.144247 0.071331
0.256561 0.144266 0.071388
0.286113 0.144297 0.071472
0.318020 0.144347 0.071598
0.352133 0.144424 0.071782
0.388285 0.144541 0.072047
0.426285 0.144714 0.072426
0.465921 0.144964 0.072954
0.506958 0.145316 0.073681
0.549130 0.145804 0.074664
0.592143 0.146466 0.075972
0.635663 0.147351 0.077683
0.679318 0.148515 0.079887
0.722685 0.150022 0.082675
0.765326 0.151820 0.085913
0.806729 0.153854 0.089480
0.846264 0.156156 0.093414
0.883228 0.158658 0.097583
0.916798 0.161248 0.101795
0.945990 0.163763 0.105796
0.969610 0.165986 0.109267
0.986164 0.167649 0.111825
0.993728 0.168438 0.113028
0.993950 0.168462 0.113064
0.104722 0.163849 0.071251
0.109823 0.163849 0.071252
0.115548 0.163849 0.071252
0.123671 0.163850 0.071254
0.134429 0.163851 0.071255
0.147920 0.163852 0.071258
0.164188 0.163853 0.071261
0.183235 0.163855 0.071280
0.205027 0.163859 0.071307
0.229500 0.163868 0.071348
0.256567 0.163882 0.071408
0.286120 0.163907 0.071498
0.318028 0.163949 0.071630
0.352142 0.164014 0.071822
0.388295 0.164113 0.072097
0.426295 0.164261 0.072486
0.465933 0.164475 0.073027
0.506971 0.164778 0.073767
0.549145 0.165199 0.074766
0.592158 0.165774 0.076091
0.635680 0.166544 0.077821
0.679336 0.167561 0.080046
0.722704 0.168882 0.082859
0.765345 0.170467 0.086131
0.806749 0.172263 0.089718
0.846284 0.174301 0.093669
0.883249 0.176523 0.097854
0.916820 0.178832 0.102079
0.946013 0.181080 0.106090
0.969633 0.183074 0.109569
0.986188 0.184568 0.112133
0.993752 0.185279 0.113339
0.993974 0.185300 0.113375
0.104736 0.186258 0.071276
0.109837 0.186259 0.071277
0.115561 0.186259 0.071278
0.123682 0.186260 0.071280
0.134439 0.186261 0.071282
0.147927 0.186262 0.071285
0.164194 0.186264 0.071290
0.183241 0.186266 0.071295
0.205033 0.186269 0.071323
0.229507 0.186275 0.071369
0.256576 0.186286 0.071435
0.286129 0.186305 0.071532
0.318038 0.186339 0.071673
0.352154 0.186392 0.071875
0.388307 0.186475 0.072162
0.426310 0.186599 0.072564
0.465949 0.186780 0.073121
0.506988 0.187038 0.073879
0.549163 0.187399 0.074897
0.592179 0.187892 0.076244
0.635702 0.188556 0.078000
0.679360 0.189436 0.080253
0.722730 0.190583 0.083097
0.765369 0.191972 0.086415
0.806774 0.193542 0.090027
0.846311 0.195331 0.094001
0.883277 0.197287 0.098206
0.916848 0.199326 0.102449
0.946043 0.201318 0.106474
0.969664 0.203088 0.109963
0.986219 0.204418 0.112534
0.993783 0.205051 0.113743
0.994006 0.205070 0.113779
0.104762 0.211381 0.071318
0.109861 0.211382 0.071319
0.115583 0.211383 0.071321
0.123703 0.211383 0.071323
0.134457 0.211384 0.071326
0.147942 0.211386 0.071330
0.164205 0.211388 0.071336
0.183249 0.211391 0.071344
0.205041 0.211394 0.071353
0.229516 0.211398 0.071396
0.256586 0.211406 0.071470
0.286141 0.211421 0.071576
0.318051 0.211446 0.071727
0.352168 0.211489 0.071942
0.388324 0.211557 0.072244
0.426328 0.211659 0.072664
0.465969 0.211811 0.073240
0.507010 0.212028 0.074021
0.549188 0.212334 0.075064
0.592205 0.212754 0.076440
0.635731 0.213323 0.078227
0.679391 0.214079 0.080516
0.722763 0.215069 0.083400
0.765400 0.216279 0.086779
0.806807 0.217644 0.090423
0.846345 0.219203 0.094427
0.883313 0.220914 0.098658
0.916886 0.222702 0.102922
0.946081 0.224454 0.106966
0.969703 0.226015 0.110468
0.986259 0.227189 0.113048
0.993824 0.227749 0.114261
0.994046 0.227765 0.114297
0.104807 0.239125 0.071388
0.109904 0.239126 0.071390
0.115623 0.239126 0.071391
0.123739 0.239127 0.071394
0.134488 0.239129 0.071398
0.147969 0.239130 0.071404
0.164228 0.239133 0.071412
0.183267 0.239136 0.071421
0.205054 0.239140 0.071434
0.229527 0.239145 0.071450
0.256599 0.239151 0.071513
0.286155 0.239161 0.071630
0.318067 0.239180 0.071795
0.352187 0.239213 0.072026
0.388344 0.239267 0.072347
0.426351 0.239350 0.072789
0.465994 0.239475 0.073390
0.507038 0.239656 0.074198
0.549218 0.239913 0.075274
0.592239 0.240269 0.076684
0.635767 0.240752 0.078512
0.679430 0.241398 0.080846
0.722805 0.242248 0.083781
0.765440 0.243299 0.087238
0.806848 0.244480 0.090923
0.846389 0.245834 0.094965
0.883358 0.247323 0.099228
0.916933 0.248884 0.103520
0.946130 0.250417 0.107586
0.969753 0.251786 0.111106
0.986309 0.252817 0.113697
0.993875 0.253309 0.114915
0.994097 0.253324 0.114951
0.104882 0.269376 0.071500
0.109974 0.269377 0.071502
0.115689 0.269377 0.071505
0.123800 0.269378 0.071509
0.134543 0.269380 0.071514
0.148017 0.269382 0.071521
0.164268 0.269385 0.071531
0.183299 0.269388 0.071543
0.205079 0.269393 0.071559
0.229546 0.269399 0.071580
0.256614 0.269406 0.071605
0.286173 0.269414 0.071697
0.318088 0.269427 0.071878
0.352209 0.269451 0.072129
0.388370 0.269493 0.072473
0.426379 0.269559 0.072941
0.466025 0.269660 0.073573
0.507073 0.269810 0.074416
0.549256 0.270023 0.075531
0.592280 0.270322 0.076985
0.635812 0.270730 0.078862
0.679479 0.271279 0.081252
0.722857 0.272005 0.084250
0.765489 0.272917 0.087811
0.806900 0.273936 0.091547
0.846443 0.275108 0.095634
0.883415 0.276400 0.099938
0.916992 0.277758 0.104265
0.946190 0.279095 0.108359
0.969815 0.280292 0.111900
0.986373 0.281195 0.114505
0.993939 0.281626 0.115729
0.994161 0.281639 0.115765
0.105001 0.302002 0.071677
0.110087 0.302003 0.071679
0.115796 0.302004 0.071683
0.123898 0.302005 0.071687
0.134631 0.302007 0.071694
0.148094 0.302009 0.071703
0.164335 0.302012 0.071715
0.183355 0.302016 0.071731
0.205124 0.302021 0.071751
0.229581 0.302028 0.071777
0.256640 0.302036 0.071809
0.286194 0.302046 0.071848
0.318112 0.302057 0.071979
0.352237 0.302073 0.072253
0.388400 0.302104 0.072625
0.426413 0.302155 0.073126
0.466064 0.302236 0.073794
0.507115 0.302356 0.074679
0.549303 0.302532 0.075840
0.592331 0.302780 0.077348
0.635868 0.303123 0.079285
0.679539 0.303587 0.081742
0.722922 0.304204 0.084817
0.765550 0.304995 0.088514
0.806965 0.305872 0.092311
0.846511 0.306884 0.096455
0.883485 0.308004 0.100809
0.917065 0.309183 0.105178
0.946266 0.310347 0.109306
0.969892 0.311390 0.112873
0.986451 0.312179 0.115495
0.994017 0.312556 0.116727
0.994240 0.312567 0.116764
0.105186 0.336854 0.071946
0.110263 0.336855 0.071949
0.115962 0.336856 0.071953
0.124052 0.336857 0.071959
0.134771 0.336859 0.071967
0.148218 0.336862 0.071978
0.164442 0.336865 0.071993
0.183446 0.336870 0.072013
0.205200 0.336876 0.072038
0.229642 0.336883 0.072070
0.256688 0.336892 0.072110
0.286230 0.336903 0.072158
0.318141 0.336917 0.072217
0.352270 0.336931 0.072400
0.388437 0.336952 0.072804
0.426454 0.336989 0.073343
0.466109 0.337051 0.074054
0.507166 0.337147 0.074989
0.549359 0.337289 0.076206
0.592393 0.337493 0.077777
0.635935 0.337778 0.079785
0.679613 0.338168 0.082324
0.723002 0.338691 0.085491
0.765625 0.339375 0.089365
0.807043 0.340129 0.093236
0.846593 0.341002 0.097448
0.883571 0.341971 0.101861
0.917153 0.342994 0.106281
0.946357 0.344006 0.110451
0.969986 0.344914 0.114049
0.986546 0.345603 0.116692
0.994114 0.345932 0.117933
0.994336 0.345941 0.117970
0.105464 0.373764 0.072346
0.110528 0.373765 0.072350
0.116213 0.373766 0.072355
0.124285 0.373767 0.072362
0.134982 0.373769 0.072372
0.148407 0.373772 0.072386
0.164607 0.373776 0.072404
0.183588 0.373781 0.072428
0.205319 0.373787 0.072458
0.229741 0.373795 0.072497
0.256768 0.373805 0.072545
0.286292 0.373818 0.072604
0.318187 0.373833 0.072676
0.352307 0.373851 0.072761
0.388480 0.373869 0.073011
0.426502 0.373895 0.073593
0.466163 0.373941 0.074355
0.507225 0.374014 0.075346
0.549425 0.374127 0.076628
0.592466 0.374292 0.078273
0.636016 0.374526 0.080364
0.679701 0.374851 0.082998
0.723097 0.375290 0.086274
0.765726 0.375871 0.090284
0.807137 0.376529 0.094340
0.846691 0.377280 0.098632
0.883674 0.378117 0.103116
0.917260 0.379004 0.107596
0.946467 0.379883 0.111815
0.970099 0.380674 0.115450
0.986661 0.381274 0.118118
0.994229 0.381562 0.119370
0.994452 0.381570 0.119407
0.105870 0.412543 0.072925
0.110915 0.412544 0.072930
0.116581 0.412545 0.072935
0.124627 0.412546 0.072944
0.135294 0.412549 0.072956
0.148686 0.412552 0.072972
0.164852 0.412556 0.072994
0.183801 0.412561 0.073022
0.205501 0.412568 0.073059
0.229894 0.412577 0.073105
0.256894 0.412588 0.073163
0.286394 0.412602 0.073233
0.318267 0.412618 0.073319
0.352367 0.412638 0.073421
0.388528 0.412661 0.073541
0.426558 0.412685 0.073874
0.466225 0.412716 0.074692
0.507295 0.412770 0.075748
0.549502 0.412857 0.077103
0.592552 0.412988 0.078832
0.636111 0.413177 0.081019
0.679805 0.413444 0.083763
0.723211 0.413809 0.087166
0.765849 0.414299 0.091319
0.807249 0.414874 0.095637
0.846809 0.415519 0.100023
0.883796 0.416242 0.104590
0.917387 0.417010 0.109141
0.946598 0.417773 0.113417
0.970233 0.418462 0.117096
0.986798 0.418985 0.119793
0.994367 0.419235 0.121058
0.994590 0.419243 0.121095
0.106448 0.452981 0.073740
0.111466 0.452982 0.073745
0.117105 0.452983 0.073752
0.125115 0.452985 0.073762
0.135741 0.452988 0.073776
0.149087 0.452991 0.073795
0.165207 0.452996 0.073821
0.184109 0.453002 0.073854
0.205766 0.453009 0.073897
0.230119 0.453019 0.073951
0.257082 0.453031 0.074019
0.286550 0.453046 0.074102
0.318393 0.453064 0.074202
0.352466 0.453085 0.074322
0.388603 0.453111 0.074463
0.426618 0.453140 0.074625
0.466295 0.453170 0.075059
0.507373 0.453207 0.076186
0.549590 0.453271 0.077622
0.592650 0.453371 0.079444
0.636220 0.453521 0.081739
0.679925 0.453736 0.084607
0.723343 0.454037 0.088153
0.765994 0.454444 0.092473
0.807381 0.454946 0.097141
0.846947 0.455500 0.101634
0.883940 0.456122 0.106297
0.917537 0.456787 0.110929
0.946752 0.457449 0.115271
0.970391 0.458048 0.119001
0.986958 0.458504 0.121731
0.994529 0.458722 0.123011
0.994751 0.458729 0.123049
0.107247 0.494847 0.074857
0.112230 0.494848 0.074863
0.117831 0.494849 0.074871
0.125794 0.494851 0.074882
0.136363 0.494854 0.074899
0.149647 0.494857 0.074921
0.165704 0.494862 0.074950
0.184544 0.494869 0.074989
0.206143 0.494877 0.075039
0.230441 0.494887 0.075101
0.257355 0.494901 0.075179
0.286778 0.494917 0.075275
0.318581 0.494936 0.075391
0.352619 0.494960 0.075529
0.388724 0.494987 0.075691
0.426710 0.495020 0.075879
0.466368 0.495056 0.076092
0.507460 0.495093 0.076646
0.549688 0.495136 0.078168
0.592760 0.495210 0.080090
0.636343 0.495324 0.082502
0.680063 0.495494 0.085508
0.723496 0.495736 0.089215
0.766161 0.496071 0.093721
0.807534 0.496507 0.098860
0.847107 0.496980 0.103476
0.884107 0.497515 0.108246
0.917710 0.498088 0.112971
0.946931 0.498663 0.117388
0.970574 0.499183 0.121175
0.987145 0.499580 0.123943
0.994716 0.499771 0.125240
0.994939 0.499777 0.125278
0.108326 0.537878 0.076350
0.113262 0.537880 0.076357
0.118814 0.537881 0.076366
0.126713 0.537883 0.076379
0.137207 0.537886 0.076398
0.150410 0.537890 0.076423
0.166382 0.537895 0.076456
0.185140 0.537902 0.076500
0.206661 0.537911 0.076556
0.230887 0.537923 0.076628
0.257735 0.537937 0.076716
0.287099 0.537954 0.076825
0.318851 0.537975 0.076957
0.352842 0.538001 0.077114
0.388905 0.538031 0.077298
0.426854 0.538065 0.077511
0.466480 0.538105 0.077753
0.507548 0.538151 0.078024
0.549794 0.538195 0.078715
0.592880 0.538244 0.080741
0.636479 0.538327 0.083277
0.680216 0.538456 0.086431
0.723667 0.538646 0.090313
0.766352 0.538916 0.095025
0.807722 0.539284 0.100629
0.847290 0.539692 0.105549
0.884298 0.540150 0.110440
0.917908 0.540644 0.115268
0.947136 0.541141 0.119769
0.970784 0.541593 0.123620
0.987358 0.541939 0.126432
0.994931 0.542105 0.127747
0.995154 0.542110 0.127786
0.109748 0.581786 0.078298
0.114624 0.581788 0.078306
0.120113 0.581789 0.078316
0.127930 0.581791 0.078331
0.138327 0.581795 0.078351
0.151423 0.581799 0.078379
0.167287 0.581805 0.078417
0.185938 0.581812 0.078466
0.207357 0.581822 0.078529
0.231489 0.581834 0.078609
0.258253 0.581849 0.078708
0.287540 0.581868 0.078830
0.319223 0.581891 0.078977
0.353154 0.581918 0.079153
0.389164 0.581950 0.079360
0.427065 0.581988 0.079598
0.466648 0.582031 0.079870
0.507679 0.582080 0.080174
0.549899 0.582134 0.080509
0.593008 0.582188 0.081355
0.636625 0.582242 0.084017
0.680383 0.582334 0.087325
0.723856 0.582478 0.091394
0.766563 0.582688 0.096329
0.807957 0.582983 0.102193
0.847498 0.583341 0.107850
0.884515 0.583732 0.112874
0.918133 0.584156 0.117815
0.947367 0.584585 0.122409
0.971021 0.584977 0.126331
0.987599 0.585277 0.129190
0.995174 0.585421 0.130527
0.995397 0.585426 0.130567
0.111583 0.626245 0.080783
0.116383 0.626246 0.080792
0.121793 0.626248 0.080803
0.129507 0.626250 0.080819
0.139781 0.626254 0.080842
0.152743 0.626258 0.080873
0.168468 0.626264 0.080914
0.186983 0.626272 0.080969
0.208272 0.626283 0.081039
0.232284 0.626296 0.081127
0.258939 0.626312 0.081237
0.288128 0.626332 0.081372
0.319724 0.626356 0.081535
0.353578 0.626386 0.081730
0.389520 0.626420 0.081959
0.427361 0.626461 0.082224
0.466890 0.626507 0.082526
0.507874 0.626560 0.082864
0.550050 0.626619 0.083236
0.593130 0.626684 0.083638
0.636777 0.626746 0.084659
0.680559 0.626805 0.088121
0.724058 0.626906 0.092384
0.766793 0.627063 0.097556
0.808216 0.627291 0.103701
0.847729 0.627598 0.110367
0.884756 0.627928 0.115534
0.918383 0.628291 0.120598
0.947625 0.628660 0.125293
0.971286 0.628998 0.129293
0.987868 0.629259 0.132203
0.995445 0.629384 0.133563
0.995668 0.629388 0.133603
0.113905 0.670888 0.083887
0.118613 0.670889 0.083897
0.123926 0.670891 0.083909
0.131512 0.670894 0.083927
0.141634 0.670897 0.083952
0.154430 0.670902 0.083986
0.169982 0.670909 0.084032
0.188326 0.670917 0.084091
0.209452 0.670928 0.084168
0.233314 0.670942 0.084265
0.259831 0.670959 0.084386
0.288897 0.670981 0.084534
0.320384 0.671007 0.084714
0.354140 0.671038 0.084929
0.389996 0.671075 0.085181
0.427761 0.671119 0.085474
0.467223 0.671169 0.085807
0.508147 0.671225 0.086181
0.550271 0.671289 0.086594
0.593303 0.671359 0.087040
0.636917 0.671434 0.087516
0.680737 0.671506 0.088734
0.724267 0.671569 0.093191
0.767036 0.671677 0.098607
0.808494 0.671845 0.105049
0.848015 0.672087 0.112489
0.885022 0.672371 0.118398
0.918658 0.672679 0.123593
0.947910 0.672995 0.128396
0.971577 0.673287 0.132478
0.988164 0.673512 0.135445
0.995744 0.673621 0.136829
0.995966 0.673624 0.136870
0.116793 0.715302 0.087692
0.121390 0.715303 0.087703
0.126586 0.715305 0.087716
0.134019 0.715307 0.087735
0.143958 0.715311 0.087763
0.156550 0.715316 0.087800
0.171891 0.715323 0.087850
0.190025 0.715332 0.087916
0.210950 0.715344 0.088000
0.234625 0.715359 0.088106
0.260971 0.715378 0.088238
0.289885 0.715400 0.088401
0.321235 0.715428 0.088599
0.354870 0.715462 0.088835
0.390619 0.715501 0.089112
0.428290 0.715548 0.089435
0.467669 0.715601 0.089803
0.508518 0.715662 0.090217
0.550576 0.715730 0.090675
0.593549 0.715806 0.091173
0.637111 0.715887 0.091704
0.680895 0.715975 0.092261
0.724476 0.716057 0.093700
0.767283 0.716120 0.099364
0.808782 0.716233 0.106114
0.848345 0.716408 0.113917
0.885310 0.716645 0.121433
0.918957 0.716904 0.126766
0.948218 0.717173 0.131682
0.971893 0.717424 0.135852
0.988486 0.717618 0.138877
0.996067 0.717712 0.140287
0.996290 0.717715 0.140329
0.120324 0.759016 0.092271
0.124793 0.759017 0.092283
0.129852 0.759019 0.092297
0.137104 0.759022 0.092318
0.146825 0.759026 0.092348
0.159174 0.759031 0.092390
0.174261 0.759039 0.092445
0.192141 0.759048 0.092516
0.212823 0.759061 0.092608
0.236269 0.759077 0.092725
0.262407 0.759096 0.092870
0.291132 0.759121 0.093049
0.322315 0.759150 0.093267
0.355802 0.759186 0.093527
0.391420 0.759228 0.093833
0.428974 0.759277 0.094190
0.468250 0.759335 0.094598
0.509009 0.759400 0.095058
0.550986 0.759473 0.095569
0.593887 0.759554 0.096126
0.637384 0.759643 0.096725
0.681110 0.759737 0.097355
0.724651 0.759838 0.098007
0.767523 0.759929 0.099691
0.809068 0.759991 0.106819
0.848671 0.760104 0.115306
0.885635 0.760280 0.124134
0.919276 0.760497 0.130069
0.948547 0.760725 0.135103
0.972230 0.760938 0.139363
0.988828 0.761105 0.142449
0.996413 0.761186 0.143886
0.996636 0.761189 0.143929
0.124564 0.801493 0.097676
0.128886 0.801495 0.097689
0.133789 0.801497 0.097705
0.140833 0.801500 0.097728
0.150301 0.801504 0.097761
0.162368 0.801510 0.097806
0.177156 0.801517 0.097867
0.194735 0.801528 0.097946
0.215126 0.801541 0.098047
0.238299 0.801557 0.098176
0.264186 0.801578 0.098336
0.292684 0.801604 0.098534
0.323663 0.801635 0.098774
0.356970 0.801673 0.099062
0.392429 0.801718 0.099402
0.429842 0.801771 0.099798
0.468994 0.801832 0.100253
0.509642 0.801901 0.100768
0.551521 0.801980 0.101341
0.594334 0.802067 0.101971
0.637753 0.802162 0.102650
0.681408 0.802265 0.103370
0.724886 0.802372 0.104219
0.767710 0.802474 0.105715
0.809322 0.802571 0.108385
0.848978 0.802634 0.116952
0.886000 0.802752 0.125804
0.919610 0.802921 0.133443
0.948891 0.803112 0.138596
0.972583 0.803293 0.142948
0.989187 0.803436 0.146097
0.996775 0.803506 0.147562
0.996998 0.803508 0.147606
0.129544 0.842116 0.103911
0.133704 0.842118 0.103925
0.138433 0.842120 0.103942
0.145244 0.842123 0.103968
0.154428 0.842128 0.104005
0.166173 0.842134 0.104055
0.180618 0.842142 0.104121
0.197850 0.842153 0.104209
0.217902 0.842167 0.104321
0.240754 0.842184 0.104464
0.266345 0.842206 0.104642
0.294574 0.842233 0.104861
0.325312 0.842267 0.105128
0.358405 0.842307 0.105448
0.393673 0.842354 0.105827
0.430919 0.842410 0.106270
0.469921 0.842475 0.106780
0.510438 0.842550 0.107359
0.552199 0.842634 0.108006
0.594908 0.842727 0.108720
0.638243 0.842821 0.109777
0.681825 0.842917 0.111168
0.725224 0.843023 0.112674
0.767972 0.843138 0.114280
0.809531 0.843261 0.115961
0.849270 0.843376 0.118759
0.886344 0.843447 0.127618
0.919969 0.843564 0.136260
0.949244 0.843719 0.142089
0.972945 0.843872 0.146532
0.989555 0.843993 0.149743
0.997145 0.844053 0.151236
0.997368 0.844055 0.151280
0.135221 0.880170 0.110889
0.139208 0.880172 0.110905
0.143750 0.880174 0.110924
0.150311 0.880177 0.110953
0.159186 0.880182 0.110993
0.170578 0.880188 0.111049
0.184643 0.880197 0.111123
0.201486 0.880208 0.111219
0.221154 0.880223 0.111344
0.243642 0.880242 0.111502
0.268893 0.880265 0.111700
0.296813 0.880293 0.111944
0.327273 0.880328 0.112241
0.360116 0.880371 0.112598
0.395164 0.880421 0.113022
0.432214 0.880480 0.113518
0.471043 0.880549 0.114090
0.511430 0.880618 0.114966
0.553078 0.880695 0.116033
0.595680 0.880782 0.117234
0.638902 0.880879 0.118569
0.682372 0.880988 0.120033
0.725674 0.881107 0.121613
0.768334 0.881235 0.123292
