app/src/main/assets/luts/food_warm_table.cube
# V-Cam procedural LUT — food_warm_table
# Generated by LutBaker. Do not edit by hand.
TITLE "V-Cam food_warm_table"
LUT_3D_SIZE 9
DOMAIN_MIN 0.0 0.0 0.0
DOMAIN_MAX 1.0 1.0 1.0
0.086760 0.020000 0.020000
0.239891 0.020000 0.020000
0.393022 0.020000 0.020000
0.544061 0.020000 0.020000
0.684942 0.020000 0.020000
0.825823 0.020000 0.020000
0.966704 0.020000 0.020000
0.980000 0.020000 0.020000
0.980000 0.020000 0.020000
0.078982 0.147309 0.020000
0.232113 0.143031 0.020000
0.385244 0.138752 0.020000
0.536906 0.134473 0.020000
0.677787 0.130195 0.020000
0.818667 0.125916 0.020000
0.959548 0.121637 0.020000
0.980000 0.117359 0.020000
0.980000 0.113080 0.020000
0.071204 0.285282 0.020000
0.224335 0.281003 0.020000
0.377467 0.276724 0.020000
0.529750 0.272446 0.020000
0.670631 0.268167 0.020000
0.811512 0.263888 0.020000
0.952393 0.259610 0.020000
0.980000 0.255331 0.020000
0.980000 0.251052 0.020000
0.063426 0.423254 0.020000
0.216558 0.418975 0.020000
0.369689 0.414697 0.020000
0.522595 0.410418 0.020000
0.663476 0.406139 0.020000
0.804356 0.401860 0.020000
0.945237 0.397582 0.020000
0.980000 0.393303 0.020000
0.980000 0.389024 0.020000
0.055649 0.557928 0.020000
0.208780 0.553992 0.020000
0.361911 0.550055 0.020000
0.515043 0.546119 0.020000
0.656320 0.542183 0.020000
0.797201 0.538246 0.020000
0.938082 0.534310 0.020000
0.980000 0.530373 0.020000
0.980000 0.526437 0.020000
0.047871 0.684863 0.020000
0.201002 0.680926 0.020000
0.354133 0.676990 0.020000
0.507265 0.673053 0.020000
0.649164 0.669117 0.020000
0.790045 0.665181 0.020000
0.930926 0.661244 0.020000
0.980000 0.657308 0.020000
0.980000 0.653371 0.020000
0.040093 0.811797 0.020000
0.193224 0.807861 0.020000
0.346356 0.803924 0.020000
0.499487 0.799988 0.020000
0.642009 0.796051 0.020000
0.782890 0.792115 0.020000
0.923771 0.788179 0.020000
0.980000 0.784242 0.020000
0.980000 0.780306 0.020000
0.032315 0.938732 0.020000
0.185447 0.934795 0.020000
0.338578 0.930859 0.020000
0.491709 0.926922 0.020000
0.634853 0.922986 0.020000
0.775734 0.919050 0.020000
0.916615 0.915113 0.020000
0.980000 0.911177 0.020000
0.980000 0.907240 0.020000
0.024538 0.980000 0.020000
0.177669 0.980000 0.020000
0.330800 0.980000 0.020000
0.483932 0.980000 0.020000
0.627698 0.980000 0.020000
0.768579 0.980000 0.020000
0.909459 0.980000 0.020000
0.980000 0.980000 0.020000
0.980000 0.980000 0.020000
0.086482 0.020000 0.020000
0.239613 0.020000 0.020000
0.392744 0.020000 0.020000
0.543806 0.020000 0.020000
0.684686 0.020000 0.020000
0.825567 0.020000 0.020000
0.966448 0.020000 0.020000
0.980000 0.020000 0.020000
0.980000 0.020000 0.020000
0.078704 0.147031 0.020000
0.231835 0.142753 0.020000
0.384967 0.138474 0.020000
0.536650 0.134195 0.020000
0.677531 0.129917 0.020000
0.818412 0.125638 0.020000
0.959293 0.121359 0.020000
0.980000 0.117081 0.020000
0.980000 0.112802 0.020000
0.070926 0.285004 0.020000
0.224058 0.280725 0.020000
0.377189 0.276446 0.020000
0.529495 0.272168 0.020000
0.670375 0.267889 0.020000
0.811256 0.263610 0.020000
0.952137 0.259332 0.020000
0.980000 0.255053 0.020000
0.980000 0.250774 0.020000
0.063148 0.422976 0.020000
0.216280 0.418697 0.020000
0.369411 0.414419 0.020000
0.522339 0.410140 0.020000
0.663220 0.405861 0.020000
0.804101 0.401583 0.020000
0.944981 0.397304 0.020000
0.980000 0.393025 0.020000
0.980000 0.388746 0.020000
0.055371 0.557672 0.020000
0.208502 0.553736 0.020000
0.361633 0.549800 0.020000
0.514765 0.545863 0.020000
0.656064 0.541927 0.020000
0.796945 0.537990 0.020000
0.937826 0.534054 0.020000
0.980000 0.530118 0.020000
0.980000 0.526181 0.020000
0.047593 0.684607 0.020000
0.200724 0.680670 0.020000
0.353856 0.676734 0.020000
0.506987 0.672798 0.020000
0.648909 0.668861 0.020000
0.789790 0.664925 0.020000
0.930670 0.660989 0.020000
0.980000 0.657052 0.020000
0.980000 0.653116 0.020000
0.039815 0.811541 0.020000
0.192946 0.807605 0.020000
0.346078 0.803668 0.020000
0.499209 0.799732 0.020000
0.641753 0.795796 0.020000
0.782634 0.791859 0.020000
0.923515 0.787923 0.020000
0.980000 0.783987 0.020000
0.980000 0.780050 0.020000
0.032037 0.938476 0.020000
0.185169 0.934539 0.020000
0.338300 0.930603 0.020000
0.491431 0.926667 0.020000
0.634598 0.922730 0.020000
0.775479 0.918794 0.020000
0.916359 0.914857 0.020000
0.980000 0.910921 0.020000
0.980000 0.906985 0.020000
0.024260 0.980000 0.020000
0.177391 0.980000 0.020000
0.330522 0.980000 0.020000
0.483654 0.980000 0.020000
0.627442 0.980000 0.020000
0.768323 0.980000 0.020000
0.909204 0.980000 0.020000
0.980000 0.980000 0.020000
0.980000 0.980000 0.020000
0.085092 0.020000 0.145258
0.238223 0.020000 0.140979
0.391355 0.020000 0.136700
0.542527 0.020000 0.132422
0.683408 0.020000 0.128143
0.824289 0.020000 0.123864
0.965170 0.020000 0.119585
0.980000 0.020000 0.115307
0.980000 0.020000 0.111028
0.077314 0.145642 0.137480
0.230446 0.141363 0.133201
0.383577 0.137084 0.128922
0.535372 0.132806 0.124644
0.676252 0.128527 0.120365
0.817133 0.124248 0.116086
0.958014 0.119970 0.111808
0.980000 0.115691 0.107529
0.980000 0.111412 0.103250
0.069537 0.283614 0.129702
0.222668 0.279335 0.125423
0.375799 0.275057 0.121145
0.528216 0.270778 0.116866
0.669097 0.266499 0.112587
0.809978 0.262221 0.108309
0.950858 0.257942 0.104030
0.980000 0.253663 0.099751
0.980000 0.249385 0.095473
0.061759 0.421586 0.121924
0.214890 0.417308 0.117646
0.368021 0.413029 0.113367
0.521061 0.408750 0.109088
0.661941 0.404472 0.104810
0.802822 0.400193 0.100531
0.943703 0.395914 0.096252
0.980000 0.391636 0.091974
0.980000 0.387357 0.087695
0.053981 0.556394 0.114147
0.207112 0.552458 0.109868
0.360244 0.548521 0.105589
0.513375 0.544585 0.101311
0.654786 0.540648 0.097032
0.795667 0.536712 0.092753
0.936547 0.532776 0.088474
0.980000 0.528839 0.084196
0.980000 0.524903 0.079917
0.046203 0.683328 0.106369
0.199335 0.679392 0.102090
0.352466 0.675456 0.097811
0.505597 0.671519 0.093533
0.647630 0.667583 0.089254
0.788511 0.663646 0.084975
0.929392 0.659710 0.080697
0.980000 0.655774 0.076418
0.980000 0.651837 0.072139
0.038426 0.810263 0.098591
0.191557 0.806326 0.094312
0.344688 0.802390 0.090034
0.497819 0.798454 0.085755
0.640475 0.794517 0.081476
0.781356 0.790581 0.077198
0.922236 0.786644 0.072919
0.980000 0.782708 0.068640
0.980000 0.778772 0.064362
0.030648 0.937197 0.090813
0.183779 0.933261 0.086535
0.336910 0.929325 0.082256
0.490042 0.925388 0.077977
0.633319 0.921452 0.073699
0.774200 0.917515 0.069420
0.915081 0.913579 0.065141
0.980000 0.909643 0.060862
0.980000 0.905706 0.056584
0.022870 0.980000 0.083036
0.176001 0.980000 0.078757
0.329133 0.980000 0.074478
0.482264 0.980000 0.070200
0.626164 0.980000 0.065921
0.767045 0.980000 0.061642
0.907925 0.980000 0.057363
0.980000 0.980000 0.053085
0.980000 0.980000 0.048806
0.083702 0.020000 0.277958
0.236834 0.020000 0.273679
0.389965 0.020000 0.269401
0.541249 0.020000 0.265122
0.682129 0.020000 0.260843
0.823010 0.020000 0.256565
0.963891 0.020000 0.252286
0.980000 0.020000 0.248007
0.980000 0.020000 0.243728
0.075925 0.144252 0.270180
0.229056 0.139973 0.265902
0.382187 0.135695 0.261623
0.534093 0.131416 0.257344
0.674974 0.127137 0.253065
0.815855 0.122859 0.248787
0.956736 0.118580 0.244508
0.980000 0.114301 0.240229
0.980000 0.110023 0.235951
0.068147 0.282224 0.262402
0.221278 0.277946 0.258124
0.374409 0.273667 0.253845
0.526938 0.269388 0.249566
0.667818 0.265110 0.245288
0.808699 0.260831 0.241009
0.949580 0.256552 0.236730
0.980000 0.252274 0.232452
0.980000 0.247995 0.228173
0.060369 0.420197 0.254625
0.213500 0.415918 0.250346
0.366632 0.411639 0.246067
0.519763 0.407361 0.241789
0.660663 0.403082 0.237510
0.801544 0.398803 0.233231
0.942425 0.394525 0.228953
0.980000 0.390246 0.224674
0.980000 0.385967 0.220395
0.052591 0.555115 0.246847
0.205723 0.551179 0.242568
0.358854 0.547243 0.238290
0.511985 0.543306 0.234011
0.653507 0.539370 0.229732
0.794388 0.535433 0.225454
0.935269 0.531497 0.221175
0.980000 0.527561 0.216896
0.980000 0.523624 0.212617
0.044814 0.682050 0.239069
0.197945 0.678113 0.234791
0.351076 0.674177 0.230512
0.504208 0.670241 0.226233
0.646352 0.666304 0.221954
0.787233 0.662368 0.217676
0.928113 0.658432 0.213397
0.980000 0.654495 0.209118
0.980000 0.650559 0.204840
0.037036 0.808984 0.231291
0.190167 0.805048 0.227013
0.343298 0.801112 0.222734
0.496430 0.797175 0.218455
0.639196 0.793239 0.214177
0.780077 0.789302 0.209898
0.920958 0.785366 0.205619
0.980000 0.781430 0.201341
0.980000 0.777493 0.197062
0.029258 0.935919 0.223514
0.182389 0.931982 0.219235
0.335521 0.928046 0.214956
0.488652 0.924110 0.210678
0.632041 0.920173 0.206399
0.772922 0.916237 0.202120
0.913802 0.912300 0.197842
0.980000 0.908364 0.193563
0.980000 0.904428 0.189284
0.021480 0.980000 0.215736
0.174612 0.980000 0.211457
0.327743 0.980000 0.207179
0.480874 0.980000 0.202900
0.624885 0.980000 0.198621
0.765766 0.980000 0.194342
0.906647 0.980000 0.190064
0.980000 0.980000 0.185785
0.980000 0.980000 0.181506
0.082313 0.020000 0.410658
0.235444 0.020000 0.406380
0.388575 0.020000 0.402101
0.539970 0.020000 0.397822
0.680851 0.020000 0.393544
0.821732 0.020000 0.389265
0.962613 0.020000 0.384986
0.980000 0.020000 0.380707
0.980000 0.020000 0.376429
0.074535 0.142863 0.402881
0.227666 0.138584 0.398602
0.380798 0.134305 0.394323
0.532815 0.130026 0.390044
0.673695 0.125748 0.385766
0.814576 0.121469 0.381487
0.955457 0.117190 0.377208
0.980000 0.112912 0.372930
0.980000 0.108633 0.368651
0.066757 0.280835 0.395103
0.219889 0.276556 0.390824
0.373020 0.272277 0.386545
0.525659 0.267999 0.382267
0.666540 0.263720 0.377988
0.807421 0.259441 0.373709
0.948302 0.255163 0.369431
0.980000 0.250884 0.365152
0.980000 0.246605 0.360873
0.058979 0.418807 0.387325
0.212111 0.414528 0.383046
0.365242 0.410250 0.378768
0.518373 0.405971 0.374489
0.659384 0.401692 0.370210
0.800265 0.397414 0.365932
0.941146 0.393135 0.361653
0.980000 0.388856 0.357374
0.980000 0.384577 0.353096
0.051202 0.553837 0.379547
0.204333 0.549901 0.375269
0.357464 0.545964 0.370990
0.510596 0.542028 0.366711
0.652229 0.538091 0.362433
0.793110 0.534155 0.358154
0.933990 0.530219 0.353875
0.980000 0.526282 0.349596
0.980000 0.522346 0.345318
0.043424 0.680771 0.371770
0.196555 0.676835 0.367491
0.349687 0.672899 0.363212
0.502818 0.668962 0.358933
0.645073 0.665026 0.354655
0.785954 0.661089 0.350376
0.926835 0.657153 0.346097
0.980000 0.653217 0.341819
0.980000 0.649280 0.337540
0.035646 0.807706 0.363992
0.188778 0.803769 0.359713
0.341909 0.799833 0.355434
0.495040 0.795897 0.351156
0.637918 0.791960 0.346877
0.778799 0.788024 0.342598
0.919679 0.784087 0.338320
0.980000 0.780151 0.334041
0.980000 0.776215 0.329762
0.027868 0.934640 0.356214
0.181000 0.930704 0.351935
0.334131 0.926768 0.347657
0.487262 0.922831 0.343378
0.630762 0.918895 0.339099
0.771643 0.914958 0.334821
0.912524 0.911022 0.330542
0.980000 0.907086 0.326263
0.980000 0.903149 0.321984
0.020091 0.980000 0.348436
0.173222 0.980000 0.344158
0.326353 0.980000 0.339879
0.479485 0.980000 0.335600
0.623607 0.980000 0.331321
0.764488 0.980000 0.327043
0.905368 0.980000 0.322764
0.980000 0.980000 0.318485
0.980000 0.980000 0.314207
0.080923 0.020000 0.541490
0.234054 0.020000 0.537553
0.387186 0.020000 0.533617
0.538692 0.020000 0.529681
0.679572 0.020000 0.525744
0.820453 0.020000 0.521808
0.961334 0.020000 0.517686
0.980000 0.020000 0.513408
0.980000 0.020000 0.509129
0.073145 0.141473 0.534334
0.226277 0.137194 0.530398
0.379408 0.132915 0.526462
0.531536 0.128637 0.522525
0.672417 0.124358 0.518466
0.813298 0.120079 0.514187
0.954179 0.115801 0.509909
0.980000 0.111522 0.505630
0.980000 0.107243 0.501351
0.065368 0.279445 0.527179
0.218499 0.275166 0.523242
0.371630 0.270888 0.519246
0.524381 0.266609 0.514967
0.665261 0.262330 0.510688
0.806142 0.258052 0.506410
0.947023 0.253773 0.502131
0.980000 0.249494 0.497852
0.980000 0.245216 0.493574
0.057590 0.417417 0.520023
0.210721 0.413139 0.515747
0.363852 0.408860 0.511468
0.516984 0.404581 0.507189
0.658106 0.400303 0.502911
0.798987 0.396024 0.498632
0.939867 0.391745 0.494353
0.980000 0.387467 0.490074
0.980000 0.383188 0.485796
0.049812 0.552558 0.512248
0.202943 0.548622 0.507969
0.356075 0.544686 0.503690
0.509206 0.540749 0.499411
0.650950 0.536813 0.495133
0.791831 0.532876 0.490854
0.932712 0.528940 0.486575
0.980000 0.525004 0.482297
0.980000 0.521067 0.478018
0.042034 0.679493 0.504470
0.195166 0.675557 0.500191
0.348297 0.671620 0.495912
0.501428 0.667684 0.491634
0.643795 0.663747 0.487355
0.784676 0.659811 0.483076
0.925556 0.655874 0.478798
0.980000 0.651938 0.474519
0.980000 0.648002 0.470240
0.034257 0.806427 0.496692
0.187388 0.802491 0.492413
0.340519 0.798555 0.488135
0.493650 0.794618 0.483856
0.636639 0.790682 0.479577
0.777520 0.786745 0.475299
0.918401 0.782809 0.471020
0.980000 0.778873 0.466741
0.980000 0.774936 0.462463
0.026479 0.933362 0.488914
0.179610 0.929425 0.484636
0.332741 0.925489 0.480357
0.485873 0.921553 0.476078
0.629484 0.917616 0.471800
0.770365 0.913680 0.467521
0.911245 0.909744 0.463242
0.980000 0.905807 0.458963
0.980000 0.901871 0.454685
0.020000 0.980000 0.481137
0.171832 0.980000 0.476858
0.324964 0.980000 0.472579
0.478095 0.980000 0.468300
0.622328 0.980000 0.464022
0.763209 0.980000 0.459743
0.904090 0.980000 0.455464
0.980000 0.980000 0.451186
0.980000 0.980000 0.446907
0.079533 0.020000 0.663574
0.232665 0.020000 0.659638
0.385796 0.020000 0.655701
0.537413 0.020000 0.651765
0.678294 0.020000 0.647829
0.819175 0.020000 0.643892
0.960056 0.020000 0.639956
0.980000 0.020000 0.636019
0.980000 0.020000 0.632083
0.071756 0.140083 0.656419
0.224887 0.135805 0.652482
0.378018 0.131526 0.648546
0.530258 0.127247 0.644610
0.671138 0.122968 0.640673
0.812019 0.118690 0.636737
0.952900 0.114411 0.632800
0.980000 0.110132 0.628864
0.980000 0.105854 0.624928
0.063978 0.278055 0.649263
0.217109 0.273777 0.645327
0.370241 0.269498 0.641390
0.523102 0.265219 0.637454
0.663983 0.260941 0.633518
0.804864 0.256662 0.629581
0.945745 0.252383 0.625645
0.980000 0.248105 0.621708
0.980000 0.243826 0.617772
0.056200 0.416028 0.642108
0.209331 0.411749 0.638171
0.362463 0.407470 0.634235
0.515594 0.403192 0.630298
0.656827 0.398913 0.626362
0.797708 0.394634 0.622426
0.938589 0.390356 0.618489
0.980000 0.386077 0.614553
0.980000 0.381798 0.610617
0.048422 0.551280 0.634952
0.201554 0.547344 0.631016
0.354685 0.543407 0.627079
0.507816 0.539471 0.623143
0.649672 0.535534 0.619207
0.790553 0.531598 0.615270
0.931433 0.527662 0.611334
0.980000 0.523725 0.607397
0.980000 0.519770 0.603461
0.040645 0.678214 0.627797
0.193776 0.674278 0.623860
0.346907 0.670342 0.619924
0.500039 0.666405 0.615987
0.642516 0.662469 0.612051
0.783397 0.658532 0.608115
0.924278 0.654596 0.604178
0.980000 0.650660 0.600242
0.980000 0.646723 0.596305
0.032867 0.805149 0.620641
0.185998 0.801212 0.616705
0.339130 0.797276 0.612768
0.492261 0.793340 0.608832
0.635361 0.789403 0.604895
0.776242 0.785467 0.600959
0.917122 0.781530 0.597023
0.980000 0.777594 0.593086
0.980000 0.773658 0.589150
0.025089 0.932083 0.613486
0.178220 0.928147 0.609549
0.331352 0.924211 0.605613
0.484483 0.920274 0.601676
0.628205 0.916338 0.597740
0.769086 0.912401 0.593804
0.909967 0.908465 0.589867
0.980000 0.904529 0.585931
0.980000 0.900592 0.581994
0.020000 0.980000 0.606330
0.170443 0.980000 0.602394
0.323574 0.980000 0.598457
0.476705 0.980000 0.594521
0.621050 0.980000 0.590584
0.761931 0.980000 0.586648
0.902811 0.980000 0.582712
0.980000 0.980000 0.578775
0.980000 0.980000 0.574839
0.078144 0.020000 0.785659
0.231275 0.020000 0.781722
0.384406 0.020000 0.777786
0.536135 0.020000 0.773849
0.677015 0.020000 0.769913
0.817896 0.020000 0.765977
0.958777 0.020000 0.762040
0.980000 0.020000 0.758104
0.980000 0.020000 0.754167
0.070366 0.138694 0.778503
0.223497 0.134415 0.774567
0.376629 0.130136 0.770630
0.528979 0.125857 0.766694
0.669860 0.121579 0.762757
0.810741 0.117300 0.758821
0.951622 0.113021 0.754885
0.980000 0.108743 0.750948
0.980000 0.104464 0.747012
0.062588 0.276666 0.771348
0.215720 0.272387 0.767411
0.368851 0.268108 0.763475
0.521824 0.263830 0.759538
0.662704 0.259551 0.755602
0.803585 0.255272 0.751666
0.944466 0.250994 0.747729
0.980000 0.246715 0.743793
0.980000 0.242436 0.739856
0.054810 0.414638 0.764192
0.207942 0.410359 0.760256
0.361073 0.406081 0.756319
0.514204 0.401802 0.752383
0.655549 0.397523 0.748446
0.796430 0.393245 0.744510
0.937311 0.388966 0.740574
0.980000 0.384687 0.736637
0.980000 0.380409 0.732701
0.047033 0.550001 0.757036
0.200164 0.546065 0.753100
0.353295 0.542129 0.749164
0.506427 0.538192 0.745227
0.648393 0.534256 0.741291
0.789274 0.530320 0.737355
0.930155 0.526383 0.733418
0.980000 0.522447 0.729482
0.980000 0.518381 0.725545
0.039255 0.676936 0.749881
0.192386 0.673000 0.745944
0.345518 0.669063 0.742008
0.498649 0.665127 0.738072
0.641238 0.661190 0.734135
0.782119 0.657254 0.730199
0.923000 0.653318 0.726263
0.980000 0.649381 0.722326
0.980000 0.645445 0.718390
0.031477 0.803870 0.742725
0.184609 0.799934 0.738789
0.337740 0.795998 0.734853
0.490871 0.792061 0.730916
0.634082 0.788125 0.726980
0.774963 0.784188 0.723043
0.915844 0.780252 0.719107
0.980000 0.776316 0.715171
0.980000 0.772379 0.711234
0.023699 0.930805 0.735570
0.176831 0.926868 0.731633
0.329962 0.922932 0.727697
0.483093 0.918996 0.723761
0.626927 0.915059 0.719824
0.767808 0.911123 0.715888
0.908688 0.907187 0.711951
0.980000 0.903250 0.708015
0.980000 0.899314 0.704079
0.020000 0.980000 0.728414
0.169053 0.980000 0.724478
0.322184 0.980000 0.720541
0.475316 0.980000 0.716605
0.619771 0.980000 0.712669
0.760652 0.980000 0.708732
0.901533 0.980000 0.704796
0.980000 0.980000 0.700860
0.980000 0.980000 0.696923
0.076754 0.020000 0.907743
0.229885 0.020000 0.903806
0.383017 0.020000 0.899870
0.534856 0.020000 0.895934
0.675737 0.020000 0.891997
0.816618 0.020000 0.888061
0.957499 0.020000 0.884125
0.980000 0.020000 0.880188
0.980000 0.020000 0.876252
0.068976 0.137304 0.900587
0.222108 0.133025 0.896651
0.375239 0.128746 0.892715
0.527701 0.124468 0.888778
0.668581 0.120189 0.884842
0.809462 0.115910 0.880905
0.950343 0.111632 0.876969
0.980000 0.107353 0.873033
0.980000 0.103074 0.869096
0.061199 0.275276 0.893432
0.214330 0.270997 0.889495
0.367461 0.266719 0.885559
0.520545 0.262440 0.881623
0.661426 0.258161 0.877686
0.802307 0.253883 0.873750
0.943188 0.249604 0.869813
0.980000 0.245325 0.865877
0.980000 0.241047 0.861941
0.053421 0.413248 0.886276
0.206552 0.408970 0.882340
0.359683 0.404691 0.878403
0.512815 0.400412 0.874467
0.654270 0.396134 0.870531
0.795151 0.391855 0.866594
0.936032 0.387576 0.862658
0.980000 0.383298 0.858721
0.980000 0.379019 0.854785
0.045643 0.548723 0.879121
0.198774 0.544787 0.875184
0.351906 0.540850 0.871248
0.505037 0.536914 0.867312
0.647115 0.532977 0.863375
0.787996 0.529041 0.859439
0.928877 0.525105 0.855502
0.980000 0.521168 0.851566
0.980000 0.516991 0.847630
0.037865 0.675657 0.871965
0.190997 0.671721 0.868029
0.344128 0.667785 0.864092
0.497259 0.663848 0.860156
0.639959 0.659912 0.856220
0.780840 0.655975 0.852283
0.921721 0.652039 0.848347
0.980000 0.648103 0.844410
0.980000 0.644166 0.840474
0.030088 0.802592 0.864810
0.183219 0.798655 0.860873
0.336350 0.794719 0.856937
0.489482 0.790783 0.853001
0.632804 0.786846 0.849064
0.773685 0.782910 0.845128
0.914565 0.778974 0.841191
0.980000 0.775037 0.837255
0.980000 0.771101 0.833318
0.022310 0.929526 0.857654
0.175441 0.925590 0.853718
0.328572 0.921654 0.849781
0.481704 0.917717 0.845845
0.625648 0.913781 0.841909
0.766529 0.909844 0.837972
0.907410 0.905908 0.834036
0.980000 0.901972 0.830099
0.980000 0.898035 0.826163
0.020000 0.980000 0.850499
0.167663 0.980000 0.846562
0.320795 0.980000 0.842626
0.473926 0.980000 0.838689
0.618493 0.980000 0.834753
0.759374 0.980000 0.830817
0.900254 0.980000 0.826880
0.980000 0.980000 0.822944
0.980000 0.980000 0.819007
