app/src/main/assets/luts/food_warm_table.cube
# V-Cam procedural LUT — food_warm_table
# Generated by LutBaker. Do not edit by hand.
TITLE "V-Cam food_warm_table"
LUT_3D_SIZE 5
DOMAIN_MIN 0.0 0.0 0.0
DOMAIN_MAX 1.0 1.0 1.0
0.086760 0.020000 0.020000
0.393022 0.020000 0.020000
0.684942 0.020000 0.020000
0.966704 0.020000 0.020000
0.980000 0.020000 0.020000
0.071204 0.285282 0.020000
0.377467 0.276724 0.020000
0.670631 0.268167 0.020000
0.952393 0.259610 0.020000
0.980000 0.251052 0.020000
0.055649 0.557928 0.020000
0.361911 0.550055 0.020000
0.656320 0.542183 0.020000
0.938082 0.534310 0.020000
0.980000 0.526437 0.020000
0.040093 0.811797 0.020000
0.346356 0.803924 0.020000
0.642009 0.796051 0.020000
0.923771 0.788179 0.020000
0.980000 0.780306 0.020000
0.024538 0.980000 0.020000
0.330800 0.980000 0.020000
0.627698 0.980000 0.020000
0.909459 0.980000 0.020000
0.980000 0.980000 0.020000
0.085092 0.020000 0.145258
0.391355 0.020000 0.136700
0.683408 0.020000 0.128143
0.965170 0.020000 0.119585
0.980000 0.020000 0.111028
0.069537 0.283614 0.129702
0.375799 0.275057 0.121145
0.669097 0.266499 0.112587
0.950858 0.257942 0.104030
0.980000 0.249385 0.095473
0.053981 0.556394 0.114147
0.360244 0.548521 0.105589
0.654786 0.540648 0.097032
0.936547 0.532776 0.088474
0.980000 0.524903 0.079917
0.038426 0.810263 0.098591
0.344688 0.802390 0.090034
0.640475 0.794517 0.081476
0.922236 0.786644 0.072919
0.980000 0.778772 0.064362
0.022870 0.980000 0.083036
0.329133 0.980000 0.074478
0.626164 0.980000 0.065921
0.907925 0.980000 0.057363
0.980000 0.980000 0.048806
0.082313 0.020000 0.410658
0.388575 0.020000 0.402101
0.680851 0.020000 0.393544
0.962613 0.020000 0.384986
0.980000 0.020000 0.376429
0.066757 0.280835 0.395103
0.373020 0.272277 0.386545
0.666540 0.263720 0.377988
0.948302 0.255163 0.369431
0.980000 0.246605 0.360873
0.051202 0.553837 0.379547
0.357464 0.545964 0.370990
0.652229 0.538091 0.362433
0.933990 0.530219 0.353875
0.980000 0.522346 0.345318
0.035646 0.807706 0.363992
0.341909 0.799833 0.355434
0.637918 0.791960 0.346877
0.919679 0.784087 0.338320
0.980000 0.776215 0.329762
0.020091 0.980000 0.348436
0.326353 0.980000 0.339879
0.623607 0.980000 0.331321
0.905368 0.980000 0.322764
0.980000 0.980000 0.314207
0.079533 0.020000 0.663574
0.385796 0.020000 0.655701
0.678294 0.020000 0.647829
0.960056 0.020000 0.639956
0.980000 0.020000 0.632083
0.063978 0.278055 0.649263
0.370241 0.269498 0.641390
0.663983 0.260941 0.633518
0.945745 0.252383 0.625645
0.980000 0.243826 0.617772
0.048422 0.551280 0.634952
0.354685 0.543407 0.627079
0.649672 0.535534 0.619207
0.931433 0.527662 0.611334
0.980000 0.519770 0.603461
0.032867 0.805149 0.620641
0.339130 0.797276 0.612768
0.635361 0.789403 0.604895
0.917122 0.781530 0.597023
0.980000 0.773658 0.589150
0.020000 0.980000 0.606330
0.323574 0.980000 0.598457
0.621050 0.980000 0.590584
0.902811 0.980000 0.582712
0.980000 0.980000 0.574839
0.076754 0.020000 0.907743
0.383017 0.020000 0.899870
0.675737 0.020000 0.891997
0.957499 0.020000 0.884125
0.980000 0.020000 0.876252
0.061199 0.275276 0.893432
0.367461 0.266719 0.885559
0.661426 0.258161 0.877686
0.943188 0.249604 0.869813
0.980000 0.241047 0.861941
0.045643 0.548723 0.879121
0.351906 0.540850 0.871248
0.647115 0.532977 0.863375
0.928877 0.525105 0.855502
0.980000 0.516991 0.847630
0.030088 0.802592 0.864810
0.336350 0.794719 0.856937
0.632804 0.786846 0.849064
0.914565 0.778974 0.841191
0.980000 0.771101 0.833318
0.020000 0.980000 0.850499
0.320795 0.980000 0.842626
0.618493 0.980000 0.834753
0.900254 0.980000 0.826880
0.980000 0.980000 0.819007
