app/src/main/assets/luts/food_garden.cube
# V-Cam procedural LUT — food_garden
# Generated by LutBaker. Do not edit by hand.
TITLE "V-Cam food_garden"
LUT_3D_SIZE 33
DOMAIN_MIN 0.0 0.0 0.0
DOMAIN_MAX 1.0 1.0 1.0
0.000000 0.000000 0.000000
0.000132 0.000000 0.000004
0.000829 0.000000 0.000028
0.002864 0.000000 0.000095
0.007502 0.000000 0.000250
0.016554 0.000000 0.000552
0.032448 0.000000 0.001082
0.056137 0.000000 0.001943
0.082911 0.000000 0.003261
0.112329 0.000000 0.005187
0.144310 0.000000 0.007892
0.178763 0.000000 0.011572
0.215582 0.000000 0.016438
0.254651 0.000000 0.022721
0.295834 0.000000 0.030661
0.338984 0.000000 0.040502
0.383930 0.000000 0.051397
0.430482 0.000000 0.062681
0.478426 0.000000 0.074303
0.527522 0.000000 0.086203
0.577496 0.000000 0.098317
0.628047 0.000000 0.110571
0.678830 0.000000 0.122880
0.729456 0.000000 0.135152
0.779208 0.000000 0.147212
0.827370 0.000000 0.158886
0.873280 0.000000 0.170015
0.916000 0.000000 0.180371
0.954386 0.000000 0.189675
0.987030 0.000000 0.197588
1.000000 0.000000 0.200732
1.000000 0.000000 0.200732
1.000000 0.000000 0.200732
0.000005 0.000138 0.000000
0.000137 0.000138 0.000000
0.000829 0.000110 0.000000
0.002864 0.000042 0.000000
0.007502 0.000000 0.000112
0.016554 0.000000 0.000415
0.032448 0.000000 0.000947
0.056137 0.000000 0.001814
0.082911 0.000000 0.003150
0.112329 0.000000 0.005116
0.144310 0.000000 0.007892
0.178763 0.000000 0.011572
0.215582 0.000000 0.016438
0.254651 0.000000 0.022721
0.295834 0.000000 0.030661
0.338983 0.000000 0.040502
0.383929 0.000000 0.051397
0.430482 0.000000 0.062681
0.478426 0.000000 0.074303
0.527522 0.000000 0.086203
0.577496 0.000000 0.098317
0.628047 0.000000 0.110571
0.678830 0.000000 0.122880
0.729456 0.000000 0.135152
0.779208 0.000000 0.147212
0.827370 0.000000 0.158886
0.873280 0.000000 0.170015
0.916000 0.000000 0.180370
0.954385 0.000000 0.189675
0.987030 0.000000 0.197588
1.000000 0.000000 0.200732
1.000000 0.000000 0.200732
1.000000 0.000000 0.200732
0.000029 0.000865 0.000000
0.000161 0.000865 0.000000
0.000857 0.000865 0.000000
0.002864 0.000769 0.000000
0.007502 0.000614 0.000000
0.016554 0.000312 0.000000
0.032448 0.000000 0.000220
0.056137 0.000000 0.001087
0.082911 0.000000 0.002423
0.112329 0.000000 0.004389
0.144310 0.000000 0.007181
0.178763 0.000000 0.011036
0.215582 0.000000 0.016234
0.254650 0.000000 0.022721
0.295834 0.000000 0.030660
0.338983 0.000000 0.040501
0.383929 0.000000 0.051396
0.430481 0.000000 0.062681
0.478425 0.000000 0.074302
0.527520 0.000000 0.086203
0.577495 0.000000 0.098317
0.628045 0.000000 0.110570
0.678828 0.000000 0.122880
0.729454 0.000000 0.135152
0.779207 0.000000 0.147212
0.827368 0.000000 0.158886
0.873279 0.000000 0.170015
0.915999 0.000000 0.180370
0.954384 0.000000 0.189675
0.987029 0.000000 0.197588
1.000000 0.000000 0.200732
1.000000 0.000000 0.200732
1.000000 0.000000 0.200732
0.000100 0.002989 0.000000
0.000232 0.002989 0.000000
0.000928 0.002989 0.000000
0.002963 0.002989 0.000000
0.007502 0.002739 0.000000
0.016554 0.002437 0.000000
0.032448 0.001905 0.000000
0.056136 0.001038 0.000000
0.082910 0.000000 0.000297
0.112328 0.000000 0.002263
0.144309 0.000000 0.005055
0.178761 0.000000 0.008909
0.215581 0.000000 0.014106
0.254649 0.000000 0.020981
0.295832 0.000000 0.029932
0.338981 0.000000 0.040501
0.383927 0.000000 0.051396
0.430479 0.000000 0.062680
0.478423 0.000000 0.074302
0.527518 0.000000 0.086202
0.577492 0.000000 0.098316
0.628042 0.000000 0.110569
0.678825 0.000000 0.122879
0.729450 0.000000 0.135151
0.779203 0.000000 0.147211
0.827364 0.000000 0.158885
0.873274 0.000000 0.170014
0.915994 0.000000 0.180369
0.954379 0.000000 0.189674
0.987024 0.000000 0.197587
1.000000 0.000000 0.200732
1.000000 0.000000 0.200732
1.000000 0.000000 0.200732
0.000261 0.007831 0.000000
0.000393 0.007831 0.000000
0.001089 0.007831 0.000000
0.003124 0.007831 0.000000
0.007762 0.007831 0.000000
0.016553 0.007279 0.000000
0.032447 0.006748 0.000000
0.056135 0.005881 0.000000
0.082909 0.004547 0.000000
0.112326 0.002582 0.000000
0.144307 0.000000 0.000208
0.178759 0.000000 0.004060
0.215578 0.000000 0.009254
0.254645 0.000000 0.016126
0.295828 0.000000 0.025072
0.338976 0.000000 0.036561
0.383921 0.000000 0.050248
0.430473 0.000000 0.062679
0.478416 0.000000 0.074300
0.527511 0.000000 0.086201
0.577484 0.000000 0.098314
0.628034 0.000000 0.110567
0.678816 0.000000 0.122877
0.729441 0.000000 0.135149
0.779194 0.000000 0.147209
0.827355 0.000000 0.158883
0.873265 0.000000 0.170011
0.915984 0.000000 0.180367
0.954369 0.000000 0.189671
0.987013 0.000000 0.197584
1.000000 0.000000 0.200732
1.000000 0.000000 0.200732
1.000000 0.000000 0.200732
0.000576 0.017283 0.000000
0.000707 0.017283 0.000000
0.001403 0.017283 0.000000
0.003438 0.017283 0.000000
0.008077 0.017282 0.000000
0.017128 0.017282 0.000000
0.032445 0.016199 0.000000
0.056132 0.015334 0.000000
0.082906 0.014001 0.000000
0.112322 0.012039 0.000000
0.144302 0.009251 0.000000
0.178754 0.005404 0.000000
0.215572 0.000215 0.000000
0.254638 0.000000 0.006649
0.295820 0.000000 0.015586
0.338968 0.000000 0.027064
0.383912 0.000000 0.041601
0.430462 0.000000 0.057429
0.478404 0.000000 0.073558
0.527497 0.000000 0.086197
0.577470 0.000000 0.098311
0.628018 0.000000 0.110564
0.678799 0.000000 0.122873
0.729423 0.000000 0.135144
0.779177 0.000000 0.147205
0.827337 0.000000 0.158879
0.873246 0.000000 0.170007
0.915965 0.000000 0.180362
0.954349 0.000000 0.189666
0.986992 0.000000 0.197579
1.000000 0.000000 0.200732
1.000000 0.000000 0.200732
1.000000 0.000000 0.200732
0.001129 0.033878 0.000000
0.001255 0.033878 0.000000
0.001952 0.033878 0.000000
0.003987 0.033878 0.000000
0.008626 0.033878 0.000000
0.017679 0.033877 0.000000
0.033572 0.033875 0.000000
0.056128 0.031930 0.000000
0.082901 0.030600 0.000000
0.112316 0.028641 0.000000
0.144295 0.025859 0.000000
0.178745 0.022019 0.000000
0.215561 0.016840 0.000000
0.254626 0.009988 0.000000
0.295807 0.001067 0.000000
0.338952 0.000000 0.010391
0.383895 0.000000 0.024932
0.430443 0.000000 0.043095
0.478383 0.000000 0.061975
0.527474 0.000000 0.080561
0.577444 0.000000 0.098305
0.627990 0.000000 0.110557
0.678770 0.000000 0.122866
0.729392 0.000000 0.135137
0.779147 0.000000 0.147197
0.827305 0.000000 0.158871
0.873213 0.000000 0.169999
0.915930 0.000000 0.180354
0.954313 0.000000 0.189658
0.986956 0.000000 0.197570
1.000000 0.000000 0.200732
1.000000 0.000000 0.200732
1.000000 0.000000 0.200732
0.002028 0.058151 0.000000
0.002140 0.058151 0.000000
0.002837 0.058151 0.000000
0.004873 0.058151 0.000000
0.009512 0.058150 0.000000
0.018567 0.058149 0.000000
0.034462 0.058147 0.000000
0.057717 0.058143 0.000000
0.082892 0.055570 0.000000
0.112306 0.053992 0.000000
0.144283 0.051694 0.000000
0.178730 0.048403 0.000000
0.215545 0.043717 0.000000
0.254607 0.037021 0.000000
0.295785 0.028125 0.000000
0.338928 0.016700 0.000000
0.383867 0.002198 0.000000
0.430412 0.000000 0.016014
0.478349 0.000000 0.038665
0.527436 0.000000 0.062478
0.577403 0.000000 0.084583
0.627946 0.000000 0.106118
0.678721 0.000000 0.122854
0.729340 0.000000 0.135124
0.779098 0.000000 0.147185
0.827254 0.000000 0.158858
0.873159 0.000000 0.169986
0.915874 0.000000 0.180340
0.954255 0.000000 0.189644
0.986897 0.000000 0.197556
1.000000 0.000000 0.200732
1.000000 0.000000 0.200732
1.000000 0.000000 0.200732
0.003405 0.085408 0.000000
0.003481 0.085408 0.000000
0.004177 0.085408 0.000000
0.006214 0.085407 0.000000
0.010854 0.085406 0.000000
0.019911 0.085405 0.000000
0.035811 0.085402 0.000000
0.058766 0.085398 0.000000
0.084859 0.085392 0.000000
0.112290 0.082366 0.000000
0.144264 0.080722 0.000000
0.178708 0.078406 0.000000
0.215519 0.075190 0.000000
0.254578 0.070755 0.000000
0.295751 0.064629 0.000000
0.338890 0.056049 0.000000
0.383824 0.043599 0.000000
0.430364 0.025587 0.000000
0.478296 0.003023 0.000000
0.527378 0.000000 0.024793
0.577340 0.000000 0.056551
0.627877 0.000000 0.084213
0.678647 0.000000 0.109689
0.729262 0.000000 0.134310
0.779023 0.000000 0.147167
0.827175 0.000000 0.158839
0.873077 0.000000 0.169966
0.915789 0.000000 0.180319
0.954167 0.000000 0.189622
0.986806 0.000000 0.197534
1.000000 0.000000 0.200732
1.000000 0.000000 0.200732
1.000000 0.000000 0.200732
0.005415 0.115351 0.000000
0.005415 0.115351 0.000000
0.006102 0.115351 0.000000
0.008139 0.115350 0.000000
0.012781 0.115350 0.000000
0.021841 0.115348 0.000000
0.037747 0.115345 0.000000
0.060249 0.115340 0.000000
0.085983 0.115332 0.000000
0.114670 0.115321 0.000000
0.144237 0.111807 0.000000
0.178677 0.110092 0.000000
0.215482 0.107738 0.000000
0.254535 0.104547 0.000000
0.295703 0.100253 0.000000
0.338834 0.094478 0.000000
0.383762 0.086663 0.000000
0.430295 0.075894 0.000000
0.478219 0.060462 0.000000
0.527294 0.036202 0.000000
0.577247 0.002363 0.000000
0.627777 0.000000 0.038709
0.678540 0.000000 0.077085
0.729147 0.000000 0.108613
0.778914 0.000000 0.136654
0.827061 0.000000 0.158812
0.872957 0.000000 0.169937
0.915664 0.000000 0.180289
0.954038 0.000000 0.189591
0.986673 0.000000 0.197502
1.000000 0.000000 0.200732
1.000000 0.000000 0.200732
1.000000 0.000000 0.200732
0.008237 0.147896 0.000000
0.008237 0.147896 0.000000
0.008740 0.147896 0.000000
0.010778 0.147896 0.000000
0.015423 0.147895 0.000000
0.024488 0.147893 0.000000
0.040402 0.147889 0.000000
0.062240 0.147883 0.000000
0.087503 0.147874 0.000000
0.115860 0.147860 0.000000
0.147061 0.147842 0.000000
0.178632 0.143805 0.000000
0.215430 0.142014 0.000000
0.254476 0.139608 0.000000
0.295635 0.136410 0.000000
0.338758 0.132186 0.000000
0.383676 0.126621 0.000000
0.430199 0.119268 0.000000
0.478112 0.109462 0.000000
0.527176 0.096104 0.000000
0.577118 0.077093 0.000000
0.627636 0.046985 0.000000
0.678388 0.000000 0.001776
0.728985 0.000000 0.058021
0.778761 0.000000 0.099544
0.826899 0.000000 0.132043
0.872788 0.000000 0.160274
0.915489 0.000000 0.180247
0.953857 0.000000 0.189547
0.986487 0.000000 0.197456
1.000000 0.000000 0.200732
1.000000 0.000000 0.200732
1.000000 0.000000 0.200732
0.012075 0.182946 0.000000
0.012075 0.182946 0.000000
0.012206 0.182946 0.000000
0.014245 0.182945 0.000000
0.018894 0.182944 0.000000
0.027965 0.182942 0.000000
0.043753 0.182937 0.000000
0.064787 0.182930 0.000000
0.089468 0.182920 0.000000
0.117407 0.182904 0.000000
0.148306 0.182882 0.000000
0.181928 0.182852 0.000000
0.215361 0.178260 0.000000
0.254396 0.176390 0.000000
0.295543 0.173921 0.000000
0.338654 0.170692 0.000000
0.383559 0.166491 0.000000
0.430068 0.161047 0.000000
0.477967 0.153985 0.000000
0.527016 0.144781 0.000000
0.576943 0.132635 0.000000
0.627446 0.116209 0.000000
0.678183 0.092854 0.000000
0.728765 0.055261 0.000000
0.778553 0.000000 0.010475
0.826680 0.000000 0.074894
0.872559 0.000000 0.116839
0.915251 0.000000 0.149312
0.953610 0.000000 0.175859
0.986234 0.000000 0.197258
1.000000 0.000000 0.200732
1.000000 0.000000 0.200732
1.000000 0.000000 0.200732
0.017148 0.220388 0.000000
0.017148 0.220388 0.000000
0.017148 0.220388 0.000000
0.018622 0.220387 0.000000
0.023275 0.220386 0.000000
0.032355 0.220383 0.000000
0.047767 0.220378 0.000000
0.067899 0.220370 0.000000
0.091897 0.220357 0.000000
0.119334 0.220339 0.000000
0.149866 0.220314 0.000000
0.183217 0.220280 0.000000
0.219154 0.220235 0.000000
0.254291 0.215055 0.000000
0.295424 0.213104 0.000000
0.338519 0.210564 0.000000
0.383407 0.207286 0.000000
0.429898 0.203078 0.000000
0.477778 0.197696 0.000000
0.526806 0.190819 0.000000
0.576712 0.182009 0.000000
0.627194 0.170638 0.000000
0.677911 0.155736 0.000000
0.728474 0.135652 0.000000
0.778277 0.107712 0.000000
0.826391 0.066250 0.000000
0.872257 0.000000 0.008700
0.914936 0.000000 0.080351
0.953285 0.000000 0.122213
0.985900 0.000000 0.151557
1.000000 0.000000 0.168866
1.000000 0.000000 0.176735
1.000000 0.000000 0.178545
0.023692 0.260095 0.000000
0.023692 0.260095 0.000000
0.023692 0.260095 0.000000
0.023928 0.260094 0.000000
0.028587 0.260092 0.000000
0.037678 0.260089 0.000000
0.052359 0.260083 0.000000
0.071532 0.260074 0.000000
0.094772 0.260060 0.000000
0.121635 0.260039 0.000000
0.151740 0.260010 0.000000
0.184773 0.259972 0.000000
0.220472 0.259920 0.000000
0.258604 0.259855 0.000000
0.295273 0.254058 0.000000
0.338347 0.252024 0.000000
0.383213 0.249408 0.000000
0.429681 0.246070 0.000000
0.477536 0.241832 0.000000
0.526538 0.236475 0.000000
0.576417 0.229712 0.000000
0.626871 0.221165 0.000000
0.677560 0.210312 0.000000
0.728097 0.196403 0.000000
0.777923 0.178572 0.000000
0.826018 0.156671 0.000000
0.871867 0.128353 0.000000
0.914530 0.089662 0.000000
0.952866 0.025383 0.000000
0.985469 0.000000 0.052130
1.000000 0.000000 0.088848
1.000000 0.000000 0.102715
1.000000 0.000000 0.105757
0.031953 0.301922 0.000000
0.031953 0.301922 0.000000
0.031953 0.301921 0.000000
0.031953 0.301921 0.000000
0.034764 0.301919 0.000000
0.043732 0.301915 0.000000
0.057377 0.301909 0.000000
0.075585 0.301898 0.000000
0.098026 0.301882 0.000000
0.124266 0.301859 0.000000
0.153896 0.301826 0.000000
0.186573 0.301783 0.000000
0.222004 0.301725 0.000000
0.259933 0.301651 0.000000
0.300122 0.301559 0.000000
0.338136 0.295118 0.000000
0.382974 0.293000 0.000000
0.429412 0.290305 0.000000
0.477235 0.286900 0.000000
0.526203 0.282621 0.000000
0.576048 0.277262 0.000000
0.626466 0.270564 0.000000
0.677119 0.262192 0.000000
0.727621 0.251700 0.000000
0.777475 0.238581 0.000000
0.825547 0.223357 0.000000
0.871374 0.205225 0.000000
0.914019 0.183951 0.000000
0.952337 0.159525 0.000000
0.984926 0.132520 0.000000
1.000000 0.109666 0.000000
1.000000 0.096898 0.000000
1.000000 0.093644 0.000000
0.042131 0.345705 0.000000
0.042131 0.345705 0.000000
0.042131 0.345704 0.000000
0.042130 0.345703 0.000000
0.042130 0.345701 0.000000
0.049909 0.345697 0.000000
0.062609 0.345690 0.000000
0.079894 0.345678 0.000000
0.101537 0.345660 0.000000
0.127135 0.345634 0.000000
0.156268 0.345598 0.000000
0.188565 0.345549 0.000000
0.223709 0.345485 0.000000
0.261420 0.345402 0.000000
0.301445 0.345300 0.000000
0.343535 0.345175 0.000000
0.382687 0.338064 0.000000
0.429087 0.335864 0.000000
0.476871 0.333091 0.000000
0.525797 0.329617 0.000000
0.575597 0.325287 0.000000
0.625969 0.319910 0.000000
0.676576 0.313245 0.000000
0.727032 0.304989 0.000000
0.776891 0.294767 0.000000
0.824965 0.283160 0.000000
0.870766 0.269811 0.000000
0.913386 0.254824 0.000000
0.951683 0.238667 0.000000
0.984254 0.222347 0.000000
1.000000 0.209875 0.000000
1.000000 0.203671 0.000000
1.000000 0.202171 0.000000
0.053173 0.391257 0.000000
0.053173 0.391257 0.000000
0.053173 0.391257 0.000000
0.053172 0.391256 0.000000
0.053172 0.391254 0.000000
0.055905 0.391249 0.000000
0.067790 0.391241 0.000000
0.084238 0.391228 0.000000
0.105129 0.391209 0.000000
0.130104 0.391180 0.000000
0.158744 0.391140 0.000000
0.190661 0.391085 0.000000
0.225515 0.391014 0.000000
0.263007 0.390923 0.000000
0.302866 0.390809 0.000000
0.344832 0.390670 0.000000
0.388646 0.390505 0.000000
0.428707 0.382705 0.000000
0.476441 0.380427 0.000000
0.525315 0.377578 0.000000
0.575059 0.374036 0.000000
0.625373 0.369654 0.000000
0.675920 0.364248 0.000000
0.726316 0.357595 0.000000
0.776117 0.349429 0.000000
0.824258 0.340106 0.000000
0.870027 0.329669 0.000000
0.912617 0.318183 0.000000
0.950888 0.306107 0.000000
0.983437 0.294271 0.000000
1.000000 0.285385 0.000000
1.000000 0.281148 0.000000
1.000000 0.280132 0.000000
0.064593 0.438370 0.000000
0.064593 0.438370 0.000000
0.064593 0.438369 0.000000
0.064592 0.438368 0.000000
0.064592 0.438366 0.000000
0.064591 0.438361 0.000000
0.072605 0.438352 0.000000
0.088341 0.438338 0.000000
0.108569 0.438316 0.000000
0.132980 0.438285 0.000000
0.161168 0.438240 0.000000
0.192732 0.438181 0.000000
0.227317 0.438102 0.000000
0.264605 0.438002 0.000000
0.304312 0.437877 0.000000
0.346165 0.437724 0.000000
0.389896 0.437542 0.000000
0.435233 0.437329 0.000000
0.475948 0.428824 0.000000
0.524758 0.426473 0.000000
0.574434 0.423555 0.000000
0.624675 0.419951 0.000000
0.675146 0.415518 0.000000
0.725466 0.410081 0.000000
0.775191 0.403439 0.000000
0.823414 0.395742 0.000000
0.869144 0.387307 0.000000
0.911699 0.378119 0.000000
0.949939 0.368582 0.000000
0.982462 0.359366 0.000000
1.000000 0.352432 0.000000
1.000000 0.349236 0.000000
1.000000 0.348473 0.000000
0.076333 0.486803 0.000000
0.076333 0.486803 0.000000
0.076333 0.486803 0.000000
0.076333 0.486801 0.000000
0.076332 0.486798 0.000000
0.076331 0.486793 0.000000
0.076687 0.486784 0.000000
0.091869 0.486768 0.000000
0.111568 0.486744 0.000000
0.135521 0.486710 0.000000
0.163336 0.486662 0.000000
0.194610 0.486597 0.000000
0.228973 0.486511 0.000000
0.266097 0.486401 0.000000
0.305682 0.486265 0.000000
0.347448 0.486098 0.000000
0.391120 0.485899 0.000000
0.436417 0.485665 0.000000
0.483046 0.485398 0.000000
0.524134 0.476179 0.000000
0.573726 0.473765 0.000000
0.623877 0.470787 0.000000
0.674253 0.467130 0.000000
0.724475 0.462653 0.000000
0.774102 0.457197 0.000000
0.822421 0.450736 0.000000
0.868105 0.443778 0.000000
0.910619 0.436241 0.000000
0.948823 0.428469 0.000000
0.981316 0.421017 0.000000
1.000000 0.415345 0.000000
1.000000 0.412819 0.000000
1.000000 0.412217 0.000000
0.088328 0.536287 0.000000
0.088328 0.536287 0.000000
0.088328 0.536286 0.000000
0.088327 0.536285 0.000000
0.088327 0.536282 0.000000
0.088325 0.536276 0.000000
0.088323 0.536266 0.000000
0.094418 0.536249 0.000000
0.113771 0.536223 0.000000
0.137422 0.536186 0.000000
0.164993 0.536134 0.000000
0.196079 0.536063 0.000000
0.230304 0.535970 0.000000
0.267329 0.535851 0.000000
0.306848 0.535703 0.000000
0.348572 0.535522 0.000000
0.392222 0.535305 0.000000
0.437512 0.535051 0.000000
0.484145 0.534760 0.000000
0.531803 0.534431 0.000000
0.572950 0.524494 0.000000
0.622991 0.522031 0.000000
0.673250 0.519009 0.000000
0.723349 0.515313 0.000000
0.772851 0.510812 0.000000
0.821230 0.505372 0.000000
0.866903 0.499530 0.000000
0.909369 0.493245 0.000000
0.947531 0.486787 0.000000
0.979989 0.480620 0.000000
1.000000 0.475838 0.000000
1.000000 0.473791 0.000000
1.000000 0.473303 0.000000
0.100504 0.586516 0.000000
0.100503 0.586516 0.000000
0.100503 0.586515 0.000000
0.100503 0.586514 0.000000
0.100502 0.586511 0.000000
0.100501 0.586504 0.000000
0.100498 0.586493 0.000000
0.100494 0.586475 0.000000
0.114737 0.586448 0.000000
0.138306 0.586407 0.000000
0.165820 0.586351 0.000000
0.196871 0.586275 0.000000
0.231082 0.586175 0.000000
0.268109 0.586047 0.000000
0.307645 0.585887 0.000000
0.349397 0.585691 0.000000
0.393082 0.585456 0.000000
0.438413 0.585181 0.000000
0.485092 0.584865 0.000000
0.532799 0.584508 0.000000
0.581188 0.584112 0.000000
0.622041 0.573463 0.000000
0.672158 0.570969 0.000000
0.722105 0.567922 0.000000
0.771449 0.564213 0.000000
0.819670 0.559728 0.000000
0.865532 0.554691 0.000000
0.907944 0.549393 0.000000
0.946057 0.543956 0.000000
0.978475 0.538773 0.000000
1.000000 0.534657 0.000000
1.000000 0.532972 0.000000
1.000000 0.532570 0.000000
0.112776 0.637147 0.000000
0.112776 0.637147 0.000000
0.112776 0.637147 0.000000
0.112776 0.637145 0.000000
0.112775 0.637141 0.000000
0.112773 0.637135 0.000000
0.112771 0.637123 0.000000
0.112766 0.637103 0.000000
0.113881 0.637074 0.000000
0.137683 0.637031 0.000000
0.165407 0.636970 0.000000
0.196645 0.636889 0.000000
0.231022 0.636781 0.000000
0.268198 0.636643 0.000000
0.307869 0.636471 0.000000
0.349746 0.636261 0.000000
0.393548 0.636008 0.000000
0.438990 0.635712 0.000000
0.485773 0.635370 0.000000
0.533579 0.634983 0.000000
0.582062 0.634554 0.000000
0.630842 0.634086 0.000000
0.671011 0.622738 0.000000
0.720773 0.620239 0.000000
0.769923 0.617197 0.000000
0.817945 0.613516 0.000000
0.863992 0.609195 0.000000
0.906343 0.604695 0.000000
0.944402 0.600075 0.000000
0.976775 0.595674 0.000000
1.000000 0.592074 0.000000
1.000000 0.590674 0.000000
1.000000 0.590339 0.000000
0.125053 0.687793 0.000000
0.125053 0.687793 0.000000
0.125053 0.687792 0.000000
0.125052 0.687791 0.000000
0.125052 0.687787 0.000000
0.125050 0.687779 0.000000
0.125047 0.687767 0.000000
0.125042 0.687746 0.000000
0.125034 0.687714 0.000000
0.134879 0.687668 0.000000
0.163207 0.687604 0.000000
0.194953 0.687517 0.000000
0.229753 0.687402 0.000000
0.267286 0.687255 0.000000
0.307260 0.687070 0.000000
0.349399 0.686845 0.000000
0.393431 0.686574 0.000000
0.439077 0.686255 0.000000
0.486045 0.685887 0.000000
0.534019 0.685469 0.000000
0.582657 0.685005 0.000000
0.631579 0.684497 0.000000
0.680364 0.683954 0.000000
0.719405 0.671931 0.000000
0.768319 0.669459 0.000000
0.816096 0.666465 0.000000
0.862094 0.662879 0.000000
0.904573 0.658990 0.000000
0.942572 0.655041 0.000000
0.974895 0.651274 0.000000
0.999807 0.648095 0.000000
1.000000 0.646916 0.000000
1.000000 0.646637 0.000000
0.137227 0.738016 0.000000
0.137227 0.738016 0.000000
0.137227 0.738015 0.000000
0.137226 0.738014 0.000000
0.137226 0.738010 0.000000
0.137224 0.738002 0.000000
0.137220 0.737988 0.000000
0.137215 0.737966 0.000000
0.137207 0.737933 0.000000
0.137195 0.737884 0.000000
0.158451 0.737815 0.000000
0.191186 0.737722 0.000000
0.226785 0.737600 0.000000
0.264970 0.737443 0.000000
0.305482 0.737246 0.000000
0.348073 0.737005 0.000000
0.392489 0.736716 0.000000
0.438469 0.736374 0.000000
0.485729 0.735979 0.000000
0.533964 0.735529 0.000000
0.582835 0.735027 0.000000
0.631969 0.734477 0.000000
0.680947 0.733886 0.000000
0.729296 0.733263 0.000000
0.766706 0.720599 0.000000
0.814189 0.718199 0.000000
0.859890 0.715315 0.000000
0.902648 0.711988 0.000000
0.940583 0.708595 0.000000
0.972851 0.705354 0.000000
0.997722 0.702615 0.000000
1.000000 0.701519 0.000000
1.000000 0.701285 0.000000
0.149178 0.787318 0.000000
0.149178 0.787318 0.000000
0.149178 0.787317 0.000000
0.149177 0.787316 0.000000
0.149176 0.787311 0.000000
0.149174 0.787303 0.000000
0.149171 0.787289 0.000000
0.149165 0.787266 0.000000
0.149157 0.787230 0.000000
0.149144 0.787178 0.000000
0.150002 0.787105 0.000000
0.184494 0.787006 0.000000
0.221460 0.786877 0.000000
0.260725 0.786710 0.000000
0.302107 0.786501 0.000000
0.345410 0.786244 0.000000
0.390422 0.785935 0.000000
0.436907 0.785570 0.000000
0.484603 0.785146 0.000000
0.533219 0.784664 0.000000
0.582428 0.784123 0.000000
0.631864 0.783528 0.000000
0.681113 0.782885 0.000000
0.729710 0.782205 0.000000
0.777119 0.781499 0.000000
0.812380 0.768272 0.000000
0.857785 0.765987 0.000000
0.900442 0.763278 0.000000
0.938458 0.760352 0.000000
0.970669 0.757551 0.000000
0.995496 0.755179 0.000000
1.000000 0.754148 0.000000
1.000000 0.753952 0.000000
0.160765 0.835122 0.000000
0.160765 0.835122 0.000000
0.160765 0.835121 0.000000
0.160765 0.835119 0.000000
0.160764 0.835114 0.000000
0.160762 0.835106 0.000000
0.160758 0.835091 0.000000
0.160752 0.835066 0.000000
0.160743 0.835028 0.000000
0.160730 0.834973 0.000000
0.160711 0.834896 0.000000
0.173666 0.834792 0.000000
0.212899 0.834654 0.000000
0.253882 0.834478 0.000000
0.296605 0.834256 0.000000
0.340982 0.833983 0.000000
0.386872 0.833654 0.000000
0.434089 0.833265 0.000000
0.482406 0.832812 0.000000
0.531558 0.832295 0.000000
0.581236 0.831713 0.000000
0.631087 0.831071 0.000000
0.680702 0.830381 0.000000
0.729596 0.829733 0.000000
0.777358 0.829026 0.000000
0.823371 0.828270 0.000000
0.855782 0.814416 0.000000
0.898066 0.812243 0.000000
0.936238 0.809803 0.000000
0.968388 0.807371 0.000000
0.993169 0.805307 0.000000
1.000000 0.804327 0.000000
1.000000 0.804164 0.000000
0.171823 0.880738 0.000000
0.171823 0.880738 0.000000
0.171823 0.880737 0.000000
0.171822 0.880735 0.000000
0.171821 0.880730 0.000000
0.171819 0.880721 0.000000
0.171815 0.880705 0.000000
0.171809 0.880679 0.000000
0.171799 0.880639 0.000000
0.171785 0.880581 0.000000
0.171765 0.880500 0.000000
0.171739 0.880390 0.000000
0.199958 0.880245 0.000000
0.243641 0.880058 0.000000
0.288381 0.879823 0.000000
0.334323 0.879534 0.000000
0.381463 0.879185 0.000000
0.429702 0.878772 0.000000
0.478874 0.878289 0.000000
0.528753 0.877736 0.000000
0.578918 0.877193 0.000000
0.629216 0.876595 0.000000
0.679294 0.875926 0.000000
0.728700 0.875188 0.000000
