app/src/main/assets/luts/food_garden.cube
# V-Cam procedural LUT — food_garden
# Generated by LutBaker. Do not edit by hand.
TITLE "V-Cam food_garden"
LUT_3D_SIZE 9
DOMAIN_MIN 0.0 0.0 0.0
DOMAIN_MAX 1.0 1.0 1.0
0.000000 0.000000 0.000000
0.007502 0.000000 0.000250
0.082911 0.000000 0.003261
0.215582 0.000000 0.016438
0.383930 0.000000 0.051397
0.577496 0.000000 0.098317
0.779208 0.000000 0.147212
0.954386 0.000000 0.189675
1.000000 0.000000 0.200732
0.000261 0.007831 0.000000
0.007762 0.007831 0.000000
0.082909 0.004547 0.000000
0.215578 0.000000 0.009254
0.383921 0.000000 0.050248
0.577484 0.000000 0.098314
0.779194 0.000000 0.147209
0.954369 0.000000 0.189671
1.000000 0.000000 0.200732
0.003405 0.085408 0.000000
0.010854 0.085406 0.000000
0.084859 0.085392 0.000000
0.215519 0.075190 0.000000
0.383824 0.043599 0.000000
0.577340 0.000000 0.056551
0.779023 0.000000 0.147167
0.954167 0.000000 0.189622
1.000000 0.000000 0.200732
0.017148 0.220388 0.000000
0.023275 0.220386 0.000000
0.091897 0.220357 0.000000
0.219154 0.220235 0.000000
0.383407 0.207286 0.000000
0.576712 0.182009 0.000000
0.778277 0.107712 0.000000
0.953285 0.000000 0.122213
1.000000 0.000000 0.178545
0.053173 0.391257 0.000000
0.053172 0.391254 0.000000
0.105129 0.391209 0.000000
0.225515 0.391014 0.000000
0.388646 0.390505 0.000000
0.575059 0.374036 0.000000
0.776117 0.349429 0.000000
0.950888 0.306107 0.000000
1.000000 0.280132 0.000000
0.100504 0.586516 0.000000
0.100502 0.586511 0.000000
0.114737 0.586448 0.000000
0.231082 0.586175 0.000000
0.393082 0.585456 0.000000
0.581188 0.584112 0.000000
0.771449 0.564213 0.000000
0.946057 0.543956 0.000000
1.000000 0.532570 0.000000
0.149178 0.787318 0.000000
0.149176 0.787311 0.000000
0.149157 0.787230 0.000000
0.221460 0.786877 0.000000
0.390422 0.785935 0.000000
0.582428 0.784123 0.000000
0.777119 0.781499 0.000000
0.938458 0.760352 0.000000
1.000000 0.753952 0.000000
0.191494 0.961889 0.000000
0.191492 0.961882 0.000000
0.191471 0.961792 0.000000
0.191375 0.961400 0.000000
0.363090 0.960331 0.000000
0.570455 0.958156 0.000000
0.773993 0.954687 0.000000
0.943900 0.950584 0.000000
1.000000 0.933080 0.000000
0.200732 1.000000 0.000000
0.200732 1.000000 0.000000
0.200732 1.000000 0.000000
0.200732 1.000000 0.000000
0.338455 1.000000 0.000000
0.559491 1.000000 0.000000
0.769206 1.000000 0.000000
0.942217 1.000000 0.000000
1.000000 0.985202 0.000000
0.000000 0.000252 0.007549
0.007250 0.000000 0.007549
0.082911 0.000000 0.010789
0.215582 0.000000 0.023354
0.383928 0.000000 0.052329
0.577494 0.000000 0.098317
0.779206 0.000000 0.147212
0.954383 0.000000 0.189674
1.000000 0.000000 0.200732
0.000000 0.007831 0.007287
0.007501 0.007831 0.007537
0.082906 0.007526 0.010252
0.215571 0.006905 0.022828
0.383911 0.001081 0.052030
0.577470 0.000000 0.098311
0.779175 0.000000 0.147204
0.954346 0.000000 0.189666
1.000000 0.000000 0.200732
0.000000 0.085407 0.004093
0.010562 0.085404 0.007453
0.084715 0.085391 0.007476
0.215514 0.075334 0.006664
0.383814 0.043629 0.000341
0.577325 0.000000 0.056508
0.779005 0.000000 0.147163
0.954145 0.000000 0.189617
1.000000 0.000000 0.200732
0.010967 0.220387 0.000000
0.023039 0.220382 0.006144
0.091795 0.220354 0.006071
0.219111 0.220233 0.005556
0.383399 0.207288 0.000000
0.576699 0.182020 0.000000
0.778259 0.107754 0.000000
0.953263 0.000000 0.122152
1.000000 0.000000 0.178502
0.053172 0.391256 0.000000
0.053170 0.391247 0.000000
0.105151 0.391202 0.000000
0.225520 0.391009 0.000000
0.388644 0.390502 0.000000
0.575049 0.374037 0.000000
0.776100 0.349438 0.000000
0.950868 0.306124 0.000000
1.000000 0.280152 0.000000
0.100503 0.586515 0.000000
0.100500 0.586502 0.000000
0.114787 0.586439 0.000000
0.231102 0.586167 0.000000
0.393087 0.585450 0.000000
0.581184 0.584108 0.000000
0.771437 0.564213 0.000000
0.946040 0.543959 0.000000
1.000000 0.532574 0.000000
0.149178 0.787318 0.000000
0.149173 0.787298 0.000000
0.149153 0.787217 0.000000
0.221515 0.786864 0.000000
0.390444 0.785924 0.000000
0.582433 0.784114 0.000000
0.777114 0.781493 0.000000
0.938447 0.760350 0.000000
1.000000 0.753950 0.000000
0.191495 0.961893 0.000000
0.191487 0.961862 0.000000
0.191466 0.961773 0.000000
0.191371 0.961381 0.000000
0.363145 0.960313 0.000000
0.570475 0.958141 0.000000
0.773996 0.954675 0.000000
0.943894 0.950576 0.000000
1.000000 0.933074 0.000000
0.200732 1.000000 0.000000
0.200732 1.000000 0.000000
0.200732 1.000000 0.000000
0.200732 1.000000 0.000000
0.338531 1.000000 0.000000
0.559519 1.000000 0.000000
0.769213 1.000000 0.000000
0.942214 1.000000 0.000000
1.000000 0.985202 0.000000
0.000000 0.003281 0.083264
0.004215 0.000000 0.083263
0.080959 0.000000 0.083249
0.215571 0.000000 0.092266
0.383909 0.000000 0.107730
0.577463 0.000000 0.127270
0.779174 0.000000 0.147204
0.954345 0.000000 0.189665
1.000000 0.000000 0.200732
0.000000 0.011105 0.083262
0.007492 0.010854 0.083257
0.081110 0.007800 0.083244
0.215560 0.007145 0.092129
0.383892 0.001232 0.107692
0.577439 0.000000 0.127237
0.779143 0.000000 0.147196
0.954308 0.000000 0.189656
1.000000 0.000000 0.200732
0.000000 0.085402 0.081219
0.007444 0.085399 0.081365
0.082875 0.085385 0.083133
0.215451 0.082966 0.088337
0.383700 0.079805 0.104248
0.577154 0.060576 0.124437
0.778779 0.000000 0.147108
0.953877 0.000000 0.189552
1.000000 0.000000 0.200732
0.000000 0.220376 0.071962
0.006097 0.220371 0.072100
0.089912 0.220312 0.082337
0.218409 0.220213 0.082433
0.383309 0.208024 0.077988
0.576543 0.182679 0.055084
0.778043 0.108256 0.000000
0.953003 0.000000 0.121421
1.000000 0.000000 0.177989
0.000000 0.391239 0.031617
0.000000 0.391231 0.031647
0.103754 0.391129 0.075716
0.224974 0.390946 0.075208
0.388304 0.390469 0.072868
0.574934 0.374207 0.039436
0.775886 0.349552 0.000000
0.950626 0.306331 0.000000
1.000000 0.280396 0.000000
0.083594 0.586496 0.000000
0.083538 0.586483 0.000000
0.114657 0.586333 0.032107
0.231139 0.586068 0.029859
0.393068 0.585369 0.022416
0.581126 0.584063 0.008917
0.771284 0.564212 0.000000
0.945838 0.544000 0.000000
1.000000 0.532625 0.000000
0.149177 0.787314 0.000000
0.149172 0.787294 0.000000
0.149116 0.787063 0.000000
0.222172 0.786714 0.000000
0.390707 0.785787 0.000000
0.582501 0.784004 0.000000
0.777061 0.781428 0.000000
0.938306 0.760314 0.000000
1.000000 0.753923 0.000000
0.191504 0.961930 0.000000
0.191497 0.961900 0.000000
0.191409 0.961538 0.000000
0.191315 0.961151 0.000000
0.363806 0.960099 0.000000
0.570718 0.957958 0.000000
0.774030 0.954537 0.000000
0.943818 0.950485 0.000000
1.000000 0.933001 0.000000
0.200732 1.000000 0.000000
0.200732 1.000000 0.000000
0.200732 1.000000 0.000000
0.200732 1.000000 0.000000
0.339435 1.000000 0.000000
0.559853 1.000000 0.000000
0.769293 1.000000 0.000000
0.942167 1.000000 0.000000
1.000000 0.985202 0.000000
0.000000 0.016548 0.216334
0.000000 0.009280 0.216332
0.072663 0.000000 0.216303
0.211708 0.000000 0.216177
0.383828 0.000000 0.227418
0.577329 0.000000 0.238359
0.779034 0.000000 0.244798
0.954180 0.000000 0.238344
1.000000 0.000000 0.222248
0.000000 0.024136 0.216329
0.007251 0.023886 0.216320
0.072812 0.007462 0.216291
0.211752 0.006944 0.216168
0.383811 0.000638 0.227399
0.577305 0.000000 0.238337
0.779004 0.000000 0.244759
0.954143 0.000000 0.238284
1.000000 0.000000 0.222181
0.000000 0.094413 0.216270
0.007004 0.094285 0.216261
0.082773 0.092633 0.216167
0.212386 0.085056 0.216065
0.383620 0.081756 0.226554
0.577017 0.062554 0.237625
0.778633 0.000000 0.244291
0.953704 0.000000 0.237576
1.000000 0.000000 0.221395
0.000000 0.220329 0.212072
0.005896 0.220325 0.212114
0.082239 0.220274 0.212770
0.215226 0.220169 0.215711
0.382940 0.215180 0.218957
0.575877 0.209644 0.229839
0.777108 0.186421 0.235761
0.951871 0.128982 0.228823
1.000000 0.067257 0.212626
0.000000 0.391167 0.201215
0.000000 0.391159 0.201217
0.075348 0.391062 0.201944
0.221767 0.390699 0.213763
0.386659 0.390348 0.213795
0.574449 0.375922 0.205869
0.774970 0.351534 0.176402
0.949579 0.307932 0.101433
1.000000 0.281489 0.000000
0.000000 0.586416 0.167281
0.000000 0.586403 0.167303
0.030472 0.586255 0.167874
0.228709 0.585655 0.203033
0.391812 0.585034 0.202113
0.580017 0.583882 0.199103
0.770636 0.564892 0.158745
0.944960 0.544207 0.006045
1.000000 0.532863 0.000000
0.000000 0.787296 0.020815
0.000000 0.787276 0.021072
0.000000 0.787045 0.024210
0.222243 0.786079 0.160406
0.390811 0.785207 0.157432
0.582222 0.783543 0.149758
0.776493 0.781160 0.138399
0.937698 0.760168 0.000000
1.000000 0.753813 0.000000
0.191542 0.962088 0.000000
0.191535 0.962058 0.000000
0.191447 0.961694 0.000000
0.191080 0.960180 0.000000
0.366650 0.959188 0.000000
0.571774 0.957179 0.000000
0.774186 0.953951 0.000000
0.943497 0.950099 0.000000
1.000000 0.932690 0.000000
0.200732 1.000000 0.000000
0.200732 1.000000 0.000000
0.200732 1.000000 0.000000
0.200732 1.000000 0.000000
0.343317 1.000000 0.000000
0.561304 1.000000 0.000000
0.769649 1.000000 0.000000
0.941975 1.000000 0.000000
1.000000 0.985202 0.000000
0.000000 0.051768 0.385463
0.000000 0.047432 0.385458
0.043177 0.000000 0.385409
0.203293 0.000000 0.385194
0.377430 0.000000 0.384629
0.576963 0.000000 0.398488
0.778554 0.000000 0.405450
0.953733 0.000000 0.405587
1.000000 0.000000 0.399195
0.000000 0.056108 0.385454
0.004959 0.055957 0.385439
0.043283 0.004916 0.385389
0.203302 0.003284 0.385175
0.377415 0.000000 0.384614
0.576939 0.000000 0.398468
0.778522 0.000000 0.405422
0.953697 0.000000 0.405547
1.000000 0.000000 0.399154
0.000000 0.111178 0.385353
0.004184 0.111103 0.385338
0.081530 0.109583 0.385165
0.203876 0.083220 0.384959
0.377613 0.080854 0.384436
0.576661 0.060159 0.397998
0.778134 0.000000 0.405086
0.953261 0.000000 0.405080
1.000000 0.000000 0.398669
0.000000 0.231717 0.384920
0.000877 0.231703 0.384908
0.079653 0.230969 0.384761
0.214933 0.227865 0.384185
0.378628 0.219296 0.383801
0.575537 0.213585 0.395544
0.776496 0.190470 0.402333
0.951397 0.132706 0.402415
1.000000 0.072565 0.396365
0.000000 0.390973 0.377451
0.000000 0.390965 0.377444
0.074334 0.390880 0.377695
0.213495 0.390566 0.378982
0.382143 0.390192 0.382877
0.573272 0.381814 0.382988
0.772621 0.373611 0.388477
0.946792 0.353527 0.386308
1.000000 0.338905 0.379537
0.000000 0.586198 0.364208
0.000000 0.586186 0.364208
0.025872 0.586044 0.364320
0.202065 0.585469 0.366088
0.387570 0.584257 0.379497
0.577139 0.583501 0.379532
0.769020 0.567783 0.367616
0.942638 0.547854 0.338604
1.000000 0.536392 0.319760
0.000000 0.787244 0.329072
0.000000 0.787224 0.329095
0.000000 0.786994 0.329381
0.155826 0.786033 0.331946
0.388541 0.783784 0.365754
0.580426 0.782425 0.364611
0.774163 0.780557 0.361102
0.936059 0.761549 0.314015
1.000000 0.755019 0.286827
0.000000 0.962452 0.241749
0.000000 0.962432 0.241779
0.000000 0.962063 0.243043
0.000000 0.960529 0.248410
0.368381 0.956919 0.323051
0.572136 0.955221 0.315914
0.773148 0.952480 0.301465
0.941682 0.949142 0.282985
1.000000 0.932675 0.243233
0.000000 1.000000 0.191418
0.000000 1.000000 0.191460
0.000000 1.000000 0.191976
0.000000 1.000000 0.194344
0.348134 1.000000 0.291448
0.563170 1.000000 0.281704
0.769494 1.000000 0.262402
0.940793 1.000000 0.237432
1.000000 0.985958 0.223282
0.000000 0.099061 0.580565
0.000000 0.099059 0.580558
0.000000 0.041678 0.580482
0.182752 0.000000 0.580150
0.369602 0.000000 0.579272
0.567351 0.000000 0.577605
0.777247 0.000000 0.594688
0.952838 0.000000 0.599553
1.000000 0.000000 0.598011
0.000000 0.099058 0.580552
0.000000 0.099052 0.580530
0.000000 0.041785 0.580452
0.182716 0.000000 0.580122
0.369579 0.000000 0.579246
0.567330 0.000000 0.577583
0.777215 0.000000 0.594660
0.952802 0.000000 0.599520
1.000000 0.000000 0.597978
0.000000 0.137153 0.580397
0.000000 0.137133 0.580376
0.074608 0.135846 0.580115
0.183071 0.075122 0.579785
0.369613 0.068749 0.578935
0.567211 0.055473 0.577323
0.776838 0.000000 0.594335
0.952373 0.000000 0.599124
1.000000 0.000000 0.597575
0.000000 0.245382 0.579741
0.000000 0.245368 0.579720
0.069649 0.244706 0.579476
0.212757 0.241442 0.578453
0.370277 0.215993 0.577676
0.567192 0.212376 0.576284
0.775254 0.188301 0.592145
0.950541 0.123406 0.597068
1.000000 0.051982 0.595768
0.000000 0.405137 0.578075
0.000000 0.405127 0.578058
0.055227 0.404794 0.577855
0.208676 0.402831 0.577017
0.381569 0.398002 0.575111
0.567859 0.388660 0.574205
0.771473 0.380569 0.586623
0.945889 0.359499 0.590520
1.000000 0.344791 0.589064
0.000000 0.585757 0.565963
0.000000 0.585746 0.565953
0.015844 0.585616 0.565869
0.199940 0.585090 0.566359
0.378893 0.584008 0.568001
0.571518 0.583172 0.572453
0.766384 0.573761 0.571032
0.938236 0.562377 0.569200
1.000000 0.555933 0.567034
0.000000 0.787115 0.550022
0.000000 0.787096 0.550021
0.000000 0.786868 0.550000
0.145159 0.785915 0.550552
0.362883 0.783691 0.553662
0.575780 0.780737 0.568367
0.769943 0.779745 0.568413
0.932619 0.765357 0.554178
1.000000 0.758952 0.543131
0.000000 0.961525 0.516547
0.000000 0.961506 0.516548
0.000000 0.961276 0.516566
0.000000 0.960293 0.516685
0.313165 0.957317 0.521147
0.570597 0.951946 0.552508
0.770464 0.950016 0.548669
0.937437 0.947588 0.541919
1.000000 0.934471 0.529563
0.000000 1.000000 0.500599
0.000000 1.000000 0.500601
0.000000 1.000000 0.500634
0.000000 1.000000 0.500818
0.281096 1.000000 0.503974
0.563260 1.000000 0.541065
0.767672 1.000000 0.535776
0.937084 1.000000 0.527265
1.000000 0.990429 0.522700
0.000000 0.148413 0.784162
0.000000 0.148411 0.784153
0.000000 0.129768 0.784051
0.136218 0.000000 0.783609
0.354087 0.000000 0.782425
0.561683 0.000000 0.780125
0.763502 0.000000 0.776739
0.951442 0.000000 0.797684
1.000000 0.000000 0.799123
0.000000 0.148409 0.784145
0.000000 0.148402 0.784115
0.000000 0.129846 0.784013
0.136135 0.000000 0.783570
0.354051 0.000000 0.782388
0.561654 0.000000 0.780091
0.763473 0.000000 0.776709
0.951407 0.000000 0.797651
1.000000 0.000000 0.799090
0.000000 0.165678 0.783948
0.000000 0.165647 0.783918
0.047699 0.164791 0.783562
0.135730 0.045542 0.783113
0.353737 0.027165 0.781947
0.561304 0.000000 0.779683
0.763124 0.000000 0.776354
0.950990 0.000000 0.797259
1.000000 0.000000 0.798694
0.000000 0.262545 0.783108
0.000000 0.262524 0.783079
0.033665 0.262073 0.782731
0.204909 0.258565 0.781237
0.353849 0.206332 0.780085
0.560886 0.198215 0.777969
0.762273 0.186019 0.774874
0.949208 0.107418 0.795379
1.000000 0.009709 0.797002
0.000000 0.416234 0.780992
0.000000 0.416219 0.780965
0.000000 0.416035 0.780639
0.195877 0.413853 0.779244
0.378606 0.408419 0.775735
0.560569 0.384115 0.773877
0.760790 0.379852 0.771431
0.944692 0.355360 0.789454
1.000000 0.339510 0.790993
0.000000 0.602916 0.777256
0.000000 0.602901 0.777232
0.000000 0.602722 0.776948
0.175734 0.601247 0.775746
0.371680 0.597125 0.772806
0.570762 0.590507 0.768396
0.760219 0.581456 0.767002
0.936005 0.573176 0.779148
1.000000 0.565539 0.780738
0.000000 0.786424 0.759552
0.000000 0.786410 0.759538
0.000000 0.786237 0.759376
0.125654 0.785510 0.758997
0.357497 0.783445 0.759013
0.567043 0.780588 0.760219
0.763779 0.779269 0.764743
0.928758 0.771695 0.763461
1.000000 0.765931 0.760650
0.000000 0.960081 0.743764
0.000000 0.960062 0.743754
0.000000 0.959844 0.743640
0.000000 0.958909 0.743168
0.304891 0.956524 0.743735
0.547796 0.951989 0.746856
0.765536 0.947275 0.759824
0.931812 0.945997 0.759127
0.998116 0.937915 0.755004
0.000000 1.000000 0.736004
0.000000 1.000000 0.735994
0.000000 1.000000 0.735887
0.000000 1.000000 0.735448
0.274208 1.000000 0.735817
0.535333 1.000000 0.739024
0.763968 1.000000 0.755678
0.932198 1.000000 0.753916
1.000000 0.996408 0.752052
0.000000 0.191617 0.962398
0.000000 0.191615 0.962389
0.000000 0.191589 0.962279
0.008633 0.000000 0.961802
0.330310 0.000000 0.960512
0.552889 0.000000 0.957954
0.762221 0.000000 0.954040
0.934256 0.000000 0.949657
1.000000 0.000000 0.968271
0.000000 0.191613 0.962382
0.000000 0.191604 0.962344
0.000000 0.191577 0.962234
0.008300 0.000000 0.961756
0.330254 0.000000 0.960467
0.552850 0.000000 0.957910
0.762185 0.000000 0.953998
0.934217 0.000000 0.949618
1.000000 0.000000 0.968237
0.000000 0.191566 0.962188
0.000000 0.191557 0.962150
0.000000 0.191448 0.961701
0.004325 0.000000 0.961209
0.329594 0.000000 0.959926
0.552385 0.000000 0.957383
0.761746 0.000000 0.953495
0.933755 0.000000 0.949148
1.000000 0.000000 0.967824
0.000000 0.276871 0.961370
0.000000 0.276841 0.961332
0.000000 0.276501 0.960883
0.187602 0.272937 0.958931
0.328643 0.186327 0.957596
0.551231 0.170306 0.955118
0.760274 0.142607 0.951345
0.931962 0.104094 0.947153
1.000000 0.000000 0.966062
0.000000 0.426251 0.959363
0.000000 0.426230 0.959325
0.000000 0.425979 0.958876
0.170062 0.423878 0.956932
0.371551 0.417728 0.951824
0.549707 0.374862 0.949313
0.757756 0.366105 0.945913
0.928602 0.356446 0.942198
1.000000 0.333351 0.960190
0.000000 0.611424 0.954778
0.000000 0.611406 0.954752
0.000000 0.611192 0.954430
0.125237 0.609893 0.953045
0.357636 0.605163 0.948631
0.567989 0.597504 0.939994
0.755235 0.577162 0.937062
0.924266 0.573500 0.934721
1.000000 0.564680 0.948769
0.000000 0.805271 0.947250
0.000000 0.805254 0.947228
0.000000 0.805053 0.946966
0.000000 0.804198 0.945840
0.333194 0.800297 0.942940
0.558681 0.793079 0.936822
0.763061 0.785100 0.930184
0.923360 0.777637 0.929136
1.000000 0.775093 0.936754
0.000000 0.958427 0.924372
0.000000 0.958409 0.924356
0.000000 0.958204 0.924162
0.000000 0.957324 0.923337
0.298731 0.955090 0.922438
0.543942 0.951285 0.921966
0.758515 0.946977 0.922826
0.926029 0.945212 0.926596
0.996177 0.942589 0.926764
0.000000 1.000000 0.920353
0.000000 1.000000 0.920337
0.000000 1.000000 0.920149
0.000000 1.000000 0.919350
0.266080 1.000000 0.918290
0.532144 1.000000 0.918071
0.753843 1.000000 0.919524
0.926642 1.000000 0.925252
0.998035 1.000000 0.926057
0.000000 0.200732 1.000000
0.000000 0.200732 1.000000
0.000000 0.200732 1.000000
0.000000 0.065781 1.000000
0.320894 0.000000 1.000000
0.550116 0.000000 1.000000
0.762838 0.000000 1.000000
0.937163 0.000000 1.000000
0.985202 0.000000 1.000000
0.000000 0.200732 1.000000
0.000000 0.200732 1.000000
0.000000 0.200732 1.000000
0.000000 0.066105 1.000000
0.320820 0.000000 1.000000
0.550068 0.000000 1.000000
0.762795 0.000000 1.000000
0.937119 0.000000 1.000000
0.985202 0.000000 1.000000
0.000000 0.200732 1.000000
0.000000 0.200732 1.000000
0.000000 0.200732 1.000000
0.000000 0.069804 1.000000
0.319936 0.000000 1.000000
0.549495 0.000000 1.000000
0.762283 0.000000 1.000000
0.936593 0.000000 1.000000
0.985202 0.000000 1.000000
0.000000 0.275337 1.000000
0.000000 0.275307 1.000000
0.000000 0.274936 1.000000
0.174251 0.271706 1.000000
0.317809 0.171020 1.000000
0.547707 0.148460 1.000000
0.760336 0.104359 1.000000
0.934359 0.013162 1.000000
0.985202 0.000000 1.000000
0.000000 0.426507 1.000000
0.000000 0.426485 1.000000
0.000000 0.426228 1.000000
0.150614 0.424285 1.000000
0.366180 0.418202 1.000000
0.544991 0.368096 1.000000
0.756963 0.356257 1.000000
0.930228 0.342497 1.000000
0.986576 0.335434 1.000000
0.000000 0.612940 1.000000
0.000000 0.612922 1.000000
0.000000 0.612710 1.000000
0.087106 0.611588 1.000000
0.348222 0.606871 1.000000
0.565585 0.599307 1.000000
0.752853 0.573749 1.000000
0.924483 0.568241 1.000000
0.989364 0.565036 1.000000
0.000000 0.807795 1.000000
0.000000 0.807778 1.000000
0.000000 0.807575 1.000000
0.000000 0.806712 1.000000
0.318794 0.802942 1.000000
0.552292 0.795850 1.000000
0.762139 0.787537 1.000000
0.921744 0.776111 1.000000
0.993555 0.774843 1.000000
0.000000 0.974465 1.000000
0.000000 0.974447 1.000000
0.000000 0.974240 1.000000
0.000000 0.973352 1.000000
0.280335 0.970120 1.000000
0.537222 0.963384 1.000000
0.755885 0.954615 1.000000
0.925762 0.947579 0.996361
0.994294 0.944919 0.995939
0.000000 1.000000 0.985202
0.000000 1.000000 0.985202
0.000000 1.000000 0.985202
0.000000 1.000000 0.985202
0.261918 1.000000 0.986035
0.530703 1.000000 0.988833
0.752957 1.000000 0.991642
0.925079 1.000000 0.993517
0.995736 1.000000 0.995588
