app/src/main/assets/luts/food_fresh.cube
# V-Cam procedural LUT — food_fresh
# Generated by LutBaker. Do not edit by hand.
TITLE "V-Cam food_fresh"
LUT_3D_SIZE 33
DOMAIN_MIN 0.0 0.0 0.0
DOMAIN_MAX 1.0 1.0 1.0
0.016632 0.000000 0.000000
0.051752 0.000000 0.000000
0.086872 0.000000 0.000000
0.121992 0.000000 0.000000
0.157112 0.000000 0.000000
0.192232 0.000000 0.000000
0.231028 0.000000 0.000000
0.283708 0.000000 0.000000
0.336387 0.000000 0.000000
0.389067 0.000000 0.000000
0.441747 0.000000 0.000000
0.494427 0.000000 0.000000
0.547107 0.000000 0.000000
0.590735 0.000000 0.000000
0.633836 0.000000 0.000000
0.676938 0.000000 0.000000
0.720040 0.000000 0.000000
0.763142 0.000000 0.000000
0.806243 0.000000 0.000000
0.839563 0.000000 0.000000
0.868298 0.000000 0.000000
0.897032 0.000000 0.000000
0.925767 0.000000 0.000000
0.954501 0.000000 0.000000
0.983236 0.000000 0.000000
1.000000 0.000000 0.000000
1.000000 0.000000 0.000000
1.000000 0.000000 0.000000
1.000000 0.000000 0.000000
1.000000 0.000000 0.000000
1.000000 0.000000 0.000000
1.000000 0.000000 0.000000
1.000000 0.000000 0.000000
0.014456 0.004010 0.000000
0.049576 0.002332 0.000000
0.084696 0.000654 0.000000
0.119815 0.000000 0.000000
0.154935 0.000000 0.000000
0.190055 0.000000 0.000000
0.227763 0.000000 0.000000
0.280443 0.000000 0.000000
0.333123 0.000000 0.000000
0.385803 0.000000 0.000000
0.438482 0.000000 0.000000
0.491162 0.000000 0.000000
0.543842 0.000000 0.000000
0.588064 0.000000 0.000000
0.631165 0.000000 0.000000
0.674267 0.000000 0.000000
0.717369 0.000000 0.000000
0.760470 0.000000 0.000000
0.803572 0.000000 0.000000
0.837783 0.000000 0.000000
0.866517 0.000000 0.000000
0.895251 0.000000 0.000000
0.923986 0.000000 0.000000
0.952720 0.000000 0.000000
0.981455 0.000000 0.000000
1.000000 0.000000 0.000000
1.000000 0.000000 0.000000
1.000000 0.000000 0.000000
1.000000 0.000000 0.000000
1.000000 0.000000 0.000000
1.000000 0.000000 0.000000
1.000000 0.000000 0.000000
1.000000 0.000000 0.000000
0.011255 0.036556 0.000000
0.046375 0.034878 0.000000
0.081495 0.033200 0.000000
0.116615 0.031521 0.000000
0.151735 0.029843 0.000000
0.186854 0.028165 0.000000
0.222962 0.026486 0.000000
0.275641 0.024808 0.000000
0.328321 0.023129 0.000000
0.381001 0.021451 0.000000
0.433681 0.019773 0.000000
0.486361 0.018094 0.000000
0.539041 0.016416 0.000000
0.584135 0.014738 0.000000
0.627237 0.013059 0.000000
0.670339 0.011381 0.000000
0.713440 0.009702 0.000000
0.756542 0.008024 0.000000
0.799644 0.006346 0.000000
0.835164 0.004667 0.000000
0.863898 0.002989 0.000000
0.892632 0.001311 0.000000
0.921367 0.000000 0.000000
0.950101 0.000000 0.000000
0.978836 0.000000 0.000000
1.000000 0.000000 0.000000
1.000000 0.000000 0.000000
1.000000 0.000000 0.000000
1.000000 0.000000 0.000000
1.000000 0.000000 0.000000
1.000000 0.000000 0.000000
1.000000 0.000000 0.000000
1.000000 0.000000 0.000000
0.008054 0.069103 0.000000
0.043174 0.067424 0.000000
0.078294 0.065746 0.000000
0.113414 0.064067 0.000000
0.148534 0.062389 0.000000
0.183654 0.060711 0.000000
0.218774 0.059032 0.000000
0.270840 0.057354 0.000000
0.323520 0.055676 0.000000
0.376200 0.053997 0.000000
0.428880 0.052319 0.000000
0.481560 0.050640 0.000000
0.534240 0.048962 0.000000
0.580207 0.047284 0.000000
0.623309 0.045605 0.000000
0.666410 0.043927 0.000000
0.709512 0.042249 0.000000
0.752614 0.040570 0.000000
0.795715 0.038892 0.000000
0.832545 0.037213 0.000000
0.861279 0.035535 0.000000
0.890014 0.033857 0.000000
0.918748 0.032178 0.000000
0.947483 0.030500 0.000000
0.976217 0.028822 0.000000
1.000000 0.027143 0.000000
1.000000 0.025465 0.000000
1.000000 0.023786 0.000000
1.000000 0.022108 0.000000
1.000000 0.020430 0.000000
1.000000 0.018751 0.000000
1.000000 0.017073 0.000000
1.000000 0.015395 0.000000
0.004853 0.101649 0.000000
0.039973 0.099970 0.000000
0.075093 0.098292 0.000000
0.110213 0.096613 0.000000
0.145333 0.094935 0.000000
0.180453 0.093257 0.000000
0.215573 0.091578 0.000000
0.266039 0.089900 0.000000
0.318719 0.088222 0.000000
0.371399 0.086543 0.000000
0.424079 0.084865 0.000000
0.476758 0.083186 0.000000
0.529438 0.081508 0.000000
0.576279 0.079830 0.000000
0.619380 0.078151 0.000000
0.662482 0.076473 0.000000
0.705584 0.074795 0.000000
0.748685 0.073116 0.000000
0.791787 0.071438 0.000000
0.829926 0.069759 0.000000
0.858660 0.068081 0.000000
0.887395 0.066403 0.000000
0.916129 0.064724 0.000000
0.944864 0.063046 0.000000
0.973598 0.061368 0.000000
1.000000 0.059689 0.000000
1.000000 0.058011 0.000000
1.000000 0.056332 0.000000
1.000000 0.054654 0.000000
1.000000 0.052976 0.000000
1.000000 0.051297 0.000000
1.000000 0.049619 0.000000
1.000000 0.047941 0.000000
0.001652 0.134195 0.000000
0.036772 0.132516 0.000000
0.071892 0.130838 0.000000
0.107012 0.129160 0.000000
0.142132 0.127481 0.000000
0.177252 0.125803 0.000000
0.212372 0.124124 0.000000
0.261238 0.122446 0.000000
0.313917 0.120768 0.000000
0.366597 0.119089 0.000000
0.419277 0.117411 0.000000
0.471957 0.115732 0.000000
0.524637 0.114054 0.000000
0.572350 0.112376 0.000000
0.615452 0.110697 0.000000
0.658554 0.109019 0.000000
0.701655 0.107341 0.000000
0.744757 0.105662 0.000000
0.787859 0.103984 0.000000
0.827307 0.102305 0.000000
0.856041 0.100627 0.000000
0.884776 0.098949 0.000000
0.913510 0.097270 0.000000
0.942245 0.095592 0.000000
0.970979 0.093914 0.000000
0.999714 0.092235 0.000000
1.000000 0.090557 0.000000
1.000000 0.088878 0.000000
1.000000 0.087200 0.000000
1.000000 0.085522 0.000000
1.000000 0.083843 0.000000
1.000000 0.082165 0.000000
1.000000 0.080487 0.000000
0.000000 0.166741 0.000000
0.033571 0.165062 0.000000
0.068691 0.163384 0.000000
0.103811 0.161706 0.000000
0.138931 0.160027 0.000000
0.174051 0.158349 0.000000
0.209171 0.156670 0.000000
0.256436 0.154992 0.000000
0.309116 0.153314 0.000000
0.361796 0.151635 0.000000
0.414476 0.149957 0.000000
0.467156 0.148279 0.000000
0.519836 0.146600 0.000000
0.568422 0.144922 0.000000
0.611524 0.143243 0.000000
0.654625 0.141565 0.000000
0.697727 0.139887 0.000000
0.740829 0.138208 0.000000
0.783930 0.136530 0.000000
0.824688 0.134852 0.000000
0.853423 0.133173 0.000000
0.882157 0.131495 0.000000
0.910892 0.129816 0.000000
0.939626 0.128138 0.000000
0.968361 0.126460 0.000000
0.997095 0.124781 0.000000
1.000000 0.123103 0.000000
1.000000 0.121425 0.000000
1.000000 0.119746 0.000000
1.000000 0.118068 0.000000
1.000000 0.116389 0.000000
1.000000 0.114711 0.000000
1.000000 0.113033 0.000000
0.000000 0.199287 0.000000
0.030370 0.197608 0.000000
0.065490 0.195930 0.000000
0.100610 0.194252 0.000000
0.135730 0.192573 0.000000
0.170850 0.190895 0.000000
0.205970 0.189216 0.000000
0.251635 0.187538 0.000000
0.304315 0.185860 0.000000
0.356995 0.184181 0.000000
0.409675 0.182503 0.000000
0.462355 0.180825 0.000000
0.515034 0.179146 0.000000
0.564494 0.177468 0.000000
0.607595 0.175789 0.000000
0.650697 0.174111 0.000000
0.693799 0.172433 0.000000
0.736900 0.170754 0.000000
0.780002 0.169076 0.000000
0.822069 0.167398 0.000000
0.850804 0.165719 0.000000
0.879538 0.164041 0.000000
0.908273 0.162362 0.000000
0.937007 0.160684 0.000000
0.965742 0.159006 0.000000
0.994476 0.157327 0.000000
1.000000 0.155649 0.000000
1.000000 0.153971 0.000000
1.000000 0.152292 0.000000
1.000000 0.150614 0.000000
1.000000 0.148935 0.000000
1.000000 0.147257 0.000000
1.000000 0.145579 0.000000
0.000000 0.237749 0.000000
0.027170 0.235232 0.000000
0.062290 0.232714 0.000000
0.097409 0.230197 0.000000
0.132529 0.227679 0.000000
0.167649 0.225161 0.000000
0.202769 0.222644 0.000000
0.246834 0.220126 0.000000
0.299514 0.218406 0.000000
0.352193 0.216727 0.000000
0.404873 0.215049 0.000000
0.457553 0.213371 0.000000
0.510233 0.211692 0.000000
0.560565 0.210014 0.000000
0.603667 0.208336 0.000000
0.646769 0.206657 0.000000
0.689870 0.204979 0.000000
0.732972 0.203300 0.000000
0.776074 0.201622 0.000000
0.819175 0.199944 0.000000
0.848185 0.198265 0.000000
0.876919 0.196587 0.000000
0.905654 0.194909 0.000000
0.934388 0.193230 0.000000
0.963123 0.191552 0.000000
0.991857 0.189873 0.000000
1.000000 0.188195 0.000000
1.000000 0.186517 0.000000
1.000000 0.184838 0.000000
1.000000 0.183160 0.000000
1.000000 0.181482 0.000000
1.000000 0.179803 0.000000
1.000000 0.178125 0.000000
0.000000 0.286568 0.000000
0.023969 0.284051 0.000000
0.059089 0.281533 0.000000
0.094209 0.279016 0.000000
0.129328 0.276498 0.000000
0.164448 0.273981 0.000000
0.199568 0.271463 0.000000
0.242032 0.268945 0.000000
0.294712 0.266428 0.000000
0.347392 0.263910 0.000000
0.400072 0.261393 0.000000
0.452752 0.258875 0.000000
0.505432 0.256358 0.000000
0.556637 0.253840 0.000000
0.599739 0.251322 0.000000
0.642840 0.248805 0.000000
0.685942 0.246287 0.000000
0.729044 0.243770 0.000000
0.772145 0.241252 0.000000
0.815247 0.238735 0.000000
0.845566 0.236217 0.000000
0.874300 0.233700 0.000000
0.903035 0.231182 0.000000
0.931769 0.228664 0.000000
0.960504 0.226147 0.000000
0.989238 0.223629 0.000000
1.000000 0.221112 0.000000
1.000000 0.219063 0.000000
1.000000 0.217384 0.000000
1.000000 0.215706 0.000000
1.000000 0.214028 0.000000
1.000000 0.212349 0.000000
1.000000 0.210671 0.000000
0.000000 0.335387 0.000000
0.020768 0.332870 0.000000
0.055888 0.330352 0.000000
0.091008 0.327835 0.000000
0.126128 0.325317 0.000000
0.161248 0.322800 0.000000
0.196367 0.320282 0.000000
0.237231 0.317764 0.000000
0.289911 0.315247 0.000000
0.342591 0.312729 0.000000
0.395271 0.310212 0.000000
0.447951 0.307694 0.000000
0.500630 0.305177 0.000000
0.552709 0.302659 0.000000
0.595810 0.300142 0.000000
0.638912 0.297624 0.000000
0.682014 0.295106 0.000000
0.725115 0.292589 0.000000
0.768217 0.290071 0.000000
0.811319 0.287554 0.000000
0.842947 0.285036 0.000000
0.871681 0.282519 0.000000
0.900416 0.280001 0.000000
0.929150 0.277483 0.000000
0.957885 0.274966 0.000000
0.986619 0.272448 0.000000
1.000000 0.269931 0.000000
1.000000 0.267413 0.000000
1.000000 0.264896 0.000000
1.000000 0.262378 0.000000
1.000000 0.259860 0.000000
1.000000 0.257343 0.000000
1.000000 0.254825 0.000000
0.000000 0.384207 0.000000
0.017567 0.381689 0.000000
0.052687 0.379171 0.000000
0.087807 0.376654 0.000000
0.122927 0.374136 0.000000
0.158047 0.371619 0.000000
0.193167 0.369101 0.000000
0.232430 0.366584 0.000000
0.285110 0.364066 0.000000
0.337790 0.361548 0.000000
0.390469 0.359031 0.000000
0.443149 0.356513 0.000000
0.495829 0.353996 0.000000
0.548509 0.351478 0.000000
0.591882 0.348961 0.000000
0.634984 0.346443 0.000000
0.678085 0.343926 0.000000
0.721187 0.341408 0.000000
0.764289 0.338890 0.000000
0.807390 0.336373 0.000000
0.840328 0.333855 0.000000
0.869063 0.331338 0.000000
0.897797 0.328820 0.000000
0.926531 0.326303 0.000000
0.955266 0.323785 0.000000
0.984000 0.321267 0.000000
1.000000 0.318750 0.000000
1.000000 0.316232 0.000000
1.000000 0.313715 0.000000
1.000000 0.311197 0.000000
1.000000 0.308680 0.000000
1.000000 0.306162 0.000000
1.000000 0.303644 0.000000
0.000000 0.433026 0.000000
0.014366 0.430508 0.000000
0.049486 0.427990 0.000000
0.084606 0.425473 0.000000
0.119726 0.422955 0.000000
0.154846 0.420438 0.000000
0.189966 0.417920 0.000000
0.227628 0.415403 0.000000
0.280308 0.412885 0.000000
0.332988 0.410368 0.000000
0.385668 0.407850 0.000000
0.438348 0.405332 0.000000
0.491028 0.402815 0.000000
0.543708 0.400297 0.000000
0.587954 0.397780 0.000000
0.631055 0.395262 0.000000
0.674157 0.392745 0.000000
0.717259 0.390227 0.000000
0.760360 0.387709 0.000000
0.803462 0.385192 0.000000
0.837709 0.382674 0.000000
0.866444 0.380157 0.000000
0.895178 0.377639 0.000000
0.923913 0.375122 0.000000
0.952647 0.372604 0.000000
0.981382 0.370086 0.000000
1.000000 0.367569 0.000000
1.000000 0.365051 0.000000
1.000000 0.362534 0.000000
1.000000 0.360016 0.000000
1.000000 0.357499 0.000000
1.000000 0.354981 0.000000
1.000000 0.352464 0.000000
0.000000 0.481845 0.000000
0.011165 0.479327 0.000000
0.046285 0.476810 0.000000
0.081405 0.474292 0.000000
0.116525 0.471774 0.000000
0.151645 0.469257 0.000000
0.186765 0.466739 0.000000
0.222827 0.464222 0.000000
0.275507 0.461704 0.000000
0.328187 0.459187 0.000000
0.380867 0.456669 0.000000
0.433547 0.454151 0.000000
0.486227 0.451634 0.000000
0.538907 0.449116 0.000000
0.584025 0.446599 0.000000
0.627127 0.444081 0.000000
0.670229 0.441564 0.000000
0.713330 0.439046 0.000000
0.756432 0.436529 0.000000
0.799534 0.434011 0.000000
0.835090 0.431493 0.000000
0.863825 0.428976 0.000000
0.892559 0.426458 0.000000
0.921294 0.423941 0.000000
0.950028 0.421423 0.000000
0.978763 0.418906 0.000000
1.000000 0.416388 0.000000
1.000000 0.413870 0.000000
1.000000 0.411353 0.000000
1.000000 0.408835 0.000000
1.000000 0.406318 0.000000
1.000000 0.403800 0.000000
1.000000 0.401283 0.000000
0.000000 0.530664 0.000000
0.007964 0.528146 0.000000
0.043084 0.525629 0.000000
0.078204 0.523111 0.000000
0.113324 0.520593 0.000000
0.148444 0.518076 0.000000
0.183564 0.515558 0.000000
0.218684 0.513041 0.000000
0.270706 0.510523 0.000000
0.323386 0.508006 0.000000
0.376066 0.505488 0.000000
0.428745 0.502971 0.000000
0.481425 0.500453 0.000000
0.534105 0.497935 0.000000
0.580097 0.495418 0.000000
0.623199 0.492900 0.000000
0.666300 0.490383 0.000000
0.709402 0.487865 0.000000
0.752504 0.485348 0.000000
0.795605 0.482830 0.000000
0.832471 0.480312 0.000000
0.861206 0.477795 0.000000
0.889940 0.475277 0.000000
0.918675 0.472760 0.000000
0.947409 0.470242 0.000000
0.976144 0.467725 0.000000
1.000000 0.465207 0.000000
1.000000 0.462690 0.000000
1.000000 0.460172 0.000000
1.000000 0.457654 0.000000
1.000000 0.455137 0.000000
1.000000 0.452619 0.000000
1.000000 0.450102 0.000000
0.000000 0.574122 0.000000
0.004764 0.572062 0.000000
0.039883 0.570003 0.000000
0.075003 0.567943 0.000000
0.110123 0.565883 0.000000
0.145243 0.563823 0.000000
0.180363 0.561763 0.000000
0.215483 0.559704 0.000000
0.265904 0.557644 0.000000
0.318584 0.555584 0.000000
0.371264 0.553524 0.000000
0.423944 0.551464 0.000000
0.476624 0.549272 0.000000
0.529304 0.546755 0.000000
0.576169 0.544237 0.000000
0.619270 0.541719 0.000000
0.662372 0.539202 0.000000
0.705474 0.536684 0.000000
0.748575 0.534167 0.000000
0.791677 0.531649 0.000000
0.829853 0.529132 0.000000
0.858587 0.526614 0.000000
0.887322 0.524096 0.000000
0.916056 0.521579 0.000000
0.944791 0.519061 0.000000
0.973525 0.516544 0.000000
1.000000 0.514026 0.000000
1.000000 0.511509 0.000000
1.000000 0.508991 0.000000
1.000000 0.506474 0.000000
1.000000 0.503956 0.000000
1.000000 0.501438 0.000000
1.000000 0.498921 0.000000
0.000000 0.614065 0.000000
0.001563 0.612005 0.000000
0.036683 0.609946 0.000000
0.071803 0.607886 0.000000
0.106922 0.605826 0.000000
0.142042 0.603766 0.000000
0.177162 0.601706 0.000000
0.212282 0.599646 0.000000
0.261103 0.597587 0.000000
0.313783 0.595527 0.000000
0.366463 0.593467 0.000000
0.419143 0.591407 0.000000
0.471823 0.589347 0.000000
0.524503 0.587287 0.000000
0.572240 0.585228 0.000000
0.615342 0.583168 0.000000
0.658444 0.581108 0.000000
0.701545 0.579048 0.000000
0.744647 0.576988 0.000000
0.787749 0.574929 0.000000
0.827234 0.572869 0.000000
0.855968 0.570809 0.000000
0.884703 0.568749 0.000000
0.913437 0.566689 0.000000
0.942172 0.564629 0.000000
0.970906 0.562570 0.000000
0.999641 0.560510 0.000000
1.000000 0.558450 0.000000
1.000000 0.556390 0.000000
1.000000 0.554330 0.000000
1.000000 0.552270 0.000000
1.000000 0.550211 0.000000
1.000000 0.547740 0.000000
0.000000 0.654008 0.000000
0.000000 0.651948 0.000000
0.033482 0.649888 0.000000
0.068602 0.647829 0.000000
0.103722 0.645769 0.000000
0.138841 0.643709 0.000000
0.173961 0.641649 0.000000
0.209081 0.639589 0.000000
0.256302 0.637529 0.000000
0.308982 0.635470 0.000000
0.361662 0.633410 0.000000
0.414342 0.631350 0.000000
0.467021 0.629290 0.000000
0.519701 0.627230 0.000000
0.568312 0.625170 0.000000
0.611414 0.623111 0.000000
0.654515 0.621051 0.000000
0.697617 0.618991 0.000000
0.740719 0.616931 0.000000
0.783820 0.614871 0.000000
0.824615 0.612812 0.000000
0.853349 0.610752 0.000000
0.882084 0.608692 0.000000
0.910818 0.606632 0.000000
0.939553 0.604572 0.000000
0.968287 0.602512 0.000000
0.997022 0.600453 0.000000
1.000000 0.598393 0.000000
1.000000 0.596333 0.000000
1.000000 0.594273 0.000000
1.000000 0.592213 0.000000
1.000000 0.590153 0.000000
1.000000 0.588094 0.000000
0.000000 0.693951 0.000000
0.000000 0.691891 0.000000
0.030281 0.689831 0.000000
0.065401 0.687771 0.000000
0.100521 0.685712 0.000000
0.135641 0.683652 0.000000
0.170761 0.681592 0.000000
0.205880 0.679532 0.000000
0.251501 0.677472 0.000000
0.304181 0.675413 0.000000
0.356860 0.673353 0.000000
0.409540 0.671293 0.000000
0.462220 0.669233 0.000000
0.514900 0.667173 0.000000
0.564384 0.665113 0.000000
0.607485 0.663054 0.000000
0.650587 0.660994 0.000000
0.693689 0.658934 0.000000
0.736790 0.656874 0.000000
0.779892 0.654814 0.000000
0.821996 0.652754 0.000000
0.850730 0.650695 0.000000
0.879465 0.648635 0.000000
0.908199 0.646575 0.000000
0.936934 0.644515 0.000000
0.965668 0.642455 0.000000
0.994403 0.640396 0.000000
1.000000 0.638336 0.000000
1.000000 0.636276 0.000000
1.000000 0.634216 0.000000
1.000000 0.632156 0.000000
1.000000 0.630096 0.000000
1.000000 0.628037 0.000000
0.000000 0.733894 0.000000
0.000000 0.731834 0.000000
0.027080 0.729774 0.000000
0.062200 0.727714 0.000000
0.097320 0.725655 0.000000
0.132440 0.723595 0.000000
0.167560 0.721535 0.000000
0.202680 0.719475 0.000000
0.246699 0.717415 0.000000
0.299379 0.715355 0.000000
0.352059 0.713296 0.000000
0.404739 0.711236 0.000000
0.457419 0.709176 0.000000
0.510099 0.707116 0.000000
0.560455 0.705056 0.000000
0.603557 0.702996 0.000000
0.646659 0.700937 0.000000
0.689760 0.698877 0.000000
0.732862 0.696817 0.000000
0.775964 0.694757 0.000000
0.819065 0.692697 0.000000
0.848111 0.690638 0.000000
0.876846 0.688578 0.000000
0.905580 0.686518 0.000000
0.934315 0.684458 0.000000
0.963049 0.682398 0.000000
0.991784 0.680338 0.000000
1.000000 0.678279 0.000000
1.000000 0.676219 0.000000
1.000000 0.674159 0.000000
1.000000 0.672099 0.000000
1.000000 0.670039 0.000000
1.000000 0.667979 0.000000
0.000000 0.773837 0.000000
0.000000 0.771777 0.000000
0.023879 0.769717 0.000000
0.058999 0.767657 0.000000
0.094119 0.765597 0.000000
0.129239 0.763538 0.000000
0.164359 0.761478 0.000000
0.199479 0.759418 0.000000
0.241898 0.757358 0.000000
0.294578 0.755298 0.000000
0.347258 0.753238 0.000000
0.399938 0.751179 0.000000
0.452618 0.749119 0.000000
0.505297 0.747059 0.000000
0.556527 0.744999 0.000000
0.599629 0.742939 0.000000
0.642730 0.740880 0.000000
0.685832 0.738820 0.000000
0.728934 0.736760 0.000000
0.772035 0.734700 0.000000
0.815137 0.732640 0.000000
0.845493 0.730580 0.000000
0.874227 0.728521 0.000000
0.902962 0.726461 0.000000
0.931696 0.724401 0.000000
0.960431 0.722341 0.000000
0.989165 0.720281 0.000000
1.000000 0.718221 0.000000
1.000000 0.716162 0.000000
1.000000 0.714102 0.000000
1.000000 0.712042 0.000000
1.000000 0.709982 0.000000
1.000000 0.707922 0.000000
0.000000 0.813780 0.000000
0.000000 0.811720 0.000000
0.020678 0.809660 0.000000
0.055798 0.807600 0.000000
0.090918 0.805540 0.000000
0.126038 0.803481 0.000000
0.161158 0.801421 0.000000
0.196278 0.799361 0.000000
0.237097 0.797301 0.000000
0.289777 0.795241 0.000000
0.342457 0.793181 0.000000
0.395136 0.791122 0.000000
0.447816 0.789062 0.000000
0.500496 0.787002 0.000000
0.552599 0.784942 0.000000
0.595700 0.782882 0.000000
0.638802 0.780822 0.000000
0.681904 0.778763 0.000000
0.725005 0.776703 0.000000
0.768107 0.774643 0.000000
0.811209 0.772583 0.000000
0.842874 0.770523 0.000000
0.871608 0.768463 0.000000
0.900343 0.766404 0.000000
0.929077 0.764344 0.000000
0.957812 0.762284 0.000000
0.986546 0.760224 0.000000
1.000000 0.758164 0.000000
1.000000 0.756104 0.000000
1.000000 0.754045 0.000000
1.000000 0.751985 0.000000
1.000000 0.749925 0.000000
1.000000 0.747865 0.000000
0.000000 0.842482 0.000000
0.000000 0.841108 0.000000
0.017477 0.839735 0.000000
0.052597 0.838362 0.000000
0.087717 0.836989 0.000000
0.122837 0.835616 0.000000
0.157957 0.834242 0.000000
0.193077 0.832869 0.000000
0.232295 0.831496 0.000000
0.284975 0.830123 0.000000
0.337655 0.828749 0.000000
0.390335 0.827376 0.000000
0.443015 0.826003 0.000000
0.495695 0.824630 0.000000
0.548375 0.823257 0.000000
0.591772 0.821883 0.000000
0.634874 0.820510 0.000000
0.677975 0.818705 0.000000
0.721077 0.816646 0.000000
0.764179 0.814586 0.000000
0.807280 0.812526 0.000000
0.840255 0.810466 0.000000
0.868989 0.808406 0.000000
0.897724 0.806347 0.000000
0.926458 0.804287 0.000000
0.955193 0.802227 0.000000
0.983927 0.800167 0.000000
1.000000 0.798107 0.000000
1.000000 0.796047 0.000000
1.000000 0.793988 0.000000
1.000000 0.791928 0.000000
1.000000 0.789868 0.000000
1.000000 0.787808 0.000000
0.000000 0.869110 0.000000
0.000000 0.867737 0.000000
0.014277 0.866364 0.000000
0.049396 0.864991 0.000000
0.084516 0.863617 0.000000
0.119636 0.862244 0.000000
0.154756 0.860871 0.000000
0.189876 0.859498 0.000000
0.227494 0.858125 0.000000
0.280174 0.856751 0.000000
0.332854 0.855378 0.000000
0.385534 0.854005 0.000000
0.438214 0.852632 0.000000
0.490894 0.851258 0.000000
0.543573 0.849885 0.000000
0.587844 0.848512 0.000000
0.630945 0.847139 0.000000
0.674047 0.845766 0.000000
0.717149 0.844392 0.000000
0.760250 0.843019 0.000000
0.803352 0.841646 0.000000
0.837636 0.840273 0.000000
0.866370 0.838899 0.000000
0.895105 0.837526 0.000000
0.923839 0.836153 0.000000
0.952574 0.834780 0.000000
0.981308 0.833407 0.000000
1.000000 0.832033 0.000000
1.000000 0.830660 0.000000
1.000000 0.829287 0.000000
1.000000 0.827914 0.000000
1.000000 0.826541 0.000000
1.000000 0.825167 0.000000
0.000000 0.895739 0.000000
0.000000 0.894366 0.000000
0.011076 0.892992 0.000000
0.046196 0.891619 0.000000
0.081316 0.890246 0.000000
0.116435 0.888873 0.000000
0.151555 0.887500 0.000000
0.186675 0.886126 0.000000
0.222693 0.884753 0.000000
0.275373 0.883380 0.000000
0.328053 0.882007 0.000000
0.380733 0.880633 0.000000
0.433412 0.879260 0.000000
0.486092 0.877887 0.000000
0.538772 0.876514 0.000000
0.583915 0.875141 0.000000
0.627017 0.873767 0.000000
0.670119 0.872394 0.000000
0.713220 0.871021 0.000000
0.756322 0.869648 0.000000
0.799424 0.868275 0.000000
0.835017 0.866901 0.000000
0.863752 0.865528 0.000000
0.892486 0.864155 0.000000
0.921221 0.862782 0.000000
0.949955 0.861408 0.000000
0.978689 0.860035 0.000000
1.000000 0.858662 0.000000
1.000000 0.857289 0.000000
1.000000 0.855916 0.000000
1.000000 0.854542 0.000000
1.000000 0.853169 0.000000
1.000000 0.851796 0.000000
0.000000 0.922367 0.000000
0.000000 0.920994 0.000000
0.007875 0.919621 0.000000
0.042995 0.918248 0.000000
0.078115 0.916875 0.000000
0.113235 0.915501 0.000000
0.148355 0.914128 0.000000
0.183474 0.912755 0.000000
0.218594 0.911382 0.000000
0.270571 0.910008 0.000000
0.323251 0.908635 0.000000
0.375931 0.907262 0.000000
0.428611 0.905889 0.000000
0.481291 0.904516 0.000000
0.533971 0.903142 0.000000
0.579987 0.901769 0.000000
0.623089 0.900396 0.000000
0.666190 0.899023 0.000000
0.709292 0.897650 0.000000
0.752394 0.896276 0.000000
0.795495 0.894903 0.000000
0.832398 0.893530 0.000000
0.861133 0.892157 0.000000
0.889867 0.890783 0.000000
0.918602 0.889410 0.000000
0.947336 0.888037 0.000000
0.976071 0.886664 0.000000
1.000000 0.885291 0.000000
1.000000 0.883917 0.000000
1.000000 0.882544 0.000000
1.000000 0.881171 0.000000
1.000000 0.879798 0.000000
1.000000 0.878425 0.000000
0.000000 0.948996 0.000000
0.000000 0.947623 0.000000
0.004674 0.946250 0.000000
0.039794 0.944876 0.000000
0.074914 0.943503 0.000000
0.110034 0.942130 0.000000
0.145154 0.940757 0.000000
0.180274 0.939384 0.000000
0.215393 0.938010 0.000000
0.265770 0.936637 0.000000
0.318450 0.935264 0.000000
0.371130 0.933891 0.000000
0.423810 0.932517 0.000000
0.476490 0.931144 0.000000
0.529170 0.929771 0.000000
0.576059 0.928398 0.000000
0.619160 0.927024 0.000000
0.662262 0.925651 0.000000
0.705364 0.924278 0.000000
0.748465 0.922905 0.000000
0.791567 0.921532 0.000000
0.829779 0.920158 0.000000
0.858514 0.918785 0.000000
0.887248 0.917412 0.000000
