app/src/main/assets/luts/food_garden.cube
# V-Cam procedural LUT — food_garden
# Generated by LutBaker. Do not edit by hand.
TITLE "V-Cam food_garden"
LUT_3D_SIZE 5
DOMAIN_MIN 0.0 0.0 0.0
DOMAIN_MAX 1.0 1.0 1.0
0.000000 0.000000 0.000000
0.082911 0.000000 0.003261
0.383930 0.000000 0.051397
0.779208 0.000000 0.147212
1.000000 0.000000 0.200732
0.003405 0.085408 0.000000
0.084859 0.085392 0.000000
0.383824 0.043599 0.000000
0.779023 0.000000 0.147167
1.000000 0.000000 0.200732
0.053173 0.391257 0.000000
0.105129 0.391209 0.000000
0.388646 0.390505 0.000000
0.776117 0.349429 0.000000
1.000000 0.280132 0.000000
0.149178 0.787318 0.000000
0.149157 0.787230 0.000000
0.390422 0.785935 0.000000
0.777119 0.781499 0.000000
1.000000 0.753952 0.000000
0.200732 1.000000 0.000000
0.200732 1.000000 0.000000
0.338455 1.000000 0.000000
0.769206 1.000000 0.000000
1.000000 0.985202 0.000000
0.000000 0.003281 0.083264
0.080959 0.000000 0.083249
0.383909 0.000000 0.107730
0.779174 0.000000 0.147204
1.000000 0.000000 0.200732
0.000000 0.085402 0.081219
0.082875 0.085385 0.083133
0.383700 0.079805 0.104248
0.778779 0.000000 0.147108
1.000000 0.000000 0.200732
0.000000 0.391239 0.031617
0.103754 0.391129 0.075716
0.388304 0.390469 0.072868
0.775886 0.349552 0.000000
1.000000 0.280396 0.000000
0.149177 0.787314 0.000000
0.149116 0.787063 0.000000
0.390707 0.785787 0.000000
0.777061 0.781428 0.000000
1.000000 0.753923 0.000000
0.200732 1.000000 0.000000
0.200732 1.000000 0.000000
0.339435 1.000000 0.000000
0.769293 1.000000 0.000000
1.000000 0.985202 0.000000
0.000000 0.051768 0.385463
0.043177 0.000000 0.385409
0.377430 0.000000 0.384629
0.778554 0.000000 0.405450
1.000000 0.000000 0.399195
0.000000 0.111178 0.385353
0.081530 0.109583 0.385165
0.377613 0.080854 0.384436
0.778134 0.000000 0.405086
1.000000 0.000000 0.398669
0.000000 0.390973 0.377451
0.074334 0.390880 0.377695
0.382143 0.390192 0.382877
0.772621 0.373611 0.388477
1.000000 0.338905 0.379537
0.000000 0.787244 0.329072
0.000000 0.786994 0.329381
0.388541 0.783784 0.365754
0.774163 0.780557 0.361102
1.000000 0.755019 0.286827
0.000000 1.000000 0.191418
0.000000 1.000000 0.191976
0.348134 1.000000 0.291448
0.769494 1.000000 0.262402
1.000000 0.985958 0.223282
0.000000 0.148413 0.784162
0.000000 0.129768 0.784051
0.354087 0.000000 0.782425
0.763502 0.000000 0.776739
1.000000 0.000000 0.799123
0.000000 0.165678 0.783948
0.047699 0.164791 0.783562
0.353737 0.027165 0.781947
0.763124 0.000000 0.776354
1.000000 0.000000 0.798694
0.000000 0.416234 0.780992
0.000000 0.416035 0.780639
0.378606 0.408419 0.775735
0.760790 0.379852 0.771431
1.000000 0.339510 0.790993
0.000000 0.786424 0.759552
0.000000 0.786237 0.759376
0.357497 0.783445 0.759013
0.763779 0.779269 0.764743
1.000000 0.765931 0.760650
0.000000 1.000000 0.736004
0.000000 1.000000 0.735887
0.274208 1.000000 0.735817
0.763968 1.000000 0.755678
1.000000 0.996408 0.752052
0.000000 0.200732 1.000000
0.000000 0.200732 1.000000
0.320894 0.000000 1.000000
0.762838 0.000000 1.000000
0.985202 0.000000 1.000000
0.000000 0.200732 1.000000
0.000000 0.200732 1.000000
0.319936 0.000000 1.000000
0.762283 0.000000 1.000000
0.985202 0.000000 1.000000
0.000000 0.426507 1.000000
0.000000 0.426228 1.000000
0.366180 0.418202 1.000000
0.756963 0.356257 1.000000
0.986576 0.335434 1.000000
0.000000 0.807795 1.000000
0.000000 0.807575 1.000000
0.318794 0.802942 1.000000
0.762139 0.787537 1.000000
0.993555 0.774843 1.000000
0.000000 1.000000 0.985202
0.000000 1.000000 0.985202
0.261918 1.000000 0.986035
0.752957 1.000000 0.991642
0.995736 1.000000 0.995588
