app/src/main/assets/luts/food_fresh.cube
# V-Cam procedural LUT — food_fresh
# Generated by LutBaker. Do not edit by hand.
TITLE "V-Cam food_fresh"
LUT_3D_SIZE 9
DOMAIN_MIN 0.0 0.0 0.0
DOMAIN_MAX 1.0 1.0 1.0
0.016632 0.000000 0.000000
0.157112 0.000000 0.000000
0.336387 0.000000 0.000000
0.547107 0.000000 0.000000
0.720040 0.000000 0.000000
0.868298 0.000000 0.000000
0.983236 0.000000 0.000000
1.000000 0.000000 0.000000
1.000000 0.000000 0.000000
0.004853 0.101649 0.000000
0.145333 0.094935 0.000000
0.318719 0.088222 0.000000
0.529438 0.081508 0.000000
0.705584 0.074795 0.000000
0.858660 0.068081 0.000000
0.973598 0.061368 0.000000
1.000000 0.054654 0.000000
1.000000 0.047941 0.000000
0.000000 0.237749 0.000000
0.132529 0.227679 0.000000
0.299514 0.218406 0.000000
0.510233 0.211692 0.000000
0.689870 0.204979 0.000000
0.848185 0.198265 0.000000
0.963123 0.191552 0.000000
1.000000 0.184838 0.000000
1.000000 0.178125 0.000000
0.000000 0.433026 0.000000
0.119726 0.422955 0.000000
0.280308 0.412885 0.000000
0.491028 0.402815 0.000000
0.674157 0.392745 0.000000
0.837709 0.382674 0.000000
0.952647 0.372604 0.000000
1.000000 0.362534 0.000000
1.000000 0.352464 0.000000
0.000000 0.614065 0.000000
0.106922 0.605826 0.000000
0.261103 0.597587 0.000000
0.471823 0.589347 0.000000
0.658444 0.581108 0.000000
0.827234 0.572869 0.000000
0.942172 0.564629 0.000000
1.000000 0.556390 0.000000
1.000000 0.547740 0.000000
0.000000 0.773837 0.000000
0.094119 0.765597 0.000000
0.241898 0.757358 0.000000
0.452618 0.749119 0.000000
0.642730 0.740880 0.000000
0.815137 0.732640 0.000000
0.931696 0.724401 0.000000
1.000000 0.716162 0.000000
1.000000 0.707922 0.000000
0.000000 0.895739 0.000000
0.081316 0.890246 0.000000
0.222693 0.884753 0.000000
0.433412 0.879260 0.000000
0.627017 0.873767 0.000000
0.799424 0.868275 0.000000
0.921221 0.862782 0.000000
1.000000 0.857289 0.000000
1.000000 0.851796 0.000000
0.000000 1.000000 0.000000
0.068512 0.996760 0.000000
0.208992 0.991267 0.000000
0.414207 0.985775 0.000000
0.611304 0.980282 0.000000
0.783710 0.974789 0.000000
0.910745 0.969296 0.000000
1.000000 0.963803 0.000000
1.000000 0.958310 0.000000
0.000000 1.000000 0.000000
0.055709 1.000000 0.000000
0.196188 1.000000 0.000000
0.395002 1.000000 0.000000
0.595590 1.000000 0.000000
0.767997 1.000000 0.000000
0.900269 1.000000 0.000000
1.000000 1.000000 0.000000
1.000000 1.000000 0.000000
0.014666 0.000000 0.094104
0.155146 0.000000 0.087391
0.333439 0.000000 0.080677
0.544158 0.000000 0.073964
0.717627 0.000000 0.067250
0.866689 0.000000 0.060537
0.981627 0.000000 0.053823
1.000000 0.000000 0.047109
1.000000 0.000000 0.040396
0.002887 0.099683 0.082325
0.143367 0.092969 0.075611
0.315770 0.086256 0.068898
0.526490 0.079542 0.062184
0.703171 0.072829 0.055471
0.857052 0.066115 0.048757
0.971990 0.059402 0.042044
1.000000 0.052688 0.035330
1.000000 0.045975 0.028617
0.000000 0.234801 0.069521
0.130564 0.224730 0.062808
0.296565 0.216440 0.056094
0.507284 0.209726 0.049381
0.687458 0.203013 0.042667
0.846576 0.196299 0.035954
0.961514 0.189586 0.029240
1.000000 0.182872 0.022527
1.000000 0.176159 0.015813
0.000000 0.430077 0.056718
0.117760 0.420007 0.050004
0.277360 0.409936 0.043291
0.488079 0.399866 0.036577
0.671744 0.389796 0.029864
0.836101 0.379726 0.023150
0.951039 0.369655 0.016437
1.000000 0.359585 0.009723
1.000000 0.349515 0.003010
0.000000 0.611653 0.043914
0.104957 0.603413 0.037201
0.258154 0.595174 0.030487
0.468874 0.586935 0.023774
0.656031 0.578695 0.017060
0.825625 0.570456 0.010347
0.940563 0.562217 0.003633
1.000000 0.553977 0.000000
1.000000 0.544791 0.000000
0.000000 0.771424 0.031111
0.092153 0.763185 0.024398
0.238949 0.754946 0.017684
0.449669 0.746706 0.010971
0.640318 0.738467 0.004257
0.812724 0.730228 0.000000
0.930088 0.721988 0.000000
1.000000 0.713749 0.000000
1.000000 0.705510 0.000000
0.000000 0.894130 0.018308
0.079350 0.888638 0.011594
0.219829 0.883145 0.004881
0.430464 0.877652 0.000000
0.624604 0.872159 0.000000
0.797011 0.866666 0.000000
0.919612 0.861173 0.000000
1.000000 0.855680 0.000000
1.000000 0.850187 0.000000
0.000000 1.000000 0.005504
0.066546 0.995152 0.000000
0.207026 0.989659 0.000000
0.411258 0.984166 0.000000
0.608891 0.978673 0.000000
0.781298 0.973180 0.000000
0.909137 0.967688 0.000000
1.000000 0.962195 0.000000
1.000000 0.956702 0.000000
0.000000 1.000000 0.000000
0.053743 1.000000 0.000000
0.194222 1.000000 0.000000
0.392053 1.000000 0.000000
0.593178 1.000000 0.000000
0.765585 1.000000 0.000000
0.898661 1.000000 0.000000
1.000000 1.000000 0.000000
1.000000 1.000000 0.000000
0.012326 0.000000 0.229511
0.152806 0.000000 0.219627
0.329928 0.000000 0.212913
0.540648 0.000000 0.206200
0.714755 0.000000 0.199486
0.864775 0.000000 0.192773
0.979713 0.000000 0.186059
1.000000 0.000000 0.179346
1.000000 0.000000 0.172632
0.000547 0.097342 0.214561
0.141027 0.090629 0.207848
0.312260 0.083915 0.201134
0.522979 0.077202 0.194421
0.700299 0.070488 0.187707
0.855137 0.063775 0.180994
0.970075 0.057061 0.174280
1.000000 0.050348 0.167567
1.000000 0.043634 0.160853
0.000000 0.231290 0.201758
0.128223 0.221220 0.195044
0.293054 0.214100 0.188331
0.503774 0.207386 0.181617
0.684585 0.200673 0.174904
0.844662 0.193959 0.168190
0.959600 0.187246 0.161477
1.000000 0.180532 0.154763
1.000000 0.173819 0.148050
0.000000 0.426566 0.188954
0.115420 0.416496 0.182241
0.273849 0.406426 0.175527
0.484569 0.396356 0.168814
0.668872 0.386285 0.162100
0.834186 0.376215 0.155387
0.949124 0.366145 0.148673
1.000000 0.356075 0.141960
1.000000 0.346004 0.135246
0.000000 0.608780 0.176151
0.102616 0.600541 0.169437
0.254644 0.592302 0.162724
0.465364 0.584063 0.156010
0.653159 0.575823 0.149297
0.823710 0.567584 0.142583
0.938648 0.559345 0.135870
1.000000 0.551105 0.129156
1.000000 0.541281 0.122443
0.000000 0.768552 0.163347
0.089813 0.760313 0.156634
0.235439 0.752073 0.149920
0.446158 0.743834 0.143207
0.637445 0.735595 0.136493
0.809852 0.727355 0.129780
0.928173 0.719116 0.123066
1.000000 0.710877 0.116353
1.000000 0.702638 0.109639
0.000000 0.892216 0.150544
0.077009 0.886723 0.143830
0.217489 0.881230 0.137117
0.426953 0.875737 0.130403
0.621732 0.870244 0.123690
0.794139 0.864751 0.116976
0.917697 0.859258 0.110263
1.000000 0.853766 0.103549
1.000000 0.848273 0.096836
0.000000 0.998730 0.137741
0.064206 0.993237 0.131027
0.204686 0.987744 0.124314
0.407748 0.982251 0.117600
0.606019 0.976759 0.110886
0.778426 0.971266 0.104173
0.907222 0.965773 0.097459
1.000000 0.960280 0.090746
1.000000 0.954787 0.084032
0.000000 1.000000 0.124937
0.051403 1.000000 0.118224
0.191882 1.000000 0.111510
0.388543 1.000000 0.104797
0.590306 1.000000 0.098083
0.762712 1.000000 0.091370
0.896746 1.000000 0.084656
1.000000 1.000000 0.077943
1.000000 1.000000 0.071229
0.009986 0.000000 0.427865
0.150466 0.000000 0.417795
0.326418 0.000000 0.407725
0.537138 0.000000 0.397654
0.711883 0.000000 0.387584
0.862860 0.000000 0.377514
0.977798 0.000000 0.367444
1.000000 0.000000 0.357373
1.000000 0.000000 0.347303
0.000000 0.095002 0.410196
0.138686 0.088289 0.400126
0.308749 0.081575 0.390056
0.519469 0.074862 0.379986
0.697427 0.068148 0.369915
0.853222 0.061435 0.359845
0.968160 0.054721 0.349775
1.000000 0.048008 0.339705
1.000000 0.041294 0.329634
0.000000 0.227780 0.390991
0.125883 0.218473 0.380921
0.289544 0.211759 0.370851
0.500264 0.205046 0.360781
0.681713 0.198332 0.350710
0.842747 0.191619 0.340640
0.957685 0.184905 0.330570
1.000000 0.178192 0.320499
1.000000 0.171478 0.310429
0.000000 0.423056 0.371786
0.113080 0.412986 0.361716
0.270339 0.402916 0.351646
0.481058 0.392845 0.341575
0.666000 0.382775 0.331505
0.832271 0.372705 0.321435
0.947209 0.362635 0.311365
1.000000 0.352564 0.301294
1.000000 0.342494 0.291224
0.000000 0.605908 0.352581
0.100276 0.597669 0.342511
0.251134 0.589430 0.332440
0.461853 0.581190 0.322370
0.650287 0.572951 0.312300
0.821796 0.564712 0.302230
0.936734 0.556473 0.292159
1.000000 0.547841 0.282089
1.000000 0.537770 0.272019
0.000000 0.765680 0.333376
0.087473 0.757441 0.323305
0.231928 0.749201 0.313235
0.442648 0.740962 0.303165
0.634573 0.732723 0.293095
0.806980 0.724483 0.283024
0.926258 0.716244 0.272954
1.000000 0.708005 0.262884
1.000000 0.699765 0.252814
0.000000 0.890301 0.314171
0.074669 0.884808 0.304100
0.215149 0.879315 0.294030
0.423443 0.873822 0.283960
0.618860 0.868329 0.273890
0.791267 0.862837 0.263819
0.915783 0.857344 0.253749
1.000000 0.851851 0.243679
1.000000 0.846358 0.233608
0.000000 0.996815 0.294965
0.061866 0.991322 0.284895
0.202345 0.985830 0.274825
0.404238 0.980337 0.264755
0.603147 0.974844 0.254684
0.775554 0.969351 0.244614
0.905307 0.963858 0.234544
1.000000 0.958365 0.224474
1.000000 0.952872 0.216269
0.000000 1.000000 0.275760
0.049062 1.000000 0.265690
0.189542 1.000000 0.255620
0.385032 1.000000 0.245549
0.587433 1.000000 0.235479
0.759840 1.000000 0.225409
0.894831 1.000000 0.216892
1.000000 1.000000 0.210179
1.000000 1.000000 0.203465
0.007646 0.000000 0.612362
0.148125 0.000000 0.604122
0.322908 0.000000 0.595883
0.533627 0.000000 0.587644
0.709011 0.000000 0.579404
0.860945 0.000000 0.571165
0.975883 0.000000 0.562926
1.000000 0.000000 0.554686
1.000000 0.000000 0.545658
0.000000 0.092662 0.597905
0.136346 0.085948 0.589666
0.305239 0.079235 0.581427
0.515958 0.072521 0.573187
0.694555 0.065808 0.564948
0.851308 0.059094 0.556709
0.966246 0.052381 0.548129
1.000000 0.045667 0.538059
1.000000 0.038954 0.527989
0.000000 0.224269 0.582192
0.123543 0.216133 0.573953
0.286034 0.209419 0.565713
0.496753 0.202706 0.557474
0.678841 0.195992 0.549065
0.840832 0.189279 0.538995
0.955770 0.182565 0.528924
1.000000 0.175852 0.518854
1.000000 0.169138 0.508784
0.000000 0.419546 0.566479
0.110739 0.409475 0.558239
0.266828 0.399405 0.550000
0.477548 0.389335 0.539930
0.663128 0.379265 0.529860
0.830356 0.369194 0.519789
0.945294 0.359124 0.509719
1.000000 0.349054 0.499649
1.000000 0.338984 0.489579
0.000000 0.603036 0.550765
0.097936 0.594797 0.540865
0.247623 0.586558 0.530795
0.458343 0.578318 0.520725
0.647415 0.570079 0.510654
0.819821 0.561840 0.500584
0.934819 0.553600 0.490514
1.000000 0.544330 0.480444
1.000000 0.534260 0.470373
0.000000 0.762808 0.531730
0.085132 0.754568 0.521660
0.228418 0.746329 0.511590
0.439138 0.738090 0.501520
0.631701 0.729850 0.491449
0.804108 0.721611 0.481379
0.924343 0.713372 0.471309
1.000000 0.705133 0.461239
1.000000 0.696893 0.451168
0.000000 0.888386 0.512525
0.072329 0.882893 0.502455
0.212809 0.877400 0.492385
0.419932 0.871908 0.482314
0.615988 0.866415 0.472244
0.788395 0.860922 0.462174
0.913868 0.855429 0.452104
1.000000 0.849936 0.442033
1.000000 0.844443 0.431963
0.000000 0.994900 0.493320
0.059525 0.989408 0.483250
0.200005 0.983915 0.473179
0.400727 0.978422 0.463109
0.600275 0.972929 0.453039
0.772681 0.967436 0.442969
0.903392 0.961943 0.432898
1.000000 0.956450 0.422828
1.000000 0.950958 0.412758
0.000000 1.000000 0.474115
0.046722 1.000000 0.464044
0.187202 1.000000 0.453974
0.381522 1.000000 0.443904
0.584561 1.000000 0.433834
0.756968 1.000000 0.423763
0.892917 1.000000 0.413693
1.000000 1.000000 0.403623
1.000000 1.000000 0.393553
0.005305 0.000000 0.774652
0.145785 0.000000 0.766412
0.319397 0.000000 0.758173
0.530117 0.000000 0.749934
0.706139 0.000000 0.741694
0.859030 0.000000 0.733455
0.973968 0.000000 0.725216
1.000000 0.000000 0.716977
1.000000 0.000000 0.708737
0.000000 0.090322 0.760195
0.134006 0.083608 0.751956
0.301728 0.076895 0.743717
0.512448 0.070181 0.735477
0.691682 0.063468 0.727238
0.849393 0.056754 0.718999
0.964331 0.050041 0.710760
1.000000 0.043327 0.702520
1.000000 0.036614 0.694281
0.000000 0.220759 0.744482
0.121202 0.213792 0.736243
0.282523 0.207079 0.728004
0.493243 0.200365 0.719764
0.675969 0.193652 0.711525
0.838917 0.186938 0.703286
0.953855 0.180225 0.695046
1.000000 0.173511 0.686807
1.000000 0.166798 0.678568
0.000000 0.416035 0.728769
0.108399 0.405965 0.720529
0.263318 0.395895 0.712290
0.474038 0.385825 0.704051
0.660256 0.375754 0.695812
0.828442 0.365684 0.687572
0.943380 0.355614 0.679333
1.000000 0.345543 0.671094
1.000000 0.335473 0.662854
0.000000 0.600164 0.713055
0.095596 0.591925 0.704816
0.244113 0.583685 0.696577
0.454832 0.575446 0.688338
0.644542 0.567207 0.680098
0.816949 0.558968 0.671859
0.932904 0.550728 0.663620
1.000000 0.540820 0.655380
1.000000 0.530750 0.647141
0.000000 0.759935 0.697342
0.082792 0.751696 0.689103
0.224908 0.743457 0.680863
0.435627 0.735218 0.672624
0.628829 0.726978 0.664385
0.801236 0.718739 0.656146
0.922429 0.710500 0.647906
1.000000 0.702260 0.639667
1.000000 0.694021 0.631428
0.000000 0.886471 0.681629
0.069989 0.880979 0.673389
0.210468 0.875486 0.665150
0.416422 0.869993 0.656911
0.613116 0.864500 0.648672
0.785523 0.859007 0.640432
0.911953 0.853514 0.632193
1.000000 0.848021 0.623954
1.000000 0.842528 0.615714
0.000000 0.992986 0.665915
0.057185 0.987493 0.657676
0.197665 0.982000 0.649437
0.397217 0.976507 0.641198
0.597402 0.971014 0.632958
0.769809 0.965521 0.624719
0.901478 0.960029 0.616480
1.000000 0.954536 0.608240
1.000000 0.949043 0.600001
0.000000 1.000000 0.650202
0.044382 1.000000 0.641963
0.184861 1.000000 0.633723
0.378012 1.000000 0.625484
0.581689 1.000000 0.617245
0.754096 1.000000 0.609006
0.891002 1.000000 0.600766
1.000000 1.000000 0.592527
1.000000 1.000000 0.584288
0.002965 0.000000 0.897961
0.143445 0.000000 0.892468
0.315887 0.000000 0.886975
0.526606 0.000000 0.881483
0.703267 0.000000 0.875990
0.857116 0.000000 0.870497
0.972054 0.000000 0.865004
1.000000 0.000000 0.859511
1.000000 0.000000 0.854018
0.000000 0.087981 0.888324
0.131666 0.081268 0.882831
0.298218 0.074554 0.877338
0.508938 0.067841 0.871845
0.688810 0.061127 0.866352
0.847478 0.054414 0.860859
0.962416 0.047700 0.855366
1.000000 0.040987 0.849874
1.000000 0.034273 0.844381
0.000000 0.218166 0.877848
0.118862 0.211452 0.872355
0.279013 0.204739 0.866862
0.489732 0.198025 0.861369
0.673097 0.191312 0.855877
0.837003 0.184598 0.850384
0.951941 0.177885 0.844891
1.000000 0.171171 0.839398
1.000000 0.164458 0.833905
0.000000 0.412525 0.867373
0.106059 0.402455 0.861880
0.259808 0.392384 0.856387
0.470527 0.382314 0.850894
0.657384 0.372244 0.845401
0.826527 0.362174 0.839908
0.941465 0.352103 0.834415
1.000000 0.342033 0.828922
1.000000 0.331963 0.823430
0.000000 0.597292 0.856897
0.093255 0.589053 0.851404
0.240602 0.580813 0.845911
0.451322 0.572574 0.840418
0.641670 0.564335 0.834926
0.814077 0.556095 0.829433
0.930989 0.547380 0.823940
1.000000 0.537309 0.817670
1.000000 0.527239 0.809431
0.000000 0.757063 0.846421
0.080452 0.748824 0.840929
0.221397 0.740585 0.835436
0.432117 0.732345 0.829943
0.625957 0.724106 0.824450
0.798364 0.715867 0.818436
0.920514 0.707628 0.810196
1.000000 0.699388 0.801957
1.000000 0.691149 0.793718
0.000000 0.884557 0.835946
0.067648 0.879064 0.830453
0.208128 0.873571 0.824960
0.412912 0.868078 0.819201
0.610244 0.862585 0.810962
0.782650 0.857092 0.802722
0.910038 0.851599 0.794483
1.000000 0.846107 0.786244
1.000000 0.840614 0.778004
0.000000 0.991071 0.825470
0.054845 0.985578 0.819966
0.195325 0.980085 0.811727
0.393707 0.974592 0.803488
0.594530 0.969100 0.795248
0.766937 0.963607 0.787009
0.899563 0.958114 0.778770
1.000000 0.952621 0.770530
1.000000 0.947128 0.762291
0.000000 1.000000 0.812492
0.042041 1.000000 0.804253
0.182521 1.000000 0.796014
0.374501 1.000000 0.787774
0.578817 1.000000 0.779535
0.751224 1.000000 0.771296
0.889087 1.000000 0.763056
1.000000 1.000000 0.754817
1.000000 1.000000 0.746578
0.000625 0.000000 1.000000
0.141105 0.000000 1.000000
0.312376 0.000000 0.995169
0.523096 0.000000 0.989676
0.700394 0.000000 0.984183
0.855201 0.000000 0.978690
0.970139 0.000000 0.973197
1.000000 0.000000 0.967704
1.000000 0.000000 0.962212
0.000000 0.085641 0.996517
0.129325 0.078928 0.991024
0.294708 0.072214 0.985531
0.505427 0.065501 0.980039
0.685938 0.058787 0.974546
0.845563 0.052074 0.969053
0.960501 0.045360 0.963560
1.000000 0.038647 0.958067
1.000000 0.031933 0.952574
0.000000 0.215825 0.986042
0.116522 0.209112 0.980549
0.275502 0.202398 0.975056
0.486222 0.195685 0.969563
0.670225 0.188971 0.964070
0.835088 0.182258 0.958577
0.950026 0.175544 0.953084
1.000000 0.168831 0.947591
1.000000 0.162117 0.942099
0.000000 0.409014 0.975566
0.103718 0.398944 0.970073
0.256297 0.388874 0.964580
0.467017 0.378804 0.959087
0.654511 0.368733 0.953595
0.824612 0.358663 0.948102
0.939550 0.348593 0.942609
1.000000 0.338523 0.937116
1.000000 0.328452 0.931623
0.000000 0.594420 0.965090
0.090915 0.586180 0.959598
0.237092 0.577941 0.954105
0.447812 0.569702 0.948612
0.638798 0.561463 0.943119
0.811205 0.553223 0.937626
0.929075 0.543869 0.932133
1.000000 0.533799 0.926640
1.000000 0.523729 0.921147
0.000000 0.754191 0.954615
0.078112 0.745952 0.949122
0.218591 0.737713 0.943629
0.428606 0.729473 0.938136
0.623085 0.721234 0.932643
0.795492 0.712995 0.927151
0.918599 0.704755 0.921658
1.000000 0.696516 0.916165
1.000000 0.688277 0.910672
0.000000 0.882642 0.944139
0.065308 0.877149 0.938646
0.205788 0.871656 0.933154
0.409401 0.866163 0.927661
0.607371 0.860670 0.922168
0.779778 0.855178 0.916675
0.908124 0.849685 0.911182
1.000000 0.844192 0.905689
1.000000 0.838699 0.900196
0.000000 0.989156 0.933664
0.052505 0.983663 0.928171
0.192984 0.978170 0.922678
0.390196 0.972678 0.917185
0.591658 0.967185 0.911692
0.764065 0.961692 0.906199
0.897648 0.956199 0.900707
1.000000 0.950706 0.895214
1.000000 0.945213 0.889721
0.000000 1.000000 0.923188
0.039701 1.000000 0.917695
0.180181 1.000000 0.912202
0.370991 1.000000 0.906710
0.575945 1.000000 0.901217
0.748352 1.000000 0.895724
0.887172 1.000000 0.890231
1.000000 1.000000 0.884738
1.000000 1.000000 0.879245
0.000000 0.000000 1.000000
0.138764 0.000000 1.000000
0.308866 0.000000 1.000000
0.519585 0.000000 1.000000
0.697522 0.000000 1.000000
0.853286 0.000000 1.000000
0.968224 0.000000 1.000000
1.000000 0.000000 1.000000
1.000000 0.000000 1.000000
0.000000 0.083301 1.000000
0.126985 0.076587 1.000000
0.291197 0.069874 1.000000
0.501917 0.063160 1.000000
0.683066 0.056447 1.000000
0.843649 0.049733 1.000000
0.958587 0.043020 1.000000
1.000000 0.036306 1.000000
1.000000 0.029593 1.000000
0.000000 0.213485 1.000000
0.114182 0.206772 1.000000
0.271992 0.200058 1.000000
0.482712 0.193345 1.000000
0.667353 0.186631 1.000000
0.833173 0.179918 1.000000
0.948111 0.173204 1.000000
1.000000 0.166491 1.000000
1.000000 0.159777 1.000000
0.000000 0.405504 1.000000
0.101378 0.395434 1.000000
0.252787 0.385364 1.000000
0.463506 0.375293 1.000000
0.651639 0.365223 1.000000
0.822697 0.355153 1.000000
0.937635 0.345083 1.000000
1.000000 0.335012 1.000000
1.000000 0.324942 1.000000
0.000000 0.591548 1.000000
0.088575 0.583308 1.000000
0.233582 0.575069 1.000000
0.444301 0.566830 1.000000
0.635926 0.558590 1.000000
0.808333 0.550351 1.000000
0.927160 0.540359 1.000000
1.000000 0.530289 1.000000
1.000000 0.520218 1.000000
0.000000 0.751319 1.000000
0.075771 0.743080 1.000000
0.216251 0.734841 1.000000
0.425096 0.726601 1.000000
0.620213 0.718362 1.000000
0.792620 0.710123 1.000000
0.916684 0.701883 1.000000
1.000000 0.693644 1.000000
1.000000 0.685405 1.000000
0.000000 0.880727 1.000000
0.062968 0.875234 1.000000
0.203448 0.869741 1.000000
0.405891 0.864249 1.000000
0.604499 0.858756 1.000000
0.776906 0.853263 1.000000
0.906209 0.847770 1.000000
1.000000 0.842277 1.000000
1.000000 0.836784 1.000000
0.000000 0.987241 1.000000
0.050164 0.981749 1.000000
0.190644 0.976256 1.000000
0.386686 0.970763 1.000000
0.588786 0.965270 1.000000
0.761193 0.959777 1.000000
0.895733 0.954284 1.000000
1.000000 0.948791 1.000000
1.000000 0.943299 0.997914
0.000000 1.000000 1.000000
0.037361 1.000000 1.000000
0.177841 1.000000 1.000000
0.367481 1.000000 1.000000
0.573073 1.000000 1.000000
0.745479 1.000000 1.000000
0.885258 1.000000 0.998424
1.000000 1.000000 0.992931
1.000000 1.000000 0.987439
