app/src/main/assets/luts/food_sweet.cube
# V-Cam procedural LUT — food_sweet
# Generated by LutBaker. Do not edit by hand.
TITLE "V-Cam food_sweet"
LUT_3D_SIZE 9
DOMAIN_MIN 0.0 0.0 0.0
DOMAIN_MAX 1.0 1.0 1.0
0.027730 0.000000 0.000000
0.185281 0.000000 0.000000
0.342832 0.000000 0.000000
0.500383 0.000000 0.000000
0.657934 0.000000 0.000000
0.815485 0.000000 0.000000
0.973036 0.000000 0.000000
1.000000 0.000000 0.000000
1.000000 0.000000 0.000000
0.010942 0.141628 0.000000
0.168493 0.132649 0.000000
0.326044 0.123670 0.000000
0.483595 0.114691 0.000000
0.641146 0.105713 0.000000
0.798697 0.096734 0.000000
0.956248 0.087755 0.000000
1.000000 0.078776 0.000000
1.000000 0.069797 0.000000
0.000000 0.283440 0.000000
0.151705 0.274461 0.000000
0.309256 0.265482 0.000000
0.466807 0.256503 0.000000
0.624358 0.247524 0.000000
0.781909 0.238545 0.000000
0.939460 0.229566 0.000000
1.000000 0.220587 0.000000
1.000000 0.211608 0.000000
0.000000 0.425252 0.000000
0.134917 0.416273 0.000000
0.292468 0.407294 0.000000
0.450019 0.398315 0.000000
0.607570 0.389336 0.000000
0.765121 0.380357 0.000000
0.922672 0.371378 0.000000
1.000000 0.362399 0.000000
1.000000 0.353420 0.000000
0.000000 0.567064 0.000000
0.118128 0.558085 0.000000
0.275680 0.549106 0.000000
0.433231 0.540127 0.000000
0.590782 0.531148 0.000000
0.748333 0.522169 0.000000
0.905884 0.513190 0.000000
1.000000 0.504211 0.000000
1.000000 0.495232 0.000000
0.000000 0.708876 0.000000
0.101340 0.699897 0.000000
0.258891 0.690918 0.000000
0.416442 0.681939 0.000000
0.573993 0.672960 0.000000
0.731544 0.663981 0.000000
0.889095 0.655002 0.000000
1.000000 0.646023 0.000000
1.000000 0.637044 0.000000
0.000000 0.850687 0.000000
0.084552 0.841708 0.000000
0.242103 0.832729 0.000000
0.399654 0.823750 0.000000
0.557205 0.814772 0.000000
0.714756 0.805793 0.000000
0.872307 0.796814 0.000000
1.000000 0.787835 0.000000
1.000000 0.778856 0.000000
0.000000 0.992499 0.000000
0.067764 0.983520 0.000000
0.225315 0.974541 0.000000
0.382866 0.965562 0.000000
0.540417 0.956583 0.000000
0.697968 0.947604 0.000000
0.855519 0.938625 0.000000
1.000000 0.929646 0.000000
1.000000 0.920667 0.000000
0.000000 1.000000 0.000000
0.050976 1.000000 0.000000
0.208527 1.000000 0.000000
0.366078 1.000000 0.000000
0.523629 1.000000 0.000000
0.681180 1.000000 0.000000
0.838731 1.000000 0.000000
0.996282 1.000000 0.000000
1.000000 1.000000 0.000000
0.026086 0.000000 0.052794
0.183637 0.000000 0.043815
0.341188 0.000000 0.034836
0.498739 0.000000 0.025857
0.656290 0.000000 0.016878
0.813841 0.000000 0.007899
0.971392 0.000000 0.000000
1.000000 0.000000 0.000000
1.000000 0.000000 0.000000
0.009297 0.139984 0.036006
0.166849 0.131005 0.027027
0.324400 0.122026 0.018048
0.481951 0.113047 0.009069
0.639502 0.104068 0.000090
0.797053 0.095089 0.000000
0.954604 0.086110 0.000000
1.000000 0.077131 0.000000
1.000000 0.068152 0.000000
0.000000 0.281796 0.019218
0.150060 0.272817 0.010239
0.307611 0.263838 0.001260
0.465162 0.254859 0.000000
0.622713 0.245880 0.000000
0.780264 0.236901 0.000000
0.937815 0.227922 0.000000
1.000000 0.218943 0.000000
1.000000 0.209964 0.000000
0.000000 0.423607 0.002429
0.133272 0.414629 0.000000
0.290823 0.405650 0.000000
0.448374 0.396671 0.000000
0.605925 0.387692 0.000000
0.763476 0.378713 0.000000
0.921027 0.369734 0.000000
1.000000 0.360755 0.000000
1.000000 0.351776 0.000000
0.000000 0.565419 0.000000
0.116484 0.556440 0.000000
0.274035 0.547461 0.000000
0.431586 0.538482 0.000000
0.589137 0.529503 0.000000
0.746688 0.520524 0.000000
0.904239 0.511545 0.000000
1.000000 0.502566 0.000000
1.000000 0.493588 0.000000
0.000000 0.707231 0.000000
0.099696 0.698252 0.000000
0.257247 0.689273 0.000000
0.414798 0.680294 0.000000
0.572349 0.671315 0.000000
0.729900 0.662336 0.000000
0.887451 0.653357 0.000000
1.000000 0.644378 0.000000
1.000000 0.635399 0.000000
0.000000 0.849043 0.000000
0.082907 0.840064 0.000000
0.240459 0.831085 0.000000
0.398010 0.822106 0.000000
0.555561 0.813127 0.000000
0.713112 0.804148 0.000000
0.870663 0.795169 0.000000
1.000000 0.786190 0.000000
1.000000 0.777211 0.000000
0.000000 0.990855 0.000000
0.066119 0.981876 0.000000
0.223670 0.972897 0.000000
0.381221 0.963918 0.000000
0.538772 0.954939 0.000000
0.696323 0.945960 0.000000
0.853874 0.936981 0.000000
1.000000 0.928002 0.000000
1.000000 0.919023 0.000000
0.000000 1.000000 0.000000
0.049331 1.000000 0.000000
0.206882 1.000000 0.000000
0.364433 1.000000 0.000000
0.521984 1.000000 0.000000
0.679535 1.000000 0.000000
0.837086 1.000000 0.000000
0.994637 1.000000 0.000000
1.000000 1.000000 0.000000
0.022923 0.000000 0.203473
0.180474 0.000000 0.194494
0.338025 0.000000 0.185515
0.495576 0.000000 0.176536
0.653127 0.000000 0.167557
0.810678 0.000000 0.158578
0.968229 0.000000 0.149600
1.000000 0.000000 0.140621
1.000000 0.000000 0.131642
0.006135 0.136821 0.186685
0.163686 0.127842 0.177706
0.321237 0.118863 0.168727
0.478788 0.109884 0.159748
0.636339 0.100905 0.150769
0.793890 0.091926 0.141790
0.951441 0.082947 0.132811
1.000000 0.073968 0.123832
1.000000 0.064990 0.114853
0.000000 0.278633 0.169897
0.146898 0.269654 0.160918
0.304449 0.260675 0.151939
0.462000 0.251696 0.142960
0.619551 0.242717 0.133981
0.777102 0.233738 0.125002
0.934653 0.224759 0.116023
1.000000 0.215780 0.107044
1.000000 0.206801 0.098065
0.000000 0.420445 0.153109
0.130110 0.411466 0.144130
0.287661 0.402487 0.135151
0.445212 0.393508 0.126172
0.602763 0.384529 0.117193
0.760314 0.375550 0.108214
0.917865 0.366571 0.099235
1.000000 0.357592 0.090256
1.000000 0.348613 0.081277
0.000000 0.562257 0.136321
0.113321 0.553278 0.127342
0.270872 0.544299 0.118363
0.428423 0.535320 0.109384
0.585974 0.526341 0.100405
0.743525 0.517362 0.091426
0.901076 0.508383 0.082447
1.000000 0.499404 0.073468
1.000000 0.490425 0.064489
0.000000 0.704068 0.119532
0.096533 0.695090 0.110553
0.254084 0.686110 0.101574
0.411635 0.677132 0.092595
0.569186 0.668153 0.083616
0.726737 0.659174 0.074637
0.884288 0.650195 0.065659
1.000000 0.641216 0.056679
1.000000 0.632237 0.047701
0.000000 0.845880 0.102744
0.079745 0.836901 0.093765
0.237296 0.827922 0.084786
0.394847 0.818943 0.075807
0.552398 0.809964 0.066828
0.709949 0.800985 0.057849
0.867500 0.792006 0.048870
1.000000 0.783027 0.039891
1.000000 0.774049 0.030912
0.000000 0.987692 0.085956
0.062957 0.978713 0.076977
0.220508 0.969734 0.067998
0.378059 0.960755 0.059019
0.535610 0.951776 0.050040
0.693161 0.942797 0.041061
0.850712 0.933818 0.032082
1.000000 0.924839 0.023103
1.000000 0.915860 0.014124
0.000000 1.000000 0.069168
0.046168 1.000000 0.060189
0.203720 1.000000 0.051210
0.361271 1.000000 0.042231
0.518822 1.000000 0.033252
0.676373 1.000000 0.024273
0.833924 1.000000 0.015294
0.991475 1.000000 0.006315
1.000000 1.000000 0.000000
0.019760 0.000000 0.354153
0.177312 0.000000 0.345174
0.334863 0.000000 0.336195
0.492414 0.000000 0.327216
0.649965 0.000000 0.318237
0.807516 0.000000 0.309258
0.965067 0.000000 0.300279
1.000000 0.000000 0.291300
1.000000 0.000000 0.282321
0.002972 0.133659 0.337365
0.160523 0.124680 0.328386
0.318074 0.115701 0.319407
0.475625 0.106722 0.310428
0.633176 0.097743 0.301449
0.790727 0.088764 0.292470
0.948278 0.079785 0.283491
1.000000 0.070806 0.274512
1.000000 0.061827 0.265533
0.000000 0.275470 0.320576
0.143735 0.266492 0.311597
0.301286 0.257513 0.302618
0.458837 0.248534 0.293639
0.616388 0.239555 0.284660
0.773939 0.230576 0.275681
0.931490 0.221597 0.266703
1.000000 0.212618 0.257724
1.000000 0.203639 0.248745
0.000000 0.417282 0.303788
0.126947 0.408303 0.294809
0.284498 0.399324 0.285830
0.442049 0.390345 0.276851
0.599600 0.381366 0.267872
0.757151 0.372387 0.258893
0.914702 0.363408 0.249914
1.000000 0.354429 0.240935
1.000000 0.345451 0.231956
0.000000 0.559094 0.287000
0.110159 0.550115 0.278021
0.267710 0.541136 0.269042
0.425261 0.532157 0.260063
0.582812 0.523178 0.251084
0.740363 0.514199 0.242105
0.897914 0.505220 0.233126
1.000000 0.496241 0.224147
1.000000 0.487262 0.215168
0.000000 0.700906 0.270212
0.093371 0.691927 0.261233
0.250922 0.682948 0.252254
0.408473 0.673969 0.243275
0.566024 0.664990 0.234296
0.723575 0.656011 0.225317
0.881126 0.647032 0.216338
1.000000 0.638053 0.207359
1.000000 0.629074 0.198380
0.000000 0.842718 0.253424
0.076582 0.833739 0.244445
0.234133 0.824760 0.235466
0.391684 0.815781 0.226487
0.549235 0.806802 0.217508
0.706786 0.797823 0.208529
0.864337 0.788844 0.199550
1.000000 0.779865 0.190571
1.000000 0.770886 0.181592
0.000000 0.984529 0.236635
0.059794 0.975551 0.227656
0.217345 0.966572 0.218677
0.374896 0.957593 0.209698
0.532447 0.948614 0.200719
0.689998 0.939635 0.191741
0.847549 0.930656 0.182762
1.000000 0.921677 0.173783
1.000000 0.912698 0.164804
0.000000 1.000000 0.219847
0.043006 1.000000 0.210868
0.200557 1.000000 0.201889
0.358108 1.000000 0.192910
0.515659 1.000000 0.183931
0.673210 1.000000 0.174952
0.830761 1.000000 0.165973
0.988312 1.000000 0.156994
1.000000 1.000000 0.148015
0.016598 0.000000 0.504832
0.174149 0.000000 0.495853
0.331700 0.000000 0.486874
0.489251 0.000000 0.477895
0.646802 0.000000 0.468916
0.804353 0.000000 0.459937
0.961904 0.000000 0.450958
1.000000 0.000000 0.441979
1.000000 0.000000 0.433000
0.000000 0.130496 0.488044
0.157361 0.121517 0.479065
0.314912 0.112538 0.470086
0.472463 0.103559 0.461107
0.630014 0.094580 0.452128
0.787565 0.085601 0.443149
0.945116 0.076622 0.434170
1.000000 0.067643 0.425191
1.000000 0.058664 0.416212
0.000000 0.272308 0.471256
0.140573 0.263329 0.462277
0.298124 0.254350 0.453298
0.455675 0.245371 0.444319
0.613226 0.236392 0.435340
0.770777 0.227413 0.426361
0.928328 0.218434 0.417382
1.000000 0.209455 0.408403
1.000000 0.200476 0.399424
0.000000 0.414120 0.454468
0.123784 0.405141 0.445489
0.281335 0.396162 0.436510
0.438886 0.387183 0.427531
0.596437 0.378204 0.418552
0.753988 0.369225 0.409573
0.911539 0.360246 0.400594
1.000000 0.351267 0.391615
1.000000 0.342288 0.382636
0.000000 0.555932 0.437679
0.106996 0.546953 0.428700
0.264547 0.537974 0.419721
0.422098 0.528995 0.410742
0.579649 0.520016 0.401763
0.737200 0.511037 0.392785
0.894751 0.502058 0.383806
1.000000 0.493079 0.374827
1.000000 0.484100 0.365848
0.000000 0.697743 0.420891
0.090208 0.688764 0.411912
0.247759 0.679785 0.402933
0.405310 0.670806 0.393954
0.562861 0.661827 0.384975
0.720412 0.652848 0.375996
0.877963 0.643869 0.367017
1.000000 0.634890 0.358038
1.000000 0.625912 0.349059
0.000000 0.839555 0.404103
0.073420 0.830576 0.395124
0.230971 0.821597 0.386145
0.388522 0.812618 0.377166
0.546073 0.803639 0.368187
0.703624 0.794660 0.359208
0.861175 0.785681 0.350229
1.000000 0.776702 0.341250
1.000000 0.767723 0.332271
0.000000 0.981367 0.387315
0.056632 0.972388 0.378336
0.214183 0.963409 0.369357
0.371734 0.954430 0.360378
0.529285 0.945451 0.351399
0.686836 0.936472 0.342420
0.844387 0.927493 0.333441
1.000000 0.918514 0.324462
1.000000 0.909535 0.315483
0.000000 1.000000 0.370527
0.039843 1.000000 0.361548
0.197394 1.000000 0.352569
0.354945 1.000000 0.343590
0.512496 1.000000 0.334611
0.670047 1.000000 0.325632
0.827598 1.000000 0.316653
0.985150 1.000000 0.307674
1.000000 1.000000 0.298695
0.013435 0.000000 0.655512
0.170986 0.000000 0.646533
0.328537 0.000000 0.637554
0.486088 0.000000 0.628575
0.643639 0.000000 0.619596
0.801190 0.000000 0.610617
0.958742 0.000000 0.601638
1.000000 0.000000 0.592659
1.000000 0.000000 0.583680
0.000000 0.127333 0.638723
0.154198 0.118355 0.629744
0.311749 0.109376 0.620765
0.469300 0.100397 0.611786
0.626851 0.091418 0.602808
0.784402 0.082439 0.593828
0.941953 0.073460 0.584850
1.000000 0.064481 0.575871
1.000000 0.055502 0.566892
0.000000 0.269145 0.621935
0.137410 0.260166 0.612956
0.294961 0.251187 0.603977
0.452512 0.242208 0.594998
0.610063 0.233229 0.586019
0.767614 0.224250 0.577040
0.925165 0.215272 0.568061
1.000000 0.206293 0.559082
1.000000 0.197314 0.550103
0.000000 0.410957 0.605147
0.120622 0.401978 0.596168
0.278173 0.392999 0.587189
0.435724 0.384020 0.578210
0.593275 0.375041 0.569231
0.750826 0.366062 0.560252
0.908377 0.357083 0.551273
1.000000 0.348104 0.542294
1.000000 0.339125 0.533315
0.000000 0.552769 0.588359
0.103834 0.543790 0.579380
0.261385 0.534811 0.570401
0.418936 0.525832 0.561422
0.576487 0.516853 0.552443
0.734038 0.507874 0.543464
0.891589 0.498895 0.534485
1.000000 0.489916 0.525506
1.000000 0.480937 0.516527
0.000000 0.694581 0.571571
0.087045 0.685602 0.562592
0.244596 0.676623 0.553613
0.402147 0.667644 0.544634
0.559698 0.658665 0.535655
0.717249 0.649686 0.526676
0.874800 0.640707 0.517697
1.000000 0.631728 0.508718
1.000000 0.622749 0.499739
0.000000 0.836393 0.554782
0.070257 0.827414 0.545803
0.227808 0.818435 0.536824
0.385359 0.809456 0.527845
0.542910 0.800477 0.518866
0.700461 0.791498 0.509888
0.858012 0.782519 0.500908
1.000000 0.773540 0.491930
1.000000 0.764561 0.482951
0.000000 0.978204 0.537994
0.053469 0.969225 0.529015
0.211020 0.960246 0.520036
0.368571 0.951267 0.511057
0.526122 0.942288 0.502078
0.683673 0.933309 0.493099
0.841224 0.924330 0.484120
0.998775 0.915352 0.475141
1.000000 0.906373 0.466162
0.000000 1.000000 0.521206
0.036681 1.000000 0.512227
0.194232 1.000000 0.503248
0.351783 1.000000 0.494269
0.509334 1.000000 0.485290
0.666885 1.000000 0.476311
0.824436 1.000000 0.467332
0.981987 1.000000 0.458353
1.000000 1.000000 0.449374
0.010273 0.000000 0.806191
0.167824 0.000000 0.797212
0.325375 0.000000 0.788233
0.482926 0.000000 0.779254
0.640477 0.000000 0.770275
0.798028 0.000000 0.761296
0.955579 0.000000 0.752317
1.000000 0.000000 0.743338
1.000000 0.000000 0.734359
0.000000 0.124171 0.789403
0.151036 0.115192 0.780424
0.308587 0.106213 0.771445
0.466138 0.097234 0.762466
0.623689 0.088255 0.753487
0.781240 0.079276 0.744508
0.938791 0.070297 0.735529
1.000000 0.061318 0.726550
1.000000 0.052339 0.717571
0.000000 0.265983 0.772615
0.134247 0.257004 0.763636
0.291798 0.248025 0.754657
0.449349 0.239046 0.745678
0.606900 0.230067 0.736699
0.764452 0.221088 0.727720
0.922002 0.212109 0.718741
1.000000 0.203130 0.709762
1.000000 0.194151 0.700783
0.000000 0.407795 0.755826
0.117459 0.398816 0.746847
0.275010 0.389837 0.737868
0.432561 0.380858 0.728889
0.590112 0.371879 0.719911
0.747663 0.362900 0.710932
0.905214 0.353921 0.701953
1.000000 0.344942 0.692974
1.000000 0.335963 0.683995
0.000000 0.549606 0.739038
0.100671 0.540627 0.730059
0.258222 0.531648 0.721080
0.415773 0.522669 0.712101
0.573324 0.513690 0.703122
0.730875 0.504712 0.694143
0.888426 0.495732 0.685164
1.000000 0.486754 0.676185
1.000000 0.477775 0.667206
0.000000 0.691418 0.722250
0.083883 0.682439 0.713271
0.241434 0.673460 0.704292
0.398985 0.664481 0.695313
0.556536 0.655502 0.686334
0.714087 0.646523 0.677355
0.871638 0.637544 0.668376
1.000000 0.628565 0.659397
1.000000 0.619586 0.650418
0.000000 0.833230 0.705462
0.067095 0.824251 0.696483
0.224646 0.815272 0.687504
0.382197 0.806293 0.678525
0.539748 0.797314 0.669546
0.697299 0.788335 0.660567
0.854850 0.779356 0.651588
1.000000 0.770377 0.642609
1.000000 0.761398 0.633630
0.000000 0.975042 0.688674
0.050306 0.966063 0.679695
0.207857 0.957084 0.670716
0.365408 0.948105 0.661737
0.522959 0.939126 0.652758
0.680510 0.930147 0.643779
0.838061 0.921168 0.634800
0.995613 0.912189 0.625821
1.000000 0.903210 0.616842
0.000000 1.000000 0.671885
0.033518 1.000000 0.662906
0.191069 1.000000 0.653927
0.348620 1.000000 0.644948
0.506171 1.000000 0.635970
0.663722 1.000000 0.626991
0.821273 1.000000 0.618012
0.978824 1.000000 0.609033
1.000000 1.000000 0.600054
0.007110 0.000000 0.956870
0.164661 0.000000 0.947891
0.322212 0.000000 0.938912
0.479763 0.000000 0.929933
0.637314 0.000000 0.920954
0.794865 0.000000 0.911976
0.952416 0.000000 0.902997
1.000000 0.000000 0.894018
1.000000 0.000000 0.885039
0.000000 0.121008 0.940082
0.147873 0.112029 0.931103
0.305424 0.103050 0.922124
0.462975 0.094071 0.913145
0.620526 0.085092 0.904166
0.778077 0.076113 0.895187
0.935628 0.067134 0.886208
1.000000 0.058156 0.877229
1.000000 0.049177 0.868250
0.000000 0.262820 0.923294
0.131085 0.253841 0.914315
0.288636 0.244862 0.905336
0.446187 0.235883 0.896357
0.603738 0.226904 0.887378
0.761289 0.217925 0.878399
0.918840 0.208946 0.869420
1.000000 0.199967 0.860441
1.000000 0.190988 0.851462
0.000000 0.404632 0.906506
0.114297 0.395653 0.897527
0.271848 0.386674 0.888548
0.429399 0.377695 0.879569
0.586950 0.368716 0.870590
0.744501 0.359737 0.861611
0.902052 0.350758 0.852632
1.000000 0.341779 0.843653
1.000000 0.332800 0.834674
0.000000 0.546444 0.889718
0.097508 0.537465 0.880739
0.255059 0.528486 0.871760
0.412610 0.519507 0.862781
0.570161 0.510528 0.853802
0.727713 0.501549 0.844823
0.885264 0.492570 0.835844
1.000000 0.483591 0.826865
1.000000 0.474612 0.817886
0.000000 0.688256 0.872929
0.080720 0.679277 0.863950
0.238271 0.670298 0.854971
0.395822 0.661319 0.845992
0.553373 0.652340 0.837013
0.710924 0.643361 0.828034
0.868475 0.634382 0.819055
1.000000 0.625403 0.810077
1.000000 0.616424 0.801098
0.000000 0.830067 0.856141
0.063932 0.821088 0.847162
0.221483 0.812109 0.838183
0.379034 0.803130 0.829204
0.536585 0.794151 0.820225
0.694136 0.785172 0.811246
0.851687 0.776193 0.802267
1.000000 0.767215 0.793288
1.000000 0.758236 0.784309
0.000000 0.971879 0.839353
0.047144 0.962900 0.830374
0.204695 0.953921 0.821395
0.362246 0.944942 0.812416
0.519797 0.935963 0.803437
0.677348 0.926984 0.794458
0.834899 0.918005 0.785479
0.992450 0.909026 0.776500
1.000000 0.900047 0.767521
0.000000 1.000000 0.822565
0.030356 1.000000 0.813586
0.187907 1.000000 0.804607
0.345458 1.000000 0.795628
0.503009 1.000000 0.786649
0.660560 1.000000 0.777670
0.818111 1.000000 0.768691
0.975662 1.000000 0.759712
1.000000 1.000000 0.750733
0.003948 0.000000 1.000000
0.161499 0.000000 1.000000
0.319050 0.000000 1.000000
0.476601 0.000000 1.000000
0.634152 0.000000 1.000000
0.791703 0.000000 1.000000
0.949254 0.000000 1.000000
1.000000 0.000000 1.000000
1.000000 0.000000 1.000000
0.000000 0.117846 1.000000
0.144710 0.108867 1.000000
0.302261 0.099888 1.000000
0.459812 0.090909 1.000000
0.617363 0.081930 1.000000
0.774915 0.072951 1.000000
0.932466 0.063972 1.000000
1.000000 0.054993 1.000000
1.000000 0.046014 1.000000
0.000000 0.259658 1.000000
0.127922 0.250679 1.000000
0.285473 0.241700 1.000000
0.443024 0.232721 1.000000
0.600575 0.223742 1.000000
0.758126 0.214763 1.000000
0.915677 0.205784 1.000000
1.000000 0.196805 1.000000
1.000000 0.187826 1.000000
0.000000 0.401469 1.000000
0.111134 0.392490 1.000000
0.268685 0.383511 1.000000
0.426236 0.374532 1.000000
0.583787 0.365553 1.000000
0.741338 0.356575 1.000000
0.898889 0.347596 1.000000
1.000000 0.338617 0.994332
1.000000 0.329638 0.985353
0.000000 0.543281 1.000000
0.094346 0.534302 1.000000
0.251897 0.525323 1.000000
0.409448 0.516344 1.000000
0.566999 0.507365 1.000000
0.724550 0.498386 0.995502
0.882101 0.489407 0.986523
1.000000 0.480428 0.977544
1.000000 0.471449 0.968565
0.000000 0.685093 1.000000
0.077558 0.676114 1.000000
0.235109 0.667135 1.000000
0.392660 0.658156 0.996672
0.550211 0.649177 0.987693
0.707762 0.640198 0.978714
0.865313 0.631219 0.969735
1.000000 0.622240 0.960756
1.000000 0.613261 0.951777
0.000000 0.826905 1.000000
0.060769 0.817926 0.997842
0.218320 0.808947 0.988863
0.375871 0.799968 0.979884
0.533422 0.790989 0.970905
0.690973 0.782010 0.961926
0.848525 0.773031 0.952947
1.000000 0.764052 0.943968
1.000000 0.755073 0.934989
0.000000 0.968717 0.990032
0.043981 0.959738 0.981053
0.201532 0.950759 0.972074
0.359083 0.941780 0.963095
0.516634 0.932801 0.954117
0.674185 0.923822 0.945138
0.831736 0.914843 0.936159
0.989287 0.905864 0.927180
1.000000 0.896885 0.918201
0.000000 1.000000 0.973244
0.027193 1.000000 0.964265
0.184744 1.000000 0.955286
0.342295 1.000000 0.946307
0.499846 1.000000 0.937328
0.657397 1.000000 0.928349
0.814948 1.000000 0.919370
0.972499 1.000000 0.910391
1.000000 1.000000 0.901412
