app/src/main/assets/luts/food_creamy.cube
# V-Cam procedural LUT — food_creamy
# Generated by LutBaker. Do not edit by hand.
TITLE "V-Cam food_creamy"
LUT_3D_SIZE 9
DOMAIN_MIN 0.0 0.0 0.0
DOMAIN_MAX 1.0 1.0 1.0
0.104707 0.082601 0.071221
0.134419 0.082604 0.071226
0.205011 0.082635 0.071264
0.318001 0.082852 0.071520
0.465893 0.083953 0.072783
0.635623 0.088005 0.077359
0.806684 0.098435 0.088926
0.945937 0.113335 0.105107
0.993895 0.120083 0.112338
0.104708 0.113468 0.071224
0.134422 0.113469 0.071230
0.205016 0.113488 0.071277
0.318009 0.113640 0.071554
0.465905 0.114450 0.072858
0.635641 0.117501 0.077502
0.806704 0.125615 0.089169
0.945960 0.137667 0.105409
0.993919 0.143275 0.112656
0.104736 0.186258 0.071276
0.134439 0.186261 0.071282
0.205033 0.186269 0.071323
0.318038 0.186339 0.071673
0.465949 0.186780 0.073121
0.635702 0.188556 0.078000
0.806774 0.193542 0.090027
0.946043 0.201318 0.106474
0.994006 0.205070 0.113779
0.105001 0.302002 0.071677
0.134631 0.302007 0.071694
0.205124 0.302021 0.071751
0.318112 0.302057 0.071979
0.466064 0.302236 0.073794
0.635868 0.303123 0.079285
0.806965 0.305872 0.092311
0.946266 0.310347 0.109306
0.994240 0.312567 0.116764
0.106448 0.452981 0.073740
0.135741 0.452988 0.073776
0.205766 0.453009 0.073897
0.318393 0.453064 0.074202
0.466295 0.453170 0.075059
0.636220 0.453521 0.081739
0.807381 0.454946 0.097141
0.946752 0.457449 0.115271
0.994751 0.458729 0.123049
0.111583 0.626245 0.080783
0.139781 0.626254 0.080842
0.208272 0.626283 0.081039
0.319724 0.626356 0.081535
0.466890 0.626507 0.082526
0.636777 0.626746 0.084659
0.808216 0.627291 0.103701
0.947625 0.628660 0.125293
0.995668 0.629388 0.133603
0.124564 0.801493 0.097676
0.150301 0.801504 0.097761
0.215126 0.801541 0.098047
0.323663 0.801635 0.098774
0.468994 0.801832 0.100253
0.637753 0.802162 0.102650
0.809322 0.802571 0.108385
0.948891 0.803112 0.138596
0.996998 0.803508 0.147606
0.148073 0.945050 0.126281
0.170162 0.945062 0.126429
0.228890 0.945103 0.126934
0.332095 0.945208 0.128237
0.473929 0.945433 0.130979
0.640480 0.945835 0.135733
0.810594 0.946424 0.142395
0.950270 0.947052 0.149931
0.998421 0.947232 0.161251
0.161159 0.996428 0.141498
0.181539 0.996442 0.141648
0.237100 0.996490 0.142155
0.337240 0.996615 0.143459
0.476959 0.996880 0.146193
0.642196 0.997348 0.150891
0.811516 0.998019 0.157385
0.950769 0.998729 0.163971
0.999010 0.999010 0.166505
0.104707 0.082601 0.102641
0.134420 0.082605 0.102642
0.205013 0.082635 0.102661
0.318005 0.082852 0.102823
0.465899 0.083954 0.103702
0.635632 0.088005 0.107022
0.806694 0.098440 0.115805
0.945949 0.113342 0.128732
0.993908 0.120090 0.134703
0.104708 0.113468 0.102642
0.134423 0.113469 0.102644
0.205021 0.113486 0.102667
0.318019 0.113634 0.102840
0.465919 0.114435 0.103739
0.635661 0.117468 0.107093
0.806729 0.125564 0.115935
0.945990 0.137600 0.128903
0.993950 0.143204 0.134886
0.104732 0.186261 0.102667
0.134437 0.186263 0.102671
0.205035 0.186270 0.102696
0.318046 0.186337 0.102923
0.465962 0.186772 0.103928
0.635721 0.188538 0.107465
0.806799 0.193512 0.116608
0.946071 0.201275 0.129779
0.994036 0.205023 0.135826
0.104986 0.302008 0.102927
0.134621 0.302012 0.102939
0.205121 0.302026 0.102979
0.318116 0.302059 0.103136
0.466074 0.302235 0.104416
0.635885 0.303116 0.108428
0.806988 0.305858 0.118406
0.946293 0.310324 0.132120
0.994269 0.312541 0.138336
0.106410 0.452990 0.104380
0.135712 0.452996 0.104407
0.205751 0.453017 0.104495
0.318389 0.453070 0.104716
0.466299 0.453174 0.105338
0.636232 0.453521 0.110281
0.807401 0.454942 0.122252
0.946778 0.457439 0.137102
0.994778 0.458717 0.143672
0.111504 0.626257 0.109567
0.139719 0.626265 0.109612
0.208235 0.626294 0.109760
0.319707 0.626367 0.110136
0.466886 0.626515 0.110887
0.636782 0.626750 0.112511
0.808234 0.627292 0.127522
0.947646 0.628658 0.145610
0.995691 0.629385 0.152769
0.124412 0.801510 0.122678
0.150177 0.801521 0.122746
0.215044 0.801557 0.122975
0.323619 0.801651 0.123558
0.468973 0.801846 0.124747
0.637748 0.802173 0.126681
0.809329 0.802577 0.131383
0.948906 0.803116 0.157137
0.997015 0.803511 0.165069
0.147831 0.945075 0.146382
0.169954 0.945087 0.146510
0.228745 0.945127 0.146944
0.332010 0.945231 0.148065
0.473885 0.945454 0.150434
0.640463 0.945853 0.154567
0.810593 0.946437 0.160412
0.950279 0.947061 0.167091
0.998432 0.947239 0.177269
0.160898 0.996455 0.159576
0.181311 0.996469 0.159708
0.236935 0.996517 0.160155
0.337140 0.996641 0.161306
0.476906 0.996904 0.163726
0.642173 0.997368 0.167907
0.811512 0.998034 0.173728
0.950775 0.998740 0.179679
0.999019 0.999019 0.181980
0.104708 0.082609 0.176399
0.134418 0.082614 0.176402
0.205016 0.082642 0.176404
0.318011 0.082871 0.176452
0.465908 0.083996 0.176868
0.635646 0.088078 0.178656
0.806707 0.098584 0.183770
0.945965 0.113525 0.191832
0.993924 0.120284 0.195727
0.104713 0.113470 0.176406
0.134423 0.113473 0.176409
0.205025 0.113489 0.176411
0.318027 0.113644 0.176463
0.465932 0.114455 0.176888
0.635681 0.117503 0.178690
0.806750 0.125644 0.183833
0.946015 0.137706 0.191917
0.993977 0.143317 0.195820
0.104736 0.186264 0.176417
0.134435 0.186267 0.176419
0.205042 0.186271 0.176423
0.318072 0.186329 0.176493
0.466008 0.186744 0.176952
0.635791 0.188470 0.178814
0.806888 0.193400 0.184078
0.946177 0.201117 0.192253
0.994147 0.204848 0.196188
0.104997 0.302013 0.176524
0.134612 0.302022 0.176522
0.205107 0.302040 0.176522
0.318126 0.302065 0.176592
0.466110 0.302230 0.177217
0.635948 0.303088 0.179371
0.807072 0.305803 0.185184
0.946395 0.310239 0.193789
0.994376 0.312445 0.197877
0.106439 0.452997 0.177290
0.135689 0.453011 0.177275
0.205695 0.453044 0.177266
0.318373 0.453092 0.177385
0.466313 0.453185 0.177720
0.636279 0.453519 0.180450
0.807475 0.454923 0.187578
0.946871 0.457402 0.197103
0.994878 0.458672 0.201516
0.111576 0.626264 0.180262
0.139675 0.626284 0.180216
0.208097 0.626334 0.180168
0.319642 0.626403 0.180386
0.466870 0.626544 0.180823
0.636801 0.626766 0.181768
0.808297 0.627295 0.190841
0.947724 0.628652 0.202899
0.995776 0.629374 0.207867
0.124622 0.801511 0.188323
0.150127 0.801543 0.188197
0.214747 0.801617 0.188028
0.323454 0.801708 0.188391
0.468897 0.801896 0.189133
0.637731 0.802213 0.190343
0.809354 0.802600 0.193375
0.948961 0.803132 0.211007
0.997078 0.803523 0.216729
0.148299 0.945064 0.204184
0.169947 0.945111 0.203944
0.228218 0.945215 0.203643
0.331698 0.945315 0.204422
0.473724 0.945531 0.206079
0.640399 0.945917 0.209004
0.810591 0.946484 0.213209
0.950312 0.947092 0.218101
0.998472 0.947266 0.225801
0.161264 0.996454 0.213432
0.181284 0.996498 0.213242
0.236336 0.996614 0.212903
0.336776 0.996734 0.213741
0.476711 0.996989 0.215512
0.642089 0.997440 0.218601
0.811497 0.998089 0.222967
0.950798 0.998779 0.227505
0.999052 0.999052 0.229279
0.104745 0.082676 0.293193
0.134431 0.082691 0.293198
0.204999 0.082742 0.293213
0.318025 0.082924 0.293233
0.465931 0.084109 0.293314
0.635684 0.088275 0.294046
0.806743 0.098983 0.296564
0.946006 0.114030 0.300896
0.993967 0.120820 0.303079
0.104763 0.113509 0.293208
0.134446 0.113519 0.293215
0.205012 0.113554 0.293228
0.318040 0.113681 0.293248
0.465955 0.114539 0.293333
0.635719 0.117652 0.294074
0.806786 0.125959 0.296608
0.946057 0.138122 0.300955
0.994021 0.143766 0.303142
0.104832 0.186268 0.293232
0.134494 0.186274 0.293245
0.205046 0.186288 0.293275
0.318086 0.186343 0.293289
0.466035 0.186781 0.293392
0.635837 0.188539 0.294161
0.806936 0.193564 0.296756
0.946234 0.201346 0.301153
0.994207 0.205100 0.303360
0.105033 0.302025 0.293294
0.134638 0.302033 0.293301
0.205107 0.302053 0.293319
0.318146 0.302073 0.293335
0.466202 0.302205 0.293488
0.636114 0.303000 0.294340
0.807302 0.305638 0.297119
0.946673 0.309992 0.301666
0.994671 0.312167 0.303929
0.106529 0.453014 0.293590
0.135758 0.453028 0.293590
0.205694 0.453070 0.293585
0.318321 0.453145 0.293568
0.466347 0.453209 0.293703
0.636401 0.453508 0.294888
0.807677 0.454864 0.298419
0.947125 0.457291 0.303577
0.995150 0.458541 0.306070
0.111803 0.626281 0.295077
0.139853 0.626301 0.295059
0.208109 0.626368 0.294997
0.319456 0.626497 0.294887
0.466821 0.626617 0.295106
0.636846 0.626804 0.295570
0.808466 0.627299 0.300114
0.947934 0.628630 0.306969
0.996007 0.629338 0.309866
0.125263 0.801512 0.299539
0.150650 0.801544 0.299476
0.214859 0.801649 0.299260
0.322999 0.801858 0.298879
0.468686 0.802029 0.299271
0.637682 0.802315 0.299907
0.809418 0.802659 0.301585
0.949109 0.803170 0.311819
0.997251 0.803551 0.315284
0.149667 0.945028 0.308941
0.171119 0.945076 0.308806
0.228592 0.945234 0.308352
0.330847 0.945538 0.307620
0.473283 0.945734 0.308605
0.640222 0.946087 0.310362
0.810581 0.946609 0.312931
0.950398 0.947175 0.315971
0.998582 0.947336 0.320973
0.161663 0.996497 0.314130
0.181757 0.996531 0.314081
0.236706 0.996643 0.313911
0.335778 0.996983 0.313070
0.476178 0.997218 0.314172
0.641856 0.997633 0.316116
0.811453 0.998236 0.318909
0.950858 0.998882 0.321869
0.999140 0.999140 0.323042
0.105013 0.083053 0.445092
0.134608 0.083090 0.445099
0.205036 0.083216 0.445123
0.317952 0.083535 0.445185
0.465983 0.084351 0.445275
0.635770 0.088684 0.445348
0.806822 0.099862 0.446277
0.946099 0.115143 0.448347
0.994065 0.122002 0.449465
0.105058 0.113767 0.445115
0.134642 0.113792 0.445127
0.205062 0.113884 0.445150
0.317973 0.114118 0.445210
0.466005 0.114717 0.445297
0.635803 0.117963 0.445375
0.806864 0.126656 0.446314
0.946149 0.139043 0.448393
0.994117 0.144758 0.449514
0.105237 0.186378 0.445157
0.134772 0.186390 0.445180
0.205141 0.186430 0.445240
0.318042 0.186556 0.445292
0.466080 0.186878 0.445369
0.635918 0.188719 0.445465
0.807012 0.193999 0.446440
0.946324 0.201954 0.448551
0.994302 0.205770 0.449684
0.105703 0.302022 0.445265
0.135128 0.302033 0.445285
0.205338 0.302065 0.445348
0.318164 0.302116 0.445469
0.466239 0.302239 0.445518
0.636196 0.303075 0.445663
0.807392 0.305849 0.446740
0.946782 0.310304 0.448937
0.994787 0.312516 0.450104
0.106734 0.453053 0.445479
0.135914 0.453065 0.445491
0.205782 0.453102 0.445526
0.318332 0.453176 0.445594
0.466387 0.453229 0.445639
0.636638 0.453452 0.445890
0.808163 0.454646 0.447151
0.947674 0.457008 0.449606
0.995739 0.458212 0.450851
0.112331 0.626320 0.446083
0.140269 0.626340 0.446086
0.208360 0.626403 0.446091
0.319507 0.626548 0.446082
0.466691 0.626750 0.446012
0.636922 0.626865 0.446194
0.808803 0.627281 0.448007
0.948387 0.628556 0.451467
0.996507 0.629233 0.452981
0.126754 0.801514 0.448443
0.151871 0.801546 0.448422
0.215646 0.801650 0.448346
0.323232 0.801901 0.448126
0.468217 0.802291 0.447703
0.637560 0.802512 0.447995
0.809537 0.802765 0.448834
0.949422 0.803238 0.454155
0.997620 0.803596 0.456052
0.151974 0.945011 0.453730
0.173308 0.945042 0.453715
0.230381 0.945171 0.453588
0.331501 0.945552 0.453036
0.472329 0.946144 0.452179
0.639828 0.946429 0.453144
0.810544 0.946860 0.454585
0.950568 0.947339 0.456314
0.998824 0.947480 0.459180
0.162544 0.996594 0.456392
0.182531 0.996627 0.456373
0.237274 0.996738 0.456303
0.336461 0.997016 0.456100
0.475020 0.997684 0.455084
0.641342 0.998028 0.456213
0.811342 0.998536 0.457867
0.950973 0.999092 0.459659
0.999318 0.999318 0.460381
0.106136 0.084511 0.618985
0.135431 0.084587 0.618996
0.205429 0.084842 0.619032
0.317977 0.085490 0.619125
0.465765 0.086798 0.619317
0.635927 0.089316 0.619570
0.807050 0.100916 0.619445
0.946267 0.117135 0.620083
0.994241 0.124115 0.620550
0.106226 0.114825 0.619019
0.135499 0.114875 0.619036
0.205477 0.115067 0.619072
0.318012 0.115552 0.619164
0.465796 0.116536 0.619352
0.635958 0.118442 0.619600
0.807094 0.127475 0.619482
0.946316 0.140694 0.620126
0.994293 0.146537 0.620595
0.106595 0.186937 0.619081
0.135773 0.186959 0.619116
0.205633 0.187041 0.619209
0.318129 0.187321 0.619295
0.465898 0.187890 0.619472
0.636065 0.188998 0.619704
0.807250 0.194469 0.619611
0.946488 0.203051 0.620273
0.994474 0.206978 0.620750
0.107567 0.302217 0.619242
0.136531 0.302234 0.619275
0.206084 0.302287 0.619384
0.318376 0.302395 0.619616
0.466131 0.302672 0.619762
0.636320 0.303211 0.619952
0.807647 0.306045 0.619925
0.946937 0.310940 0.620645
0.994951 0.313229 0.621145
0.109598 0.453012 0.619567
0.138121 0.453028 0.619594
0.207052 0.453079 0.619684
0.318857 0.453185 0.619897
0.466428 0.453304 0.620228
0.636722 0.453499 0.620335
0.808394 0.454718 0.620449
0.947839 0.457325 0.621320
0.995917 0.458575 0.621869
0.113384 0.626393 0.620081
0.141098 0.626411 0.620099
0.208862 0.626470 0.620156
0.319747 0.626604 0.620285
0.466735 0.626799 0.620470
0.636983 0.626903 0.620561
0.809290 0.627177 0.620864
0.949156 0.628333 0.622078
0.997362 0.628954 0.622720
0.129702 0.801524 0.621095
0.154296 0.801555 0.621103
0.217222 0.801660 0.621125
0.324072 0.801909 0.621160
0.468457 0.802337 0.621144
0.637322 0.802762 0.620957
0.809679 0.802889 0.621258
0.950019 0.803272 0.623243
0.998239 0.803613 0.624343
0.153474 0.945177 0.623692
0.174609 0.945207 0.623695
0.231532 0.945308 0.623706
0.332891 0.945560 0.623716
0.472977 0.946169 0.623465
0.639120 0.946939 0.622913
0.810429 0.947230 0.623619
0.950810 0.947570 0.624489
0.999211 0.947687 0.625862
0.164126 0.996769 0.625183
0.183924 0.996801 0.625184
0.238298 0.996909 0.625184
0.337108 0.997178 0.625169
0.475740 0.997732 0.625020
0.640421 0.998634 0.624305
0.811102 0.998996 0.625196
0.951125 0.999409 0.626192
0.999581 0.999581 0.626601
0.109230 0.088392 0.794550
0.137799 0.088521 0.794564
0.206762 0.088955 0.794612
0.318468 0.090059 0.794734
0.465651 0.092313 0.794987
0.635423 0.095997 0.795419
0.807470 0.101499 0.795902
0.946513 0.119992 0.795367
0.994499 0.127146 0.795413
0.109385 0.117726 0.794594
0.137915 0.117813 0.794618
0.206842 0.118145 0.794665
0.318523 0.118991 0.794786
0.465695 0.120728 0.795037
0.635463 0.123593 0.795465
0.807512 0.127931 0.795943
0.946560 0.143076 0.795411
0.994550 0.149102 0.795458
0.110028 0.188596 0.794671
0.138398 0.188633 0.794721
0.207109 0.188773 0.794850
0.318709 0.189281 0.794967
0.465843 0.190327 0.795211
0.635601 0.192068 0.795625
0.807657 0.194737 0.796087
0.946727 0.204644 0.795563
0.994727 0.208732 0.795617
0.111744 0.302993 0.794871
0.139759 0.303018 0.794920
0.207943 0.303098 0.795081
0.319138 0.303284 0.795435
0.466198 0.303838 0.795657
0.635942 0.304759 0.796033
0.808025 0.306169 0.796448
0.947164 0.311868 0.795955
0.995191 0.314270 0.796025
0.115443 0.453230 0.795270
0.142712 0.453252 0.795316
0.209808 0.453323 0.795467
0.320132 0.453477 0.795841
0.466739 0.453687 0.796499
0.636521 0.454119 0.796789
0.808695 0.454766 0.797104
0.948039 0.457835 0.796712
0.996132 0.459159 0.796818
0.122328 0.626219 0.795900
0.148266 0.626243 0.795940
0.213342 0.626321 0.796072
0.322022 0.626502 0.796396
0.467579 0.626782 0.796989
0.637036 0.626988 0.797685
0.809453 0.627192 0.797833
0.949498 0.628417 0.797760
0.997562 0.629237 0.797897
0.132231 0.801681 0.796890
0.156502 0.801704 0.796913
0.218920 0.801780 0.796988
0.325346 0.801966 0.797170
0.469078 0.802365 0.797559
0.637458 0.802793 0.797970
0.809757 0.802945 0.798107
0.950660 0.803187 0.798374
0.999100 0.803451 0.798652
0.155644 0.945420 0.798011
0.176496 0.945449 0.798028
0.232890 0.945544 0.798086
0.333731 0.945783 0.798223
0.473905 0.946247 0.798460
0.639499 0.947003 0.798649
0.810167 0.947609 0.798576
0.951032 0.947778 0.798877
0.999630 0.947858 0.799370
0.166415 0.997026 0.798786
0.185943 0.997056 0.798801
0.239788 0.997159 0.798851
0.338053 0.997416 0.798969
0.476381 0.997921 0.799167
0.640872 0.998726 0.799293
0.810663 0.999505 0.799111
0.951228 0.999742 0.799540
0.999845 0.999845 0.799722
0.114575 0.094927 0.938796
0.142000 0.095112 0.938811
0.209296 0.095738 0.938862
0.319652 0.097337 0.938993
0.465899 0.100637 0.939269
0.634972 0.106151 0.939750
0.806554 0.113474 0.940426
0.946977 0.121446 0.941018
0.994779 0.130352 0.940605
0.114801 0.122748 0.938846
0.142169 0.122874 0.938874
0.209412 0.123365 0.938925
0.319730 0.124623 0.939055
0.465957 0.127237 0.939331
0.635024 0.131658 0.939810
0.806605 0.137623 0.940484
0.947032 0.144230 0.941072
0.994828 0.151831 0.940653
0.115759 0.191613 0.938921
0.142897 0.191663 0.938984
0.209809 0.191868 0.939148
0.319998 0.192649 0.939277
0.466159 0.194282 0.939549
0.635201 0.197080 0.940022
0.806783 0.200922 0.940685
0.947224 0.205267 0.941262
0.995000 0.210614 0.940819
0.118347 0.304564 0.939111
0.144987 0.304598 0.939175
0.211118 0.304707 0.939389
0.320643 0.304978 0.939863
0.466656 0.305880 0.940125
0.635650 0.307428 0.940578
0.807240 0.309560 0.941209
0.947720 0.311987 0.941755
0.995452 0.315393 0.941254
0.123940 0.453906 0.939521
0.149584 0.453936 0.939570
0.214156 0.454032 0.939756
0.322311 0.454236 0.940298
0.467492 0.454542 0.941296
0.636458 0.455335 0.941696
0.808106 0.456408 0.942245
0.948688 0.457613 0.942714
0.996480 0.459585 0.942217
0.133151 0.626320 0.940385
0.157246 0.626346 0.940428
0.219364 0.626434 0.940573
0.325504 0.626645 0.940939
0.469110 0.627013 0.941877
0.637315 0.627322 0.943310
0.809188 0.627773 0.943690
0.949867 0.628404 0.943880
0.997990 0.629279 0.943590
0.145505 0.801433 0.941639
0.167732 0.801459 0.941674
0.226642 0.801546 0.941792
0.329892 0.801760 0.942088
0.471739 0.802160 0.942673
0.638438 0.802719 0.943751
0.809808 0.803020 0.944677
0.950779 0.803240 0.944775
0.999282 0.803527 0.944704
0.157960 0.945683 0.942967
0.178515 0.945710 0.942994
0.234350 0.945800 0.943083
0.334638 0.946025 0.943305
0.474421 0.946458 0.943735
0.640001 0.947079 0.944348
0.810265 0.947674 0.944929
0.951121 0.947851 0.945095
0.999921 0.947887 0.945136
0.168857 0.997303 0.943320
0.188104 0.997332 0.943345
0.241391 0.997430 0.943428
0.339073 0.997673 0.943636
0.476976 0.998150 0.944033
0.641334 0.998857 0.944590
0.810808 0.999599 0.945072
0.951189 0.999954 0.945175
0.999986 0.999986 0.945215
0.117561 0.098516 0.992305
0.144384 0.098727 0.992320
0.210781 0.099437 0.992369
0.320400 0.101257 0.992495
0.466139 0.105028 0.992765
0.634838 0.111380 0.993240
0.806109 0.119931 0.993919
0.946394 0.128369 0.994636
0.994919 0.131559 0.994919
0.117820 0.125562 0.992357
0.144579 0.125707 0.992386
0.210915 0.126271 0.992435
0.320489 0.127720 0.992562
0.466205 0.130745 0.992831
0.634894 0.135907 0.993305
0.806165 0.142976 0.993982
0.946453 0.150070 0.994697
0.994979 0.152780 0.994979
0.118908 0.193346 0.992433
0.145423 0.193411 0.992493
0.211375 0.193645 0.992671
0.320796 0.194558 0.992797
0.466432 0.196480 0.993065
0.635091 0.199807 0.993536
0.806359 0.204456 0.994207
0.946659 0.209222 0.994913
0.995192 0.211068 0.995192
0.121760 0.305479 0.992666
0.147762 0.305524 0.992721
0.212912 0.305670 0.992905
0.321548 0.305983 0.993424
0.466999 0.307059 0.993687
0.635590 0.308931 0.994147
0.806861 0.311561 0.994799
0.947195 0.314274 0.995479
0.995745 0.315329 0.995745
0.127780 0.454331 0.993176
0.152735 0.454364 0.993228
0.216243 0.454472 0.993403
0.323549 0.454731 0.993848
0.467979 0.455084 0.994982
0.636507 0.456065 0.995407
0.807826 0.457426 0.996000
0.948252 0.458808 0.996609
0.996822 0.459380 0.996822
0.137932 0.626459 0.994090
0.161260 0.626487 0.994137
0.222079 0.626582 0.994295
0.327057 0.626810 0.994695
0.470014 0.627220 0.995540
0.637535 0.627572 0.997323
0.809072 0.628188 0.997762
0.949581 0.628947 0.998049
0.998172 0.629263 0.998172
0.151470 0.801384 0.995417
0.172865 0.801411 0.995456
0.230262 0.801503 0.995589
0.332074 0.801729 0.995924
0.472916 0.802155 0.996596
0.639038 0.802742 0.997786
0.809882 0.803110 0.999115
0.950664 0.803425 0.999271
0.999343 0.803562 0.999343
0.164726 0.945528 0.996836
0.184452 0.945556 0.996868
0.238687 0.945649 0.996974
0.337355 0.945883 0.997240
0.475974 0.946336 0.997765
0.640798 0.946991 0.998557
0.810567 0.947632 0.999443
0.951130 0.947866 0.999910
0.999937 0.947899 0.999937
0.169899 0.997423 0.997423
0.189028 0.997451 0.997451
0.242078 0.997546 0.997546
0.339512 0.997784 0.997784
0.477233 0.998249 0.998249
0.641472 0.998934 0.998934
0.810892 0.999634 0.999634
0.951196 0.999970 0.999970
1.000000 1.000000 1.000000
