app/src/main/assets/luts/mono_soft_bw.cube
# V-Cam procedural LUT — mono_soft_bw
# Generated by LutBaker. Do not edit by hand.
TITLE "V-Cam mono_soft_bw"
LUT_3D_SIZE 5
DOMAIN_MIN 0.0 0.0 0.0
DOMAIN_MAX 1.0 1.0 1.0
0.224282 0.224282 0.224282
0.258152 0.224432 0.224432
0.443880 0.239527 0.239527
0.645445 0.406870 0.406870
0.611034 0.610041 0.610041
0.224576 0.258277 0.224576
0.258405 0.258405 0.224724
0.445342 0.269779 0.242143
0.648899 0.420711 0.413109
0.617461 0.616495 0.616482
0.251842 0.451167 0.251842
0.279599 0.451841 0.252980
0.457841 0.457841 0.262871
0.680158 0.530300 0.466938
0.673782 0.673043 0.672920
0.482759 0.727171 0.482759
0.492199 0.728560 0.484453
0.572618 0.741129 0.499541
0.777329 0.777329 0.544480
0.824251 0.823991 0.823634
0.796804 0.797778 0.796804
0.798983 0.799936 0.798969
0.819008 0.819779 0.818880
0.881468 0.881769 0.881055
0.936097 0.936097 0.935516
0.224339 0.224339 0.258072
0.258202 0.224489 0.258202
0.444176 0.240032 0.267888
0.646118 0.408091 0.415805
0.612289 0.611299 0.611313
0.224633 0.258326 0.258326
0.258454 0.258454 0.258454
0.447058 0.269113 0.269113
0.653555 0.418874 0.418874
0.626129 0.614520 0.614520
0.252319 0.451411 0.278993
0.277972 0.452894 0.277972
0.458280 0.458280 0.286121
0.683793 0.529636 0.470735
0.680720 0.671816 0.670463
0.484618 0.727224 0.492303
0.487662 0.731172 0.487662
0.570056 0.743322 0.502136
0.778217 0.778217 0.545629
0.827488 0.824350 0.820111
0.797819 0.798470 0.797828
0.793584 0.805076 0.793584
0.814923 0.824208 0.813513
0.880726 0.884348 0.875833
0.937469 0.937469 0.930523
0.230347 0.230347 0.439015
0.260583 0.231815 0.439811
0.446931 0.244563 0.446931
0.652401 0.419367 0.490434
0.623932 0.622967 0.623105
0.233211 0.261824 0.440562
0.262648 0.262648 0.443214
0.449502 0.272702 0.449502
0.659589 0.429552 0.494605
0.637266 0.625948 0.627443
0.256829 0.453676 0.453676
0.281605 0.454917 0.454917
0.460191 0.460191 0.460191
0.718868 0.518863 0.518863
0.739926 0.658589 0.658589
0.502681 0.727782 0.569860
0.504819 0.731701 0.567943
0.545023 0.761249 0.545023
0.785003 0.785003 0.575261
0.856004 0.826680 0.794388
0.805525 0.806165 0.805616
0.803430 0.811061 0.804434
0.775849 0.861025 0.775849
0.873137 0.906234 0.836743
0.949108 0.949108 0.891513
0.306717 0.306717 0.604993
0.321952 0.310861 0.607353
0.437932 0.346277 0.628595
0.689474 0.434645 0.689474
0.661227 0.660339 0.660853
0.314873 0.325815 0.609316
0.328039 0.328039 0.617477
0.443842 0.360606 0.637740
0.695912 0.443226 0.695912
0.673030 0.662594 0.668602
0.381674 0.464708 0.644712
0.390479 0.467072 0.651620
0.481514 0.481514 0.706834
0.743762 0.525690 0.743762
0.764879 0.688434 0.728987
0.554847 0.735972 0.735972
0.557345 0.738810 0.738810
0.583279 0.763757 0.763757
0.792970 0.792970 0.792970
0.934664 0.819007 0.819007
0.830732 0.831341 0.831085
0.828405 0.835661 0.832575
0.812595 0.872175 0.843749
0.839580 0.956423 0.839580
0.974451 0.974451 0.868144
0.425104 0.425104 0.426898
0.430342 0.430317 0.432092
0.476226 0.475993 0.477623
0.600968 0.600178 0.601543
0.694754 0.693523 0.694754
0.435294 0.435315 0.436826
0.438173 0.438173 0.458527
0.484689 0.482172 0.501034
0.611777 0.602528 0.618548
0.707854 0.693320 0.707854
0.519337 0.519513 0.520566
0.520869 0.522779 0.535267
0.543945 0.543945 0.668848
0.693351 0.631193 0.746117
0.807280 0.698582 0.807280
0.720133 0.720582 0.720908
0.718889 0.724188 0.728097
0.715293 0.753541 0.787549
0.800913 0.800913 0.935052
0.947519 0.824355 0.947519
0.853939 0.854521 0.854521
0.851401 0.858348 0.858348
0.833268 0.890723 0.890723
0.853878 0.961538 0.961538
0.982207 0.982207 0.982207
