app/src/main/assets/luts/mono_soft_bw.cube
# V-Cam procedural LUT — mono_soft_bw
# Generated by LutBaker. Do not edit by hand.
TITLE "V-Cam mono_soft_bw"
LUT_3D_SIZE 33
DOMAIN_MIN 0.0 0.0 0.0
DOMAIN_MAX 1.0 1.0 1.0
0.224282 0.224282 0.224282
0.225129 0.224282 0.224282
0.226195 0.224282 0.224282
0.227919 0.224283 0.224283
0.230582 0.224286 0.224286
0.234525 0.224294 0.224294
0.240149 0.224312 0.224312
0.247886 0.224351 0.224351
0.258152 0.224432 0.224432
0.271295 0.224592 0.224592
0.287543 0.224892 0.224892
0.306973 0.225429 0.225429
0.329500 0.226353 0.226353
0.354884 0.227880 0.227880
0.382749 0.230309 0.230309
0.412609 0.234031 0.234031
0.443880 0.239527 0.239527
0.475892 0.247353 0.247353
0.507887 0.258105 0.258105
0.539001 0.272372 0.272372
0.568245 0.290692 0.290692
0.594459 0.313509 0.313509
0.616266 0.341143 0.341143
0.632309 0.373503 0.373503
0.645445 0.406870 0.406870
0.653031 0.442196 0.442196
0.654822 0.478286 0.478286
0.651012 0.513676 0.513676
0.642452 0.546626 0.546626
0.630939 0.575092 0.575092
0.619436 0.596695 0.596695
0.611953 0.608657 0.608657
0.611034 0.610041 0.610041
0.224282 0.225129 0.224282
0.225129 0.225129 0.224282
0.226196 0.225129 0.224282
0.227920 0.225130 0.224284
0.230583 0.225133 0.224287
0.234527 0.225140 0.224296
0.240152 0.225157 0.224315
0.247890 0.225195 0.224356
0.258158 0.225274 0.224439
0.271303 0.225431 0.224602
0.287553 0.225727 0.224905
0.306986 0.226258 0.225447
0.329517 0.227174 0.226377
0.354904 0.228689 0.227911
0.382774 0.231101 0.230349
0.412638 0.234801 0.234081
0.443914 0.240267 0.239588
0.475931 0.248056 0.247425
0.507931 0.258761 0.258188
0.539052 0.272976 0.272466
0.568302 0.291237 0.290797
0.594522 0.313994 0.313624
0.616337 0.341567 0.341267
0.632380 0.373875 0.373643
0.645525 0.407193 0.407014
0.653119 0.442476 0.442343
0.654920 0.478529 0.478434
0.651120 0.513889 0.513825
0.642572 0.546814 0.546775
0.631070 0.575261 0.575241
0.619577 0.596852 0.596844
0.612101 0.608807 0.608806
0.611182 0.610190 0.610189
0.224282 0.226196 0.224282
0.225129 0.226196 0.224283
0.226196 0.226196 0.224283
0.227921 0.226197 0.224285
0.230585 0.226199 0.224289
0.234529 0.226205 0.224298
0.240155 0.226221 0.224319
0.247895 0.226258 0.224361
0.258166 0.226335 0.224448
0.271313 0.226488 0.224614
0.287567 0.226779 0.224922
0.307003 0.227303 0.225470
0.329538 0.228208 0.226408
0.354930 0.229708 0.227951
0.382805 0.232100 0.230400
0.412674 0.235771 0.234144
0.443956 0.241201 0.239665
0.475980 0.248942 0.247516
0.507987 0.259590 0.258294
0.539116 0.273738 0.272586
0.568374 0.291927 0.290930
0.594603 0.314606 0.313770
0.616427 0.342102 0.341425
0.632471 0.374346 0.373820
0.645625 0.407602 0.407196
0.653230 0.442831 0.442529
0.655044 0.478837 0.478622
0.651257 0.514158 0.514014
0.642724 0.547052 0.546964
0.631237 0.575475 0.575430
0.619756 0.597049 0.597032
0.612287 0.608996 0.608994
0.611369 0.610378 0.610377
0.224285 0.227921 0.224285
0.225131 0.227921 0.224285
0.226197 0.227922 0.224285
0.227922 0.227922 0.224286
0.230587 0.227924 0.224291
0.234533 0.227929 0.224302
0.240161 0.227943 0.224325
0.247904 0.227977 0.224371
0.258178 0.228051 0.224461
0.271329 0.228199 0.224634
0.287588 0.228481 0.224950
0.307031 0.228993 0.225508
0.329572 0.229881 0.226458
0.354972 0.231358 0.228017
0.382855 0.233717 0.230483
0.412734 0.237343 0.234247
0.444026 0.242712 0.239790
0.476061 0.250378 0.247664
0.508079 0.260934 0.258466
0.539219 0.274975 0.272781
0.568491 0.293045 0.291147
0.594734 0.315601 0.314007
0.616573 0.342973 0.341682
0.632618 0.375111 0.374108
0.645789 0.408266 0.407493
0.653412 0.443407 0.442832
0.655245 0.479338 0.478928
0.651481 0.514596 0.514322
0.642971 0.547439 0.547272
0.631507 0.575824 0.575737
0.620047 0.597371 0.597339
0.612591 0.609304 0.609299
0.611675 0.610684 0.610683
0.224291 0.230586 0.224291
0.225136 0.230587 0.224291
0.226202 0.230588 0.224292
0.227926 0.230589 0.224293
0.230591 0.230591 0.224295
0.234539 0.230594 0.224308
0.240170 0.230606 0.224335
0.247917 0.230636 0.224386
0.258196 0.230704 0.224483
0.271355 0.230843 0.224665
0.287622 0.231113 0.224993
0.307074 0.231608 0.225567
0.329626 0.232470 0.226536
0.355038 0.233911 0.228118
0.382934 0.236219 0.230612
0.412827 0.239776 0.234408
0.444134 0.245054 0.239985
0.476186 0.252604 0.247896
0.508222 0.263018 0.258734
0.539382 0.276895 0.273085
0.568674 0.294784 0.291485
0.594939 0.317148 0.314377
0.616802 0.344328 0.342081
0.632848 0.376302 0.374557
0.646044 0.409302 0.407956
0.653695 0.444306 0.443304
0.655560 0.480119 0.479406
0.651830 0.515280 0.514802
0.643357 0.548044 0.547753
0.631930 0.576368 0.576217
0.620502 0.597874 0.597817
0.613065 0.609785 0.609777
0.612151 0.611163 0.611160
0.224306 0.234536 0.224306
0.225150 0.234537 0.224307
0.226215 0.234538 0.224308
0.227937 0.234540 0.224310
0.230599 0.234543 0.224313
0.234548 0.234548 0.224318
0.240184 0.234555 0.224349
0.247937 0.234580 0.224408
0.258225 0.234639 0.224516
0.271394 0.234766 0.224711
0.287673 0.235019 0.225058
0.307139 0.235487 0.225655
0.329707 0.236313 0.226653
0.355137 0.237700 0.228271
0.383052 0.239934 0.230806
0.412967 0.243391 0.234649
0.444297 0.248537 0.240278
0.476374 0.255917 0.248243
0.508437 0.266125 0.259136
0.539626 0.279760 0.273541
0.568949 0.297381 0.291992
0.595248 0.319463 0.314932
0.617147 0.346358 0.342683
0.633195 0.378090 0.375233
0.646429 0.410857 0.408653
0.654122 0.445656 0.444014
0.656034 0.481293 0.480125
0.652356 0.516308 0.515525
0.643938 0.548954 0.548476
0.632566 0.577188 0.576939
0.621186 0.598630 0.598538
0.613778 0.610509 0.610496
0.612868 0.611883 0.611879
0.224341 0.240176 0.224341
0.225184 0.240177 0.224342
0.226247 0.240179 0.224344
0.227965 0.240182 0.224347
0.230623 0.240187 0.224352
0.234566 0.240194 0.224360
0.240204 0.240204 0.224371
0.247967 0.240220 0.224440
0.258266 0.240268 0.224563
0.271450 0.240378 0.224779
0.287747 0.240605 0.225152
0.307234 0.241038 0.225784
0.329825 0.241812 0.226825
0.355281 0.243126 0.228494
0.383225 0.245258 0.231090
0.413171 0.248575 0.235001
0.444536 0.253536 0.240705
0.476649 0.260680 0.248750
0.508752 0.270598 0.259723
0.539983 0.283894 0.274206
0.569352 0.301136 0.292732
0.595700 0.322816 0.315742
0.617652 0.349303 0.343558
0.633702 0.380687 0.376219
0.646991 0.413119 0.409669
0.654746 0.447622 0.445052
0.656726 0.483006 0.481174
0.653124 0.517807 0.516580
0.644787 0.550282 0.549533
0.633495 0.578384 0.577994
0.622185 0.599735 0.599589
0.614820 0.611565 0.611545
0.613915 0.612934 0.612928
0.224417 0.247946 0.224417
0.225259 0.247948 0.224420
0.226318 0.247951 0.224423
0.228033 0.247955 0.224427
0.230684 0.247962 0.224435
0.234617 0.247972 0.224446
0.240241 0.247987 0.224463
0.248008 0.248008 0.224486
0.258325 0.248040 0.224631
0.271529 0.248128 0.224876
0.287852 0.248322 0.225287
0.307368 0.248707 0.225967
0.329993 0.249412 0.227068
0.355486 0.250629 0.228810
0.383471 0.252626 0.231491
0.413461 0.255758 0.235500
0.444874 0.260472 0.241310
0.477040 0.267300 0.249467
0.509199 0.276829 0.260553
0.540491 0.289667 0.275147
0.569924 0.306395 0.293778
0.596342 0.327524 0.316888
0.618370 0.353450 0.344799
0.634423 0.384351 0.377619
0.647790 0.416317 0.411113
0.655633 0.450406 0.446524
0.657711 0.485432 0.482664
0.654216 0.519934 0.518079
0.645993 0.552166 0.551033
0.634816 0.580082 0.579492
0.623604 0.601304 0.601083
0.616300 0.613067 0.613036
0.615402 0.614428 0.614419
0.224576 0.258277 0.224576
0.225414 0.258280 0.224579
0.226470 0.258284 0.224584
0.228178 0.258290 0.224591
0.230819 0.258299 0.224602
0.234737 0.258314 0.224618
0.240341 0.258335 0.224642
0.248081 0.258364 0.224676
0.258405 0.258405 0.224724
0.271640 0.258464 0.225009
0.287997 0.258617 0.225472
0.307554 0.258941 0.226219
0.330225 0.259560 0.227403
0.355769 0.260654 0.229246
0.383811 0.262479 0.232045
0.413863 0.265376 0.236187
0.445342 0.269779 0.242143
0.477580 0.276203 0.250454
0.509818 0.285233 0.261696
0.541194 0.297478 0.276443
0.570718 0.313535 0.295219
0.597234 0.333939 0.318466
0.619367 0.359119 0.346507
0.635472 0.389336 0.379511
0.648899 0.420711 0.413109
0.656863 0.454239 0.448561
0.659075 0.488779 0.484725
0.655729 0.522872 0.520152
0.647664 0.554771 0.553110
0.636645 0.582431 0.581565
0.625570 0.603475 0.603151
0.618348 0.615145 0.615100
0.617461 0.616495 0.616482
0.224887 0.271539 0.224887
0.225720 0.271543 0.224891
0.226770 0.271548 0.224898
0.228468 0.271556 0.224908
0.231095 0.271569 0.224923
0.234991 0.271588 0.224946
0.240566 0.271617 0.224981
0.248267 0.271657 0.225029
0.258541 0.271713 0.225097
0.271788 0.271788 0.225188
0.288192 0.271890 0.225722
0.307805 0.272141 0.226558
0.330538 0.272656 0.227854
0.356151 0.273602 0.229831
0.384269 0.275220 0.232788
0.414404 0.277834 0.237109
0.445974 0.281857 0.243261
0.478310 0.287792 0.251778
0.510654 0.296208 0.263229
0.542145 0.307720 0.278180
0.571792 0.322937 0.297151
0.598441 0.342425 0.320582
0.620718 0.366649 0.348800
0.636982 0.395914 0.381976
0.650400 0.426589 0.415800
0.658527 0.459380 0.451307
0.660922 0.493277 0.487506
0.657775 0.526826 0.522950
0.649923 0.558282 0.555912
0.639116 0.585599 0.584364
0.628224 0.606405 0.605943
0.621115 0.617950 0.617886
0.620240 0.619287 0.619268
0.225466 0.287992 0.225466
0.226292 0.287998 0.225473
0.227333 0.288004 0.225481
0.229018 0.288015 0.225495
0.231623 0.288032 0.225516
0.235489 0.288057 0.225549
0.241020 0.288094 0.225596
0.248664 0.288147 0.225663
0.258865 0.288220 0.225757
0.272024 0.288319 0.225883
0.288449 0.288449 0.226049
0.308134 0.288617 0.227003
0.330948 0.289011 0.228445
0.356653 0.289787 0.230599
0.384871 0.291167 0.233762
0.415116 0.293455 0.238316
0.446806 0.297040 0.244723
0.479272 0.302404 0.253508
0.511757 0.310102 0.265230
0.543400 0.320745 0.280448
0.573212 0.334956 0.299674
0.600038 0.353329 0.323347
0.622508 0.376376 0.351798
0.638986 0.404451 0.385203
0.652386 0.434247 0.419341
0.660728 0.466100 0.454924
0.663362 0.499173 0.491170
0.660478 0.532020 0.526638
0.652906 0.562901 0.559606
0.642377 0.589773 0.588054
0.631725 0.610268 0.609624
0.624762 0.621650 0.621561
0.623905 0.622968 0.622941
0.226498 0.307761 0.226498
0.227314 0.307768 0.226507
0.228342 0.307777 0.226518
0.230007 0.307790 0.226537
0.232581 0.307812 0.226566
0.236402 0.307844 0.226609
0.241871 0.307891 0.226673
0.249432 0.307958 0.226764
0.259528 0.308051 0.226890
0.272560 0.308176 0.227059
0.288838 0.308342 0.227283
0.308556 0.308556 0.227573
0.331476 0.308817 0.229201
0.357297 0.309406 0.231579
0.385645 0.310525 0.235004
0.416032 0.312452 0.239855
0.447877 0.315553 0.246584
0.480512 0.320281 0.255709
0.513180 0.327173 0.267776
0.545021 0.336830 0.283331
0.575047 0.349883 0.302883
0.602105 0.366955 0.326867
0.624829 0.388604 0.355618
0.641587 0.415243 0.389319
0.654958 0.443971 0.423896
0.663577 0.474669 0.459578
0.666518 0.506715 0.495886
0.663972 0.538683 0.531387
0.656758 0.568838 0.564366
0.646585 0.595144 0.592810
0.636241 0.615244 0.614369
0.629465 0.626418 0.626297
0.628630 0.627712 0.627676
0.228255 0.330821 0.228255
0.229057 0.330829 0.228267
0.230067 0.330839 0.228282
0.231703 0.330856 0.228306
0.234233 0.330883 0.228344
0.237990 0.330922 0.228402
0.243370 0.330981 0.228485
0.250813 0.331063 0.228604
0.260759 0.331178 0.228769
0.273610 0.331333 0.228992
0.289680 0.331537 0.229286
0.309165 0.331802 0.229665
0.332136 0.332136 0.230144
0.358105 0.332526 0.232800
0.386615 0.333368 0.236550
0.417181 0.334913 0.241766
0.449223 0.337499 0.248895
0.482072 0.341548 0.258439
0.514973 0.347571 0.270931
0.547068 0.356152 0.286905
0.577369 0.367923 0.306861
0.604726 0.383532 0.331234
0.627777 0.403578 0.360364
0.644898 0.428542 0.394443
0.658220 0.456016 0.429626
0.667188 0.485334 0.465436
0.670516 0.516142 0.501826
0.668393 0.547036 0.537371
0.661629 0.576300 0.570367
0.651901 0.601908 0.598807
0.641940 0.621516 0.620354
0.635397 0.632432 0.632271
0.634590 0.633697 0.633649
0.231121 0.357008 0.231121
0.231902 0.357018 0.231136
0.232888 0.357031 0.231155
0.234483 0.357051 0.231186
0.236951 0.357083 0.231235
0.240619 0.357131 0.231308
0.245874 0.357201 0.231415
0.253151 0.357301 0.231566
0.262888 0.357439 0.231777
0.275485 0.357626 0.232061
0.291261 0.357872 0.232435
0.310423 0.358191 0.232919
0.333048 0.358594 0.233528
0.359093 0.359093 0.234282
0.387805 0.359651 0.238423
0.418592 0.360806 0.244081
0.450876 0.362863 0.251689
0.483992 0.366211 0.261735
0.517185 0.371328 0.274738
0.549598 0.378776 0.291217
0.580246 0.389179 0.311664
0.607982 0.403196 0.336514
0.631448 0.421469 0.366113
0.649032 0.444540 0.400663
0.662276 0.470584 0.436682
0.671674 0.498306 0.472654
0.675478 0.527660 0.509150
0.673876 0.557281 0.544755
0.667662 0.585477 0.577774
0.658478 0.610244 0.606213
0.648985 0.629259 0.627746
0.642726 0.639861 0.639651
0.641953 0.641090 0.641027
0.235594 0.386048 0.235594
0.236349 0.386060 0.235613
0.237300 0.386075 0.235637
0.238840 0.386099 0.235675
0.241225 0.386137 0.235736
0.244770 0.386193 0.235826
0.249856 0.386276 0.235959
0.256906 0.386394 0.236147
0.266355 0.386557 0.236407
0.278604 0.386777 0.236759
0.293979 0.387068 0.237223
0.312695 0.387445 0.237821
0.334845 0.387921 0.238576
0.360401 0.388510 0.239507
0.389227 0.389227 0.240634
0.420282 0.389994 0.246807
0.452862 0.391523 0.254974
0.486303 0.394168 0.265608
0.519854 0.398371 0.279208
0.552659 0.404662 0.296281
0.583737 0.413647 0.317309
0.611944 0.425987 0.342729
0.635929 0.442354 0.372896
0.654093 0.463349 0.408023
0.667229 0.487805 0.445193
0.677146 0.513734 0.481369
0.681523 0.541430 0.518001
0.680545 0.569581 0.553684
0.674991 0.596533 0.586736
0.666458 0.620310 0.615176
0.657522 0.638623 0.636695
0.651600 0.648853 0.648586
0.650868 0.650040 0.649960
0.242280 0.417577 0.242280
0.242999 0.417591 0.242303
0.243905 0.417608 0.242331
0.245373 0.417636 0.242378
0.247648 0.417680 0.242450
0.251032 0.417745 0.242559
0.255894 0.417841 0.242718
0.262646 0.417978 0.242944
0.271714 0.418167 0.243258
0.283500 0.418423 0.243680
0.298337 0.418761 0.244237
0.316456 0.419197 0.244955
0.337969 0.419750 0.245860
0.362866 0.420434 0.246977
0.391030 0.421265 0.248326
0.422256 0.422256 0.249924
0.455187 0.423273 0.258726
0.489018 0.425231 0.270025
0.523000 0.428534 0.284304
0.556282 0.433673 0.302055
0.587884 0.441226 0.323754
0.616667 0.451846 0.349842
0.641292 0.466219 0.380683
0.660173 0.484996 0.416504
0.673165 0.507726 0.455259
0.683696 0.531694 0.491686
0.688749 0.557550 0.528487
0.688507 0.584047 0.564271
0.683727 0.609584 0.597368
0.675954 0.632227 0.625814
0.667667 0.649729 0.647318
0.662137 0.659528 0.659194
0.661453 0.660666 0.660566
0.251842 0.451167 0.251842
0.252516 0.451183 0.251868
0.253366 0.451202 0.251902
0.254744 0.451234 0.251956
0.256880 0.451284 0.252040
0.260063 0.451359 0.252167
0.264642 0.451469 0.252352
0.271015 0.451625 0.252616
0.279599 0.451841 0.252980
0.290792 0.452133 0.253472
0.304937 0.452519 0.254120
0.322281 0.453018 0.254955
0.342961 0.453650 0.256007
0.366994 0.454432 0.257304
0.394287 0.455383 0.258871
0.424656 0.456516 0.260724
0.457841 0.457841 0.262871
0.492129 0.459144 0.274900
0.526621 0.461579 0.289928
0.560469 0.465595 0.308432
0.592700 0.471736 0.330888
0.622181 0.480629 0.357739
0.647582 0.492964 0.389365
0.667337 0.509424 0.426006
0.680158 0.530300 0.466938
0.691401 0.552179 0.503668
0.697235 0.576044 0.540677
0.697840 0.600726 0.576588
0.693948 0.624690 0.609745
0.687044 0.646062 0.638203
0.679498 0.662650 0.659691
0.674414 0.671961 0.671550
0.673782 0.673043 0.672920
0.264931 0.486340 0.264931
0.265552 0.486358 0.264961
0.266335 0.486380 0.264998
0.267606 0.486416 0.265059
0.269578 0.486472 0.265154
0.272519 0.486557 0.265297
0.276760 0.486681 0.265506
0.282676 0.486857 0.265803
0.290671 0.487100 0.266214
0.301139 0.487430 0.266768
0.314428 0.487866 0.267498
0.330807 0.488429 0.268439
0.350439 0.489141 0.269624
0.373374 0.490024 0.271084
0.399553 0.491098 0.272846
0.428819 0.492378 0.274930
0.460934 0.493875 0.277343
0.495594 0.495594 0.280081
0.530677 0.497209 0.295905
0.565188 0.500154 0.315222
0.598161 0.504926 0.338505
0.628471 0.512120 0.366211
0.654800 0.522411 0.398732
0.675604 0.536501 0.436326
0.689090 0.555011 0.478989
0.700307 0.575091 0.517330
0.707025 0.596851 0.554589
0.708585 0.619587 0.590655
0.705691 0.641846 0.623889
0.699761 0.661824 0.652365
0.693041 0.677403 0.673837
0.688452 0.686172 0.685677
0.687880 0.687193 0.687044
0.282102 0.522578 0.282102
0.282663 0.522598 0.282134
0.283372 0.522623 0.282175
0.284522 0.522663 0.282242
0.286309 0.522725 0.282346
0.288978 0.522820 0.282502
0.292833 0.522958 0.282731
0.298228 0.523154 0.283055
0.305545 0.523426 0.283504
0.315168 0.523794 0.284110
0.327450 0.524280 0.284908
0.342677 0.524908 0.285936
0.361044 0.525703 0.287231
0.382639 0.526689 0.288826
0.407440 0.527888 0.290752
0.435329 0.529318 0.293028
0.466097 0.530992 0.295663
0.499464 0.532915 0.298652
0.535083 0.535083 0.301971
0.570358 0.537024 0.322133
0.604192 0.540494 0.346297
0.635471 0.546044 0.374935
0.662891 0.554321 0.408458
0.684933 0.566028 0.447140
0.699848 0.581829 0.490979
0.710426 0.600242 0.532631
0.718125 0.619825 0.570184
0.720740 0.640520 0.606435
0.718944 0.660967 0.639762
0.714081 0.679452 0.668260
0.708262 0.693940 0.689717
0.704213 0.702122 0.701535
0.703706 0.703075 0.702899
0.303752 0.559323 0.303752
0.304250 0.559344 0.303786
0.304879 0.559372 0.303830
0.305901 0.559416 0.303901
0.307491 0.559485 0.304011
0.309868 0.559590 0.304178
0.313310 0.559742 0.304421
0.318141 0.559959 0.304766
0.324717 0.560259 0.305243
0.333407 0.560665 0.305888
0.344561 0.561202 0.306737
0.358480 0.561897 0.307831
0.375387 0.562776 0.309208
0.395409 0.563866 0.310907
0.418573 0.565192 0.312957
0.444801 0.566775 0.315380
0.473925 0.568630 0.318188
0.505696 0.570763 0.321374
0.539794 0.573169 0.324913
0.575833 0.575833 0.328763
0.610649 0.578089 0.353833
0.643043 0.582077 0.383461
0.671726 0.588403 0.418083
0.695207 0.597753 0.457987
0.711782 0.610815 0.503171
0.721730 0.627359 0.549471
0.730494 0.644733 0.587361
0.734250 0.663329 0.623825
0.733637 0.681892 0.657260
0.729918 0.698807 0.685785
0.725063 0.712141 0.707222
0.721589 0.719698 0.719014
0.721150 0.720579 0.720374
0.330103 0.595967 0.330103
0.330538 0.595991 0.330139
0.331087 0.596021 0.330184
0.331980 0.596069 0.330258
0.333369 0.596145 0.330373
0.335451 0.596259 0.330546
0.338471 0.596426 0.330799
0.342720 0.596664 0.331158
0.348527 0.596993 0.331655
0.356237 0.597438 0.332326
0.366189 0.598026 0.333210
0.378691 0.598787 0.334349
0.393989 0.599750 0.335785
0.412248 0.600946 0.337555
0.433540 0.602402 0.339694
0.457839 0.604140 0.342224
0.485023 0.606179 0.345158
0.514885 0.608525 0.348491
0.547137 0.611176 0.352199
0.581423 0.614116 0.356239
0.617314 0.617314 0.360544
0.650967 0.619847 0.391196
0.681087 0.624317 0.426999
0.706209 0.631375 0.468256
0.724677 0.641715 0.514957
0.734689 0.655928 0.566570
0.744038 0.671257 0.605955
0.749002 0.687737 0.642658
0.749637 0.704377 0.676210
0.747120 0.719674 0.704761
0.743272 0.731811 0.726171
0.740398 0.738716 0.737932
0.740030 0.739523 0.739288
0.361233 0.631847 0.361233
0.361606 0.631873 0.361269
0.362078 0.631905 0.361316
0.362846 0.631958 0.361391
0.364042 0.632040 0.361509
0.365836 0.632164 0.361687
0.368443 0.632346 0.361946
0.372121 0.632604 0.362314
0.377164 0.632962 0.362824
0.383889 0.633446 0.363512
0.392618 0.634086 0.364420
0.403653 0.634914 0.365590
0.417254 0.635962 0.367065
0.433617 0.637264 0.368885
0.452858 0.638851 0.371087
0.474999 0.640746 0.373695
0.499973 0.642971 0.376725
0.527621 0.645535 0.380172
0.557701 0.648437 0.384016
0.589889 0.651660 0.388214
0.623790 0.655174 0.392702
0.658931 0.658931 0.397395
0.690657 0.661672 0.434443
0.717617 0.666546 0.477179
0.738204 0.674232 0.525577
0.750694 0.685361 0.579044
0.758609 0.699003 0.625740
0.764829 0.713385 0.662698
0.766752 0.728099 0.696372
0.765468 0.741762 0.724942
0.762650 0.752680 0.746314
0.760387 0.758919 0.758033
0.760093 0.759650 0.759384
0.397124 0.666226 0.397124
0.397441 0.666254 0.397162
0.397841 0.666289 0.397209
0.398492 0.666346 0.397286
0.399507 0.666435 0.397406
0.401030 0.666569 0.397587
0.403248 0.666765 0.397851
0.406384 0.667044 0.398226
0.410696 0.667431 0.398745
0.416469 0.667954 0.399447
0.423999 0.668646 0.400372
0.433574 0.669541 0.401565
0.445456 0.670676 0.403072
0.459861 0.672086 0.404933
0.476937 0.673804 0.407187
0.496755 0.675859 0.409863
0.519299 0.678274 0.412977
0.544465 0.681060 0.416529
0.572061 0.684218 0.420502
0.601812 0.687733 0.424857
0.633359 0.691573 0.429533
0.666266 0.695690 0.434446
0.700018 0.700018 0.439494
0.729002 0.702861 0.483833
0.751913 0.708014 0.534115
0.767109 0.716130 0.589673
0.774016 0.727503 0.646426
0.781521 0.739842 0.683645
0.784751 0.752663 0.717436
0.784709 0.764708 0.746010
0.782920 0.774422 0.767331
0.781264 0.780007 0.779019
0.781042 0.780662 0.780366
0.437696 0.698293 0.437696
0.437961 0.698323 0.437734
0.438295 0.698360 0.437782
0.438840 0.698422 0.437861
0.439689 0.698517 0.437983
0.440966 0.698662 0.438167
0.442826 0.698873 0.438436
0.445462 0.699172 0.438818
0.449095 0.699588 0.439348
0.453975 0.700151 0.440063
0.460367 0.700896 0.441008
0.468536 0.701860 0.442227
0.478736 0.703082 0.443767
0.491187 0.704601 0.445674
0.506061 0.706454 0.447986
0.523464 0.708672 0.450737
0.543428 0.711281 0.453946
0.565902 0.714295 0.457619
0.590749 0.717717 0.461743
0.617747 0.721533 0.466283
0.646588 0.725712 0.471184
0.676880 0.730204 0.476365
0.708148 0.734942 0.481728
0.739837 0.739837 0.487153
0.765254 0.742641 0.539529
0.783363 0.747887 0.597444
0.792486 0.756119 0.659727
0.798820 0.766617 0.705139
0.803357 0.777629 0.739029
0.804545 0.788133 0.767589
0.803766 0.796695 0.788884
0.802704 0.801650 0.800560
0.802552 0.802233 0.801906
0.482759 0.727171 0.482759
0.482977 0.727203 0.482798
0.483253 0.727244 0.482847
0.483703 0.727309 0.482927
0.484404 0.727412 0.483053
0.485460 0.727567 0.483242
0.486999 0.727793 0.483517
0.489183 0.728114 0.483910
0.492199 0.728560 0.484453
0.496262 0.729164 0.485188
0.501601 0.729963 0.486159
0.508455 0.730997 0.487413
0.517057 0.732309 0.488999
0.527621 0.733941 0.490966
0.540326 0.735932 0.493356
0.555302 0.738319 0.496206
0.572618 0.741129 0.499541
0.592269 0.744380 0.503371
0.614172 0.748076 0.507689
0.638161 0.752205 0.512467
0.663984 0.756738 0.517654
0.691303 0.761626 0.523176
0.719695 0.766798 0.528938
0.748653 0.772164 0.534820
0.777329 0.777329 0.544480
0.797851 0.779857 0.607942
0.810541 0.785183 0.670767
0.816420 0.793233 0.726758
0.822241 0.802571 0.760720
0.824628 0.811636 0.789288
0.824827 0.819116 0.810597
0.824335 0.823476 0.822286
0.824251 0.823991 0.823634
0.531879 0.751968 0.531879
0.532056 0.752002 0.531919
0.532281 0.752045 0.531970
0.532647 0.752115 0.532053
0.533219 0.752225 0.532183
0.534079 0.752391 0.532378
0.535335 0.752633 0.532664
0.537118 0.752977 0.533070
0.539585 0.753454 0.533634
0.542915 0.754101 0.534395
0.547303 0.754957 0.535402
0.552956 0.756065 0.536705
0.560080 0.757472 0.538355
0.568872 0.759222 0.540403
0.579508 0.761360 0.542897
0.592126 0.763926 0.545878
0.606817 0.766950 0.549377
0.623611 0.770454 0.553410
0.642472 0.774446 0.557977
0.663287 0.778918 0.563055
0.685860 0.783841 0.568600
0.709915 0.789168 0.574544
0.735472 0.794218 0.584432
0.761254 0.799518 0.595949
0.786613 0.805179 0.607989
0.811094 0.811094 0.620303
0.827004 0.814069 0.682620
0.835595 0.819501 0.741083
0.841023 0.827029 0.782056
0.844560 0.834772 0.810681
0.845689 0.841252 0.832046
0.845738 0.845061 0.843773
0.845717 0.845512 0.845125
0.584134 0.771874 0.584134
0.584276 0.771911 0.584176
0.584457 0.771957 0.584229
0.584751 0.772033 0.584316
0.585209 0.772150 0.584451
0.585901 0.772328 0.584655
0.586910 0.772587 0.584953
0.588345 0.772957 0.585378
0.590333 0.773469 0.585966
0.593019 0.774163 0.586762
0.596567 0.775081 0.587816
0.601149 0.776272 0.589180
0.606943 0.777783 0.590909
0.614122 0.779665 0.593059
0.622846 0.781967 0.595682
0.633249 0.784731 0.598825
0.645431 0.787994 0.602523
0.659446 0.791782 0.606799
0.675288 0.796106 0.611660
0.693446 0.800562 0.618465
0.713542 0.805156 0.627472
0.734660 0.810282 0.637377
0.756428 0.815913 0.648091
0.778448 0.821997 0.659478
