app/src/main/assets/luts/mono_noir.cube
# V-Cam procedural LUT — mono_noir
# Generated by LutBaker. Do not edit by hand.
TITLE "V-Cam mono_noir"
LUT_3D_SIZE 5
DOMAIN_MIN 0.0 0.0 0.0
DOMAIN_MAX 1.0 1.0 1.0
0.000000 0.000000 0.000000
0.000000 0.000000 0.000000
0.000000 0.000000 0.000000
0.005294 0.005294 0.005294
0.063225 0.063225 0.063225
0.000000 0.000000 0.000000
0.003163 0.003163 0.003163
0.061094 0.061094 0.061094
0.119025 0.119025 0.119025
0.176956 0.176956 0.176956
0.058963 0.058963 0.058963
0.116894 0.116894 0.116894
0.174825 0.174825 0.174825
0.389986 0.389986 0.389986
0.725987 0.725987 0.725987
0.172694 0.172694 0.172694
0.377625 0.377625 0.377625
0.713626 0.713626 0.713626
0.831136 0.831136 0.831136
0.894861 0.894861 0.894861
0.701265 0.701265 0.701265
0.828792 0.828792 0.828792
0.892516 0.892516 0.892516
0.956241 0.956241 0.956241
1.000000 1.000000 1.000000
0.000000 0.000000 0.000000
0.000000 0.000000 0.000000
0.000000 0.000000 0.000000
0.027381 0.027381 0.027381
0.085312 0.085312 0.085312
0.000000 0.000000 0.000000
0.025250 0.025250 0.025250
0.083181 0.083181 0.083181
0.141113 0.141113 0.141113
0.199044 0.199044 0.199044
0.081050 0.081050 0.081050
0.138981 0.138981 0.138981
0.196913 0.196913 0.196913
0.518094 0.518094 0.518094
0.794052 0.794052 0.794052
0.194781 0.194781 0.194781
0.505732 0.505732 0.505732
0.791708 0.791708 0.791708
0.855432 0.855432 0.855432
0.919157 0.919157 0.919157
0.789364 0.789364 0.789364
0.853088 0.853088 0.853088
0.916812 0.916812 0.916812
0.980537 0.980537 0.980537
1.000000 1.000000 1.000000
0.000000 0.000000 0.000000
0.000000 0.000000 0.000000
0.000000 0.000000 0.000000
0.049469 0.049469 0.049469
0.107400 0.107400 0.107400
0.000000 0.000000 0.000000
0.047338 0.047338 0.047338
0.105269 0.105269 0.105269
0.163200 0.163200 0.163200
0.322561 0.322561 0.322561
0.103138 0.103138 0.103138
0.161069 0.161069 0.161069
0.310200 0.310200 0.310200
0.646201 0.646201 0.646201
0.818349 0.818349 0.818349
0.297839 0.297839 0.297839
0.633840 0.633840 0.633840
0.816004 0.816004 0.816004
0.879729 0.879729 0.879729
0.943453 0.943453 0.943453
0.813660 0.813660 0.813660
0.877384 0.877384 0.877384
0.941109 0.941109 0.941109
1.000000 1.000000 1.000000
1.000000 1.000000 1.000000
0.000000 0.000000 0.000000
0.000000 0.000000 0.000000
0.013625 0.013625 0.013625
0.071556 0.071556 0.071556
0.129487 0.129487 0.129487
0.011494 0.011494 0.011494
0.069425 0.069425 0.069425
0.127356 0.127356 0.127356
0.185288 0.185288 0.185288
0.450669 0.450669 0.450669
0.125225 0.125225 0.125225
0.183156 0.183156 0.183156
0.438308 0.438308 0.438308
0.774309 0.774309 0.774309
0.842645 0.842645 0.842645
0.425946 0.425946 0.425946
0.761947 0.761947 0.761947
0.840301 0.840301 0.840301
0.904025 0.904025 0.904025
0.967749 0.967749 0.967749
0.837956 0.837956 0.837956
0.901681 0.901681 0.901681
0.965405 0.965405 0.965405
1.000000 1.000000 1.000000
1.000000 1.000000 1.000000
0.000000 0.000000 0.000000
0.000000 0.000000 0.000000
0.035712 0.035712 0.035712
0.093644 0.093644 0.093644
0.151575 0.151575 0.151575
0.033581 0.033581 0.033581
0.091513 0.091513 0.091513
0.149444 0.149444 0.149444
0.242775 0.242775 0.242775
0.578776 0.578776 0.578776
0.147312 0.147312 0.147312
0.230414 0.230414 0.230414
0.566415 0.566415 0.566415
0.803217 0.803217 0.803217
0.866941 0.866941 0.866941
0.554054 0.554054 0.554054
0.800872 0.800872 0.800872
0.864597 0.864597 0.864597
0.928321 0.928321 0.928321
0.992046 0.992046 0.992046
0.862252 0.862252 0.862252
0.925977 0.925977 0.925977
0.989701 0.989701 0.989701
1.000000 1.000000 1.000000
1.000000 1.000000 1.000000
