app/src/main/assets/luts/mono_high_contrast_bw.cube
# V-Cam procedural LUT — mono_high_contrast_bw
# Generated by LutBaker. Do not edit by hand.
TITLE "V-Cam mono_high_contrast_bw"
LUT_3D_SIZE 33
DOMAIN_MIN 0.0 0.0 0.0
DOMAIN_MAX 1.0 1.0 1.0
0.000000 0.000000 0.000000
0.000000 0.000000 0.000000
0.000000 0.000000 0.000000
0.000000 0.000000 0.000000
0.000000 0.000000 0.000000
0.000000 0.000000 0.000000
0.000000 0.000000 0.000000
0.000000 0.000000 0.000000
0.000000 0.000000 0.000000
0.000000 0.000000 0.000000
0.000000 0.000000 0.000000
0.000000 0.000000 0.000000
0.000000 0.000000 0.000000
0.000000 0.000000 0.000000
0.000000 0.000000 0.000000
0.000000 0.000000 0.000000
0.003720 0.003720 0.003720
0.008953 0.008953 0.008953
0.014185 0.014185 0.014185
0.019418 0.019418 0.019418
0.024650 0.024650 0.024650
0.029882 0.029882 0.029882
0.035115 0.035115 0.035115
0.040347 0.040347 0.040347
0.045580 0.045580 0.045580
0.050812 0.050812 0.050812
0.056045 0.056045 0.056045
0.061277 0.061277 0.061277
0.066510 0.066510 0.066510
0.071742 0.071742 0.071742
0.076975 0.076975 0.076975
0.082208 0.082208 0.082208
0.087440 0.087440 0.087440
0.000000 0.000000 0.000000
0.000000 0.000000 0.000000
0.000000 0.000000 0.000000
0.000000 0.000000 0.000000
0.000000 0.000000 0.000000
0.000000 0.000000 0.000000
0.000000 0.000000 0.000000
0.000000 0.000000 0.000000
0.000000 0.000000 0.000000
0.000000 0.000000 0.000000
0.000000 0.000000 0.000000
0.000000 0.000000 0.000000
0.000000 0.000000 0.000000
0.000000 0.000000 0.000000
0.003528 0.003528 0.003528
0.008760 0.008760 0.008760
0.013993 0.013993 0.013993
0.019225 0.019225 0.019225
0.024457 0.024457 0.024457
0.029690 0.029690 0.029690
0.034922 0.034922 0.034922
0.040155 0.040155 0.040155
0.045388 0.045388 0.045388
0.050620 0.050620 0.050620
0.055853 0.055853 0.055853
0.061085 0.061085 0.061085
0.066318 0.066318 0.066318
0.071550 0.071550 0.071550
0.076782 0.076782 0.076782
0.082015 0.082015 0.082015
0.087247 0.087247 0.087247
0.092480 0.092480 0.092480
0.097713 0.097713 0.097713
0.000000 0.000000 0.000000
0.000000 0.000000 0.000000
0.000000 0.000000 0.000000
0.000000 0.000000 0.000000
0.000000 0.000000 0.000000
0.000000 0.000000 0.000000
0.000000 0.000000 0.000000
0.000000 0.000000 0.000000
0.000000 0.000000 0.000000
0.000000 0.000000 0.000000
0.000000 0.000000 0.000000
0.000000 0.000000 0.000000
0.003335 0.003335 0.003335
0.008567 0.008567 0.008567
0.013800 0.013800 0.013800
0.019032 0.019032 0.019032
0.024265 0.024265 0.024265
0.029497 0.029497 0.029497
0.034730 0.034730 0.034730
0.039963 0.039963 0.039963
0.045195 0.045195 0.045195
0.050427 0.050427 0.050427
0.055660 0.055660 0.055660
0.060892 0.060892 0.060892
0.066125 0.066125 0.066125
0.071357 0.071357 0.071357
0.076590 0.076590 0.076590
0.081822 0.081822 0.081822
0.087055 0.087055 0.087055
0.092287 0.092287 0.092287
0.097520 0.097520 0.097520
0.111010 0.111010 0.111010
0.131940 0.131940 0.131940
0.000000 0.000000 0.000000
0.000000 0.000000 0.000000
0.000000 0.000000 0.000000
0.000000 0.000000 0.000000
0.000000 0.000000 0.000000
0.000000 0.000000 0.000000
0.000000 0.000000 0.000000
0.000000 0.000000 0.000000
0.000000 0.000000 0.000000
0.000000 0.000000 0.000000
0.003143 0.003143 0.003143
0.008375 0.008375 0.008375
0.013608 0.013608 0.013608
0.018840 0.018840 0.018840
0.024073 0.024073 0.024073
0.029305 0.029305 0.029305
0.034538 0.034538 0.034538
0.039770 0.039770 0.039770
0.045003 0.045003 0.045003
0.050235 0.050235 0.050235
0.055468 0.055468 0.055468
0.060700 0.060700 0.060700
0.065933 0.065933 0.065933
0.071165 0.071165 0.071165
0.076398 0.076398 0.076398
0.081630 0.081630 0.081630
0.086863 0.086863 0.086863
0.092095 0.092095 0.092095
0.097328 0.097328 0.097328
0.110240 0.110240 0.110240
0.131170 0.131170 0.131170
0.152100 0.152100 0.152100
0.173030 0.173030 0.173030
0.000000 0.000000 0.000000
0.000000 0.000000 0.000000
0.000000 0.000000 0.000000
0.000000 0.000000 0.000000
0.000000 0.000000 0.000000
0.000000 0.000000 0.000000
0.000000 0.000000 0.000000
0.000000 0.000000 0.000000
0.002950 0.002950 0.002950
0.008183 0.008183 0.008183
0.013415 0.013415 0.013415
0.018648 0.018648 0.018648
0.023880 0.023880 0.023880
0.029113 0.029113 0.029113
0.034345 0.034345 0.034345
0.039578 0.039578 0.039578
0.044810 0.044810 0.044810
0.050043 0.050043 0.050043
0.055275 0.055275 0.055275
0.060508 0.060508 0.060508
0.065740 0.065740 0.065740
0.070973 0.070973 0.070973
0.076205 0.076205 0.076205
0.081437 0.081437 0.081437
0.086670 0.086670 0.086670
0.091902 0.091902 0.091902
0.097135 0.097135 0.097135
0.109470 0.109470 0.109470
0.130400 0.130400 0.130400
0.151330 0.151330 0.151330
0.172260 0.172260 0.172260
0.193190 0.193190 0.193190
0.214120 0.214120 0.214120
0.000000 0.000000 0.000000
0.000000 0.000000 0.000000
0.000000 0.000000 0.000000
0.000000 0.000000 0.000000
0.000000 0.000000 0.000000
0.000000 0.000000 0.000000
0.002758 0.002758 0.002758
0.007990 0.007990 0.007990
0.013223 0.013223 0.013223
0.018455 0.018455 0.018455
0.023688 0.023688 0.023688
0.028920 0.028920 0.028920
0.034153 0.034153 0.034153
0.039385 0.039385 0.039385
0.044618 0.044618 0.044618
0.049850 0.049850 0.049850
0.055082 0.055082 0.055082
0.060315 0.060315 0.060315
0.065547 0.065547 0.065547
0.070780 0.070780 0.070780
0.076012 0.076012 0.076012
0.081245 0.081245 0.081245
0.086478 0.086478 0.086478
0.091710 0.091710 0.091710
0.096943 0.096943 0.096943
0.108700 0.108700 0.108700
0.129630 0.129630 0.129630
0.150560 0.150560 0.150560
0.171490 0.171490 0.171490
0.192420 0.192420 0.192420
0.213350 0.213350 0.213350
0.234280 0.234280 0.234280
0.255210 0.255210 0.255210
0.000000 0.000000 0.000000
0.000000 0.000000 0.000000
0.000000 0.000000 0.000000
0.000000 0.000000 0.000000
0.002565 0.002565 0.002565
0.007798 0.007798 0.007798
0.013030 0.013030 0.013030
0.018263 0.018263 0.018263
0.023495 0.023495 0.023495
0.028728 0.028728 0.028728
0.033960 0.033960 0.033960
0.039193 0.039193 0.039193
0.044425 0.044425 0.044425
0.049658 0.049658 0.049658
0.054890 0.054890 0.054890
0.060123 0.060123 0.060123
0.065355 0.065355 0.065355
0.070588 0.070588 0.070588
0.075820 0.075820 0.075820
0.081053 0.081053 0.081053
0.086285 0.086285 0.086285
0.091518 0.091518 0.091518
0.096750 0.096750 0.096750
0.107930 0.107930 0.107930
0.128860 0.128860 0.128860
0.149790 0.149790 0.149790
0.170720 0.170720 0.170720
0.191650 0.191650 0.191650
0.212580 0.212580 0.212580
0.233510 0.233510 0.233510
0.254440 0.254440 0.254440
0.275370 0.275370 0.275370
0.296300 0.296300 0.296300
0.000000 0.000000 0.000000
0.000000 0.000000 0.000000
0.002373 0.002373 0.002373
0.007605 0.007605 0.007605
0.012838 0.012838 0.012838
0.018070 0.018070 0.018070
0.023303 0.023303 0.023303
0.028535 0.028535 0.028535
0.033768 0.033768 0.033768
0.039000 0.039000 0.039000
0.044233 0.044233 0.044233
0.049465 0.049465 0.049465
0.054698 0.054698 0.054698
0.059930 0.059930 0.059930
0.065163 0.065163 0.065163
0.070395 0.070395 0.070395
0.075628 0.075628 0.075628
0.080860 0.080860 0.080860
0.086093 0.086093 0.086093
0.091325 0.091325 0.091325
0.096557 0.096557 0.096557
0.107160 0.107160 0.107160
0.128090 0.128090 0.128090
0.149020 0.149020 0.149020
0.169950 0.169950 0.169950
0.190880 0.190880 0.190880
0.211810 0.211810 0.211810
0.232740 0.232740 0.232740
0.253670 0.253670 0.253670
0.274600 0.274600 0.274600
0.295530 0.295530 0.295530
0.316460 0.316460 0.316460
0.337390 0.337390 0.337390
0.002180 0.002180 0.002180
0.007413 0.007413 0.007413
0.012645 0.012645 0.012645
0.017878 0.017878 0.017878
0.023110 0.023110 0.023110
0.028343 0.028343 0.028343
0.033575 0.033575 0.033575
0.038808 0.038808 0.038808
0.044040 0.044040 0.044040
0.049273 0.049273 0.049273
0.054505 0.054505 0.054505
0.059738 0.059738 0.059738
0.064970 0.064970 0.064970
0.070203 0.070203 0.070203
0.075435 0.075435 0.075435
0.080668 0.080668 0.080668
0.085900 0.085900 0.085900
0.091133 0.091133 0.091133
0.096365 0.096365 0.096365
0.106390 0.106390 0.106390
0.127320 0.127320 0.127320
0.148250 0.148250 0.148250
0.169180 0.169180 0.169180
0.190110 0.190110 0.190110
0.211040 0.211040 0.211040
0.231970 0.231970 0.231970
0.252900 0.252900 0.252900
0.273830 0.273830 0.273830
0.294760 0.294760 0.294760
0.315690 0.315690 0.315690
0.336620 0.336620 0.336620
0.357550 0.357550 0.357550
0.378480 0.378480 0.378480
0.012453 0.012453 0.012453
0.017685 0.017685 0.017685
0.022917 0.022917 0.022917
0.028150 0.028150 0.028150
0.033383 0.033383 0.033383
0.038615 0.038615 0.038615
0.043848 0.043848 0.043848
0.049080 0.049080 0.049080
0.054313 0.054313 0.054313
0.059545 0.059545 0.059545
0.064778 0.064778 0.064778
0.070010 0.070010 0.070010
0.075242 0.075242 0.075242
0.080475 0.080475 0.080475
0.085708 0.085708 0.085708
0.090940 0.090940 0.090940
0.096173 0.096173 0.096173
0.105620 0.105620 0.105620
0.126550 0.126550 0.126550
0.147480 0.147480 0.147480
0.168410 0.168410 0.168410
0.189340 0.189340 0.189340
0.210270 0.210270 0.210270
0.231200 0.231200 0.231200
0.252130 0.252130 0.252130
0.273060 0.273060 0.273060
0.293990 0.293990 0.293990
0.314920 0.314920 0.314920
0.335850 0.335850 0.335850
0.356780 0.356780 0.356780
0.377710 0.377710 0.377710
0.398640 0.398640 0.398640
0.419570 0.419570 0.419570
0.022725 0.022725 0.022725
0.027958 0.027958 0.027958
0.033190 0.033190 0.033190
0.038423 0.038423 0.038423
0.043655 0.043655 0.043655
0.048888 0.048888 0.048888
0.054120 0.054120 0.054120
0.059353 0.059353 0.059353
0.064585 0.064585 0.064585
0.069818 0.069818 0.069818
0.075050 0.075050 0.075050
0.080283 0.080283 0.080283
0.085515 0.085515 0.085515
0.090747 0.090747 0.090747
0.095980 0.095980 0.095980
0.104850 0.104850 0.104850
0.125780 0.125780 0.125780
0.146710 0.146710 0.146710
0.167640 0.167640 0.167640
0.188570 0.188570 0.188570
0.209500 0.209500 0.209500
0.230430 0.230430 0.230430
0.251360 0.251360 0.251360
0.272290 0.272290 0.272290
0.293220 0.293220 0.293220
0.314150 0.314150 0.314150
0.335080 0.335080 0.335080
0.356010 0.356010 0.356010
0.376940 0.376940 0.376940
0.397870 0.397870 0.397870
0.418800 0.418800 0.418800
0.439730 0.439730 0.439730
0.460660 0.460660 0.460660
0.032998 0.032998 0.032998
0.038230 0.038230 0.038230
0.043463 0.043463 0.043463
0.048695 0.048695 0.048695
0.053928 0.053928 0.053928
0.059160 0.059160 0.059160
0.064392 0.064392 0.064392
0.069625 0.069625 0.069625
0.074857 0.074857 0.074857
0.080090 0.080090 0.080090
0.085322 0.085322 0.085322
0.090555 0.090555 0.090555
0.095788 0.095788 0.095788
0.104080 0.104080 0.104080
0.125010 0.125010 0.125010
0.145940 0.145940 0.145940
0.166870 0.166870 0.166870
0.187800 0.187800 0.187800
0.208730 0.208730 0.208730
0.229660 0.229660 0.229660
0.250590 0.250590 0.250590
0.271520 0.271520 0.271520
0.292450 0.292450 0.292450
0.313380 0.313380 0.313380
0.334310 0.334310 0.334310
0.355240 0.355240 0.355240
0.376170 0.376170 0.376170
0.397100 0.397100 0.397100
0.418030 0.418030 0.418030
0.438960 0.438960 0.438960
0.459890 0.459890 0.459890
0.480820 0.480820 0.480820
0.501750 0.501750 0.501750
0.043270 0.043270 0.043270
0.048503 0.048503 0.048503
0.053735 0.053735 0.053735
0.058968 0.058968 0.058968
0.064200 0.064200 0.064200
0.069432 0.069432 0.069432
0.074665 0.074665 0.074665
0.079898 0.079898 0.079898
0.085130 0.085130 0.085130
0.090362 0.090362 0.090362
0.095595 0.095595 0.095595
0.103310 0.103310 0.103310
0.124240 0.124240 0.124240
0.145170 0.145170 0.145170
0.166100 0.166100 0.166100
0.187030 0.187030 0.187030
0.207960 0.207960 0.207960
0.228890 0.228890 0.228890
0.249820 0.249820 0.249820
0.270750 0.270750 0.270750
0.291680 0.291680 0.291680
0.312610 0.312610 0.312610
0.333540 0.333540 0.333540
0.354470 0.354470 0.354470
0.375400 0.375400 0.375400
0.396330 0.396330 0.396330
0.417260 0.417260 0.417260
0.438190 0.438190 0.438190
0.459120 0.459120 0.459120
0.480050 0.480050 0.480050
0.500980 0.500980 0.500980
0.521910 0.521910 0.521910
0.542840 0.542840 0.542840
0.053543 0.053543 0.053543
0.058775 0.058775 0.058775
0.064008 0.064008 0.064008
0.069240 0.069240 0.069240
0.074473 0.074473 0.074473
0.079705 0.079705 0.079705
0.084938 0.084938 0.084938
0.090170 0.090170 0.090170
0.095403 0.095403 0.095403
0.102540 0.102540 0.102540
0.123470 0.123470 0.123470
0.144400 0.144400 0.144400
0.165330 0.165330 0.165330
0.186260 0.186260 0.186260
0.207190 0.207190 0.207190
0.228120 0.228120 0.228120
0.249050 0.249050 0.249050
0.269980 0.269980 0.269980
0.290910 0.290910 0.290910
0.311840 0.311840 0.311840
0.332770 0.332770 0.332770
0.353700 0.353700 0.353700
0.374630 0.374630 0.374630
0.395560 0.395560 0.395560
0.416490 0.416490 0.416490
0.437420 0.437420 0.437420
0.458350 0.458350 0.458350
0.479280 0.479280 0.479280
0.500210 0.500210 0.500210
0.521140 0.521140 0.521140
0.542070 0.542070 0.542070
0.563000 0.563000 0.563000
0.583930 0.583930 0.583930
0.063815 0.063815 0.063815
0.069048 0.069048 0.069048
0.074280 0.074280 0.074280
0.079513 0.079513 0.079513
0.084745 0.084745 0.084745
0.089978 0.089978 0.089978
0.095210 0.095210 0.095210
0.101770 0.101770 0.101770
0.122700 0.122700 0.122700
0.143630 0.143630 0.143630
0.164560 0.164560 0.164560
0.185490 0.185490 0.185490
0.206420 0.206420 0.206420
0.227350 0.227350 0.227350
0.248280 0.248280 0.248280
0.269210 0.269210 0.269210
0.290140 0.290140 0.290140
0.311070 0.311070 0.311070
0.332000 0.332000 0.332000
0.352930 0.352930 0.352930
0.373860 0.373860 0.373860
0.394790 0.394790 0.394790
0.415720 0.415720 0.415720
0.436650 0.436650 0.436650
0.457580 0.457580 0.457580
0.478510 0.478510 0.478510
0.499440 0.499440 0.499440
0.520370 0.520370 0.520370
0.541300 0.541300 0.541300
0.562230 0.562230 0.562230
0.583160 0.583160 0.583160
0.604090 0.604090 0.604090
0.625020 0.625020 0.625020
0.074088 0.074088 0.074088
0.079320 0.079320 0.079320
0.084553 0.084553 0.084553
0.089785 0.089785 0.089785
0.095018 0.095018 0.095018
0.101000 0.101000 0.101000
0.121930 0.121930 0.121930
0.142860 0.142860 0.142860
0.163790 0.163790 0.163790
0.184720 0.184720 0.184720
0.205650 0.205650 0.205650
0.226580 0.226580 0.226580
0.247510 0.247510 0.247510
0.268440 0.268440 0.268440
0.289370 0.289370 0.289370
0.310300 0.310300 0.310300
0.331230 0.331230 0.331230
0.352160 0.352160 0.352160
0.373090 0.373090 0.373090
0.394020 0.394020 0.394020
0.414950 0.414950 0.414950
0.435880 0.435880 0.435880
0.456810 0.456810 0.456810
0.477740 0.477740 0.477740
0.498670 0.498670 0.498670
0.519600 0.519600 0.519600
0.540530 0.540530 0.540530
0.561460 0.561460 0.561460
0.582390 0.582390 0.582390
0.603320 0.603320 0.603320
0.624250 0.624250 0.624250
0.645180 0.645180 0.645180
0.666110 0.666110 0.666110
0.084360 0.084360 0.084360
0.089593 0.089593 0.089593
0.094825 0.094825 0.094825
0.100230 0.100230 0.100230
0.121160 0.121160 0.121160
0.142090 0.142090 0.142090
0.163020 0.163020 0.163020
0.183950 0.183950 0.183950
0.204880 0.204880 0.204880
0.225810 0.225810 0.225810
0.246740 0.246740 0.246740
0.267670 0.267670 0.267670
0.288600 0.288600 0.288600
0.309530 0.309530 0.309530
0.330460 0.330460 0.330460
0.351390 0.351390 0.351390
0.372320 0.372320 0.372320
0.393250 0.393250 0.393250
0.414180 0.414180 0.414180
0.435110 0.435110 0.435110
0.456040 0.456040 0.456040
0.476970 0.476970 0.476970
0.497900 0.497900 0.497900
0.518830 0.518830 0.518830
0.539760 0.539760 0.539760
0.560690 0.560690 0.560690
0.581620 0.581620 0.581620
0.602550 0.602550 0.602550
0.623480 0.623480 0.623480
0.644410 0.644410 0.644410
0.665340 0.665340 0.665340
0.686270 0.686270 0.686270
0.707200 0.707200 0.707200
0.094633 0.094633 0.094633
0.099865 0.099865 0.099865
0.120390 0.120390 0.120390
0.141320 0.141320 0.141320
0.162250 0.162250 0.162250
0.183180 0.183180 0.183180
0.204110 0.204110 0.204110
0.225040 0.225040 0.225040
0.245970 0.245970 0.245970
0.266900 0.266900 0.266900
0.287830 0.287830 0.287830
0.308760 0.308760 0.308760
0.329690 0.329690 0.329690
0.350620 0.350620 0.350620
0.371550 0.371550 0.371550
0.392480 0.392480 0.392480
0.413410 0.413410 0.413410
0.434340 0.434340 0.434340
0.455270 0.455270 0.455270
0.476200 0.476200 0.476200
0.497130 0.497130 0.497130
0.518060 0.518060 0.518060
0.538990 0.538990 0.538990
0.559920 0.559920 0.559920
0.580850 0.580850 0.580850
0.601780 0.601780 0.601780
0.622710 0.622710 0.622710
0.643640 0.643640 0.643640
0.664570 0.664570 0.664570
0.685500 0.685500 0.685500
0.706430 0.706430 0.706430
0.727360 0.727360 0.727360
0.748290 0.748290 0.748290
0.119620 0.119620 0.119620
0.140550 0.140550 0.140550
0.161480 0.161480 0.161480
0.182410 0.182410 0.182410
0.203340 0.203340 0.203340
0.224270 0.224270 0.224270
0.245200 0.245200 0.245200
0.266130 0.266130 0.266130
0.287060 0.287060 0.287060
0.307990 0.307990 0.307990
0.328920 0.328920 0.328920
0.349850 0.349850 0.349850
0.370780 0.370780 0.370780
0.391710 0.391710 0.391710
0.412640 0.412640 0.412640
0.433570 0.433570 0.433570
0.454500 0.454500 0.454500
0.475430 0.475430 0.475430
0.496360 0.496360 0.496360
0.517290 0.517290 0.517290
0.538220 0.538220 0.538220
0.559150 0.559150 0.559150
0.580080 0.580080 0.580080
0.601010 0.601010 0.601010
0.621940 0.621940 0.621940
0.642870 0.642870 0.642870
0.663800 0.663800 0.663800
0.684730 0.684730 0.684730
0.705660 0.705660 0.705660
0.726590 0.726590 0.726590
0.747520 0.747520 0.747520
0.768450 0.768450 0.768450
0.789380 0.789380 0.789380
0.160710 0.160710 0.160710
0.181640 0.181640 0.181640
0.202570 0.202570 0.202570
0.223500 0.223500 0.223500
0.244430 0.244430 0.244430
0.265360 0.265360 0.265360
0.286290 0.286290 0.286290
0.307220 0.307220 0.307220
0.328150 0.328150 0.328150
0.349080 0.349080 0.349080
0.370010 0.370010 0.370010
0.390940 0.390940 0.390940
0.411870 0.411870 0.411870
0.432800 0.432800 0.432800
0.453730 0.453730 0.453730
0.474660 0.474660 0.474660
0.495590 0.495590 0.495590
0.516520 0.516520 0.516520
0.537450 0.537450 0.537450
0.558380 0.558380 0.558380
0.579310 0.579310 0.579310
0.600240 0.600240 0.600240
0.621170 0.621170 0.621170
0.642100 0.642100 0.642100
0.663030 0.663030 0.663030
0.683960 0.683960 0.683960
0.704890 0.704890 0.704890
0.725820 0.725820 0.725820
0.746750 0.746750 0.746750
0.767680 0.767680 0.767680
0.788610 0.788610 0.788610
0.809540 0.809540 0.809540
0.830470 0.830470 0.830470
0.201800 0.201800 0.201800
0.222730 0.222730 0.222730
0.243660 0.243660 0.243660
0.264590 0.264590 0.264590
0.285520 0.285520 0.285520
0.306450 0.306450 0.306450
0.327380 0.327380 0.327380
0.348310 0.348310 0.348310
0.369240 0.369240 0.369240
0.390170 0.390170 0.390170
0.411100 0.411100 0.411100
0.432030 0.432030 0.432030
0.452960 0.452960 0.452960
0.473890 0.473890 0.473890
0.494820 0.494820 0.494820
0.515750 0.515750 0.515750
0.536680 0.536680 0.536680
0.557610 0.557610 0.557610
0.578540 0.578540 0.578540
0.599470 0.599470 0.599470
0.620400 0.620400 0.620400
0.641330 0.641330 0.641330
0.662260 0.662260 0.662260
0.683190 0.683190 0.683190
0.704120 0.704120 0.704120
0.725050 0.725050 0.725050
0.745980 0.745980 0.745980
0.766910 0.766910 0.766910
0.787840 0.787840 0.787840
0.808770 0.808770 0.808770
0.829700 0.829700 0.829700
0.850630 0.850630 0.850630
0.871560 0.871560 0.871560
0.242890 0.242890 0.242890
0.263820 0.263820 0.263820
0.284750 0.284750 0.284750
0.305680 0.305680 0.305680
0.326610 0.326610 0.326610
0.347540 0.347540 0.347540
0.368470 0.368470 0.368470
0.389400 0.389400 0.389400
0.410330 0.410330 0.410330
0.431260 0.431260 0.431260
0.452190 0.452190 0.452190
0.473120 0.473120 0.473120
0.494050 0.494050 0.494050
0.514980 0.514980 0.514980
0.535910 0.535910 0.535910
0.556840 0.556840 0.556840
0.577770 0.577770 0.577770
0.598700 0.598700 0.598700
0.619630 0.619630 0.619630
0.640560 0.640560 0.640560
0.661490 0.661490 0.661490
0.682420 0.682420 0.682420
0.703350 0.703350 0.703350
0.724280 0.724280 0.724280
0.745210 0.745210 0.745210
0.766140 0.766140 0.766140
0.787070 0.787070 0.787070
0.808000 0.808000 0.808000
0.828930 0.828930 0.828930
0.849860 0.849860 0.849860
0.870790 0.870790 0.870790
0.891720 0.891720 0.891720
0.903162 0.903162 0.903162
0.283980 0.283980 0.283980
0.304910 0.304910 0.304910
0.325840 0.325840 0.325840
0.346770 0.346770 0.346770
0.367700 0.367700 0.367700
0.388630 0.388630 0.388630
0.409560 0.409560 0.409560
0.430490 0.430490 0.430490
0.451420 0.451420 0.451420
0.472350 0.472350 0.472350
0.493280 0.493280 0.493280
0.514210 0.514210 0.514210
0.535140 0.535140 0.535140
0.556070 0.556070 0.556070
0.577000 0.577000 0.577000
0.597930 0.597930 0.597930
0.618860 0.618860 0.618860
0.639790 0.639790 0.639790
0.660720 0.660720 0.660720
0.681650 0.681650 0.681650
0.702580 0.702580 0.702580
0.723510 0.723510 0.723510
0.744440 0.744440 0.744440
0.765370 0.765370 0.765370
0.786300 0.786300 0.786300
0.807230 0.807230 0.807230
0.828160 0.828160 0.828160
0.849090 0.849090 0.849090
0.870020 0.870020 0.870020
0.890950 0.890950 0.890950
0.902970 0.902970 0.902970
0.908202 0.908202 0.908202
0.913435 0.913435 0.913435
0.325070 0.325070 0.325070
0.346000 0.346000 0.346000
0.366930 0.366930 0.366930
0.387860 0.387860 0.387860
0.408790 0.408790 0.408790
0.429720 0.429720 0.429720
0.450650 0.450650 0.450650
0.471580 0.471580 0.471580
0.492510 0.492510 0.492510
0.513440 0.513440 0.513440
0.534370 0.534370 0.534370
0.555300 0.555300 0.555300
0.576230 0.576230 0.576230
0.597160 0.597160 0.597160
0.618090 0.618090 0.618090
0.639020 0.639020 0.639020
0.659950 0.659950 0.659950
0.680880 0.680880 0.680880
0.701810 0.701810 0.701810
0.722740 0.722740 0.722740
0.743670 0.743670 0.743670
0.764600 0.764600 0.764600
0.785530 0.785530 0.785530
0.806460 0.806460 0.806460
0.827390 0.827390 0.827390
0.848320 0.848320 0.848320
0.869250 0.869250 0.869250
0.890180 0.890180 0.890180
0.902777 0.902777 0.902777
0.908010 0.908010 0.908010
0.913242 0.913242 0.913242
0.918475 0.918475 0.918475
0.923707 0.923707 0.923707
0.366160 0.366160 0.366160
0.387090 0.387090 0.387090
0.408020 0.408020 0.408020
0.428950 0.428950 0.428950
0.449880 0.449880 0.449880
0.470810 0.470810 0.470810
0.491740 0.491740 0.491740
0.512670 0.512670 0.512670
0.533600 0.533600 0.533600
0.554530 0.554530 0.554530
0.575460 0.575460 0.575460
0.596390 0.596390 0.596390
0.617320 0.617320 0.617320
0.638250 0.638250 0.638250
0.659180 0.659180 0.659180
0.680110 0.680110 0.680110
0.701040 0.701040 0.701040
0.721970 0.721970 0.721970
0.742900 0.742900 0.742900
0.763830 0.763830 0.763830
0.784760 0.784760 0.784760
0.805690 0.805690 0.805690
0.826620 0.826620 0.826620
0.847550 0.847550 0.847550
0.868480 0.868480 0.868480
0.889410 0.889410 0.889410
0.902585 0.902585 0.902585
0.907817 0.907817 0.907817
0.913050 0.913050 0.913050
0.918283 0.918283 0.918283
0.923515 0.923515 0.923515
0.928747 0.928747 0.928747
0.933980 0.933980 0.933980
0.407250 0.407250 0.407250
0.428180 0.428180 0.428180
0.449110 0.449110 0.449110
0.470040 0.470040 0.470040
0.490970 0.490970 0.490970
0.511900 0.511900 0.511900
0.532830 0.532830 0.532830
0.553760 0.553760 0.553760
0.574690 0.574690 0.574690
0.595620 0.595620 0.595620
0.616550 0.616550 0.616550
0.637480 0.637480 0.637480
0.658410 0.658410 0.658410
0.679340 0.679340 0.679340
0.700270 0.700270 0.700270
0.721200 0.721200 0.721200
0.742130 0.742130 0.742130
0.763060 0.763060 0.763060
0.783990 0.783990 0.783990
0.804920 0.804920 0.804920
0.825850 0.825850 0.825850
0.846780 0.846780 0.846780
0.867710 0.867710 0.867710
0.888640 0.888640 0.888640
0.902393 0.902393 0.902393
0.907625 0.907625 0.907625
0.912858 0.912858 0.912858
0.918090 0.918090 0.918090
0.923322 0.923322 0.923322
0.928555 0.928555 0.928555
0.933787 0.933787 0.933787
0.939020 0.939020 0.939020
0.944252 0.944252 0.944252
0.448340 0.448340 0.448340
0.469270 0.469270 0.469270
0.490200 0.490200 0.490200
0.511130 0.511130 0.511130
0.532060 0.532060 0.532060
0.552990 0.552990 0.552990
0.573920 0.573920 0.573920
0.594850 0.594850 0.594850
0.615780 0.615780 0.615780
0.636710 0.636710 0.636710
0.657640 0.657640 0.657640
0.678570 0.678570 0.678570
0.699500 0.699500 0.699500
0.720430 0.720430 0.720430
0.741360 0.741360 0.741360
0.762290 0.762290 0.762290
0.783220 0.783220 0.783220
0.804150 0.804150 0.804150
0.825080 0.825080 0.825080
0.846010 0.846010 0.846010
0.866940 0.866940 0.866940
0.887870 0.887870 0.887870
0.902200 0.902200 0.902200
