app/src/main/assets/luts/mono_noir.cube
# V-Cam procedural LUT — mono_noir
# Generated by LutBaker. Do not edit by hand.
TITLE "V-Cam mono_noir"
LUT_3D_SIZE 9
DOMAIN_MIN 0.0 0.0 0.0
DOMAIN_MAX 1.0 1.0 1.0
0.000000 0.000000 0.000000
0.000000 0.000000 0.000000
0.000000 0.000000 0.000000
0.000000 0.000000 0.000000
0.000000 0.000000 0.000000
0.000000 0.000000 0.000000
0.005294 0.005294 0.005294
0.034259 0.034259 0.034259
0.063225 0.063225 0.063225
0.000000 0.000000 0.000000
0.000000 0.000000 0.000000
0.000000 0.000000 0.000000
0.000000 0.000000 0.000000
0.004228 0.004228 0.004228
0.033194 0.033194 0.033194
0.062159 0.062159 0.062159
0.091125 0.091125 0.091125
0.120091 0.120091 0.120091
0.000000 0.000000 0.000000
0.000000 0.000000 0.000000
0.003163 0.003163 0.003163
0.032128 0.032128 0.032128
0.061094 0.061094 0.061094
0.090059 0.090059 0.090059
0.119025 0.119025 0.119025
0.147991 0.147991 0.147991
0.176956 0.176956 0.176956
0.002097 0.002097 0.002097
0.031063 0.031063 0.031063
0.060028 0.060028 0.060028
0.088994 0.088994 0.088994
0.117959 0.117959 0.117959
0.146925 0.146925 0.146925
0.175891 0.175891 0.175891
0.228166 0.228166 0.228166
0.396167 0.396167 0.396167
0.058963 0.058963 0.058963
0.087928 0.087928 0.087928
0.116894 0.116894 0.116894
0.145859 0.145859 0.145859
0.174825 0.174825 0.174825
0.221986 0.221986 0.221986
0.389986 0.389986 0.389986
0.557987 0.557987 0.557987
0.725987 0.725987 0.725987
0.115828 0.115828 0.115828
0.144794 0.144794 0.144794
0.173759 0.173759 0.173759
0.215805 0.215805 0.215805
0.383806 0.383806 0.383806
0.551806 0.551806 0.551806
0.719807 0.719807 0.719807
0.800446 0.800446 0.800446
0.832308 0.832308 0.832308
0.172694 0.172694 0.172694
0.209624 0.209624 0.209624
0.377625 0.377625 0.377625
0.545626 0.545626 0.545626
0.713626 0.713626 0.713626
0.799274 0.799274 0.799274
0.831136 0.831136 0.831136
0.862998 0.862998 0.862998
0.894861 0.894861 0.894861
0.371444 0.371444 0.371444
0.539445 0.539445 0.539445
0.707446 0.707446 0.707446
0.798102 0.798102 0.798102
0.829964 0.829964 0.829964
0.861826 0.861826 0.861826
0.893688 0.893688 0.893688
0.925551 0.925551 0.925551
0.957413 0.957413 0.957413
0.701265 0.701265 0.701265
0.796930 0.796930 0.796930
0.828792 0.828792 0.828792
0.860654 0.860654 0.860654
0.892516 0.892516 0.892516
0.924378 0.924378 0.924378
0.956241 0.956241 0.956241
0.988103 0.988103 0.988103
1.000000 1.000000 1.000000
0.000000 0.000000 0.000000
0.000000 0.000000 0.000000
0.000000 0.000000 0.000000
0.000000 0.000000 0.000000
0.000000 0.000000 0.000000
0.000000 0.000000 0.000000
0.016337 0.016337 0.016337
0.045303 0.045303 0.045303
0.074269 0.074269 0.074269
0.000000 0.000000 0.000000
0.000000 0.000000 0.000000
0.000000 0.000000 0.000000
0.000000 0.000000 0.000000
0.015272 0.015272 0.015272
0.044238 0.044238 0.044238
0.073203 0.073203 0.073203
0.102169 0.102169 0.102169
0.131134 0.131134 0.131134
0.000000 0.000000 0.000000
0.000000 0.000000 0.000000
0.014206 0.014206 0.014206
0.043172 0.043172 0.043172
0.072138 0.072138 0.072138
0.101103 0.101103 0.101103
0.130069 0.130069 0.130069
0.159034 0.159034 0.159034
0.188000 0.188000 0.188000
0.013141 0.013141 0.013141
0.042106 0.042106 0.042106
0.071072 0.071072 0.071072
0.100038 0.100038 0.100038
0.129003 0.129003 0.129003
0.157969 0.157969 0.157969
0.186934 0.186934 0.186934
0.292220 0.292220 0.292220
0.460221 0.460221 0.460221
0.070006 0.070006 0.070006
0.098972 0.098972 0.098972
0.127938 0.127938 0.127938
0.156903 0.156903 0.156903
0.185869 0.185869 0.185869
0.286039 0.286039 0.286039
0.454040 0.454040 0.454040
0.622041 0.622041 0.622041
0.781904 0.781904 0.781904
0.126872 0.126872 0.126872
0.155837 0.155837 0.155837
0.184803 0.184803 0.184803
0.279859 0.279859 0.279859
0.447859 0.447859 0.447859
0.615860 0.615860 0.615860
0.780732 0.780732 0.780732
0.812594 0.812594 0.812594
0.844457 0.844457 0.844457
0.183737 0.183737 0.183737
0.273678 0.273678 0.273678
0.441679 0.441679 0.441679
0.609679 0.609679 0.609679
0.777680 0.777680 0.777680
0.811422 0.811422 0.811422
0.843284 0.843284 0.843284
0.875147 0.875147 0.875147
0.907009 0.907009 0.907009
0.435498 0.435498 0.435498
0.603499 0.603499 0.603499
0.771499 0.771499 0.771499
0.810250 0.810250 0.810250
0.842112 0.842112 0.842112
0.873974 0.873974 0.873974
0.905837 0.905837 0.905837
0.937699 0.937699 0.937699
0.969561 0.969561 0.969561
0.765319 0.765319 0.765319
0.809078 0.809078 0.809078
0.840940 0.840940 0.840940
0.872802 0.872802 0.872802
0.904664 0.904664 0.904664
0.936527 0.936527 0.936527
0.968389 0.968389 0.968389
1.000000 1.000000 1.000000
1.000000 1.000000 1.000000
0.000000 0.000000 0.000000
0.000000 0.000000 0.000000
0.000000 0.000000 0.000000
0.000000 0.000000 0.000000
0.000000 0.000000 0.000000
0.000000 0.000000 0.000000
0.027381 0.027381 0.027381
0.056347 0.056347 0.056347
0.085312 0.085312 0.085312
0.000000 0.000000 0.000000
0.000000 0.000000 0.000000
0.000000 0.000000 0.000000
0.000000 0.000000 0.000000
0.026316 0.026316 0.026316
0.055281 0.055281 0.055281
0.084247 0.084247 0.084247
0.113212 0.113212 0.113212
0.142178 0.142178 0.142178
0.000000 0.000000 0.000000
0.000000 0.000000 0.000000
0.025250 0.025250 0.025250
0.054216 0.054216 0.054216
0.083181 0.083181 0.083181
0.112147 0.112147 0.112147
0.141113 0.141113 0.141113
0.170078 0.170078 0.170078
0.199044 0.199044 0.199044
0.024184 0.024184 0.024184
0.053150 0.053150 0.053150
0.082116 0.082116 0.082116
0.111081 0.111081 0.111081
0.140047 0.140047 0.140047
0.169013 0.169013 0.169013
0.197978 0.197978 0.197978
0.356274 0.356274 0.356274
0.524274 0.524274 0.524274
0.081050 0.081050 0.081050
0.110016 0.110016 0.110016
0.138981 0.138981 0.138981
0.167947 0.167947 0.167947
0.196913 0.196913 0.196913
0.350093 0.350093 0.350093
0.518094 0.518094 0.518094
0.686094 0.686094 0.686094
0.794052 0.794052 0.794052
0.137916 0.137916 0.137916
0.166881 0.166881 0.166881
0.195847 0.195847 0.195847
0.343912 0.343912 0.343912
0.511913 0.511913 0.511913
0.679914 0.679914 0.679914
0.792880 0.792880 0.792880
0.824742 0.824742 0.824742
0.856605 0.856605 0.856605
0.194781 0.194781 0.194781
0.337732 0.337732 0.337732
0.505732 0.505732 0.505732
0.673733 0.673733 0.673733
0.791708 0.791708 0.791708
0.823570 0.823570 0.823570
0.855432 0.855432 0.855432
0.887295 0.887295 0.887295
0.919157 0.919157 0.919157
0.499552 0.499552 0.499552
0.667553 0.667553 0.667553
0.790536 0.790536 0.790536
0.822398 0.822398 0.822398
0.854260 0.854260 0.854260
0.886122 0.886122 0.886122
0.917985 0.917985 0.917985
0.949847 0.949847 0.949847
0.981709 0.981709 0.981709
0.789364 0.789364 0.789364
0.821226 0.821226 0.821226
0.853088 0.853088 0.853088
0.884950 0.884950 0.884950
0.916812 0.916812 0.916812
0.948675 0.948675 0.948675
0.980537 0.980537 0.980537
1.000000 1.000000 1.000000
1.000000 1.000000 1.000000
0.000000 0.000000 0.000000
0.000000 0.000000 0.000000
0.000000 0.000000 0.000000
0.000000 0.000000 0.000000
0.000000 0.000000 0.000000
0.009459 0.009459 0.009459
0.038425 0.038425 0.038425
0.067391 0.067391 0.067391
0.096356 0.096356 0.096356
0.000000 0.000000 0.000000
0.000000 0.000000 0.000000
0.000000 0.000000 0.000000
0.008394 0.008394 0.008394
0.037359 0.037359 0.037359
0.066325 0.066325 0.066325
0.095291 0.095291 0.095291
0.124256 0.124256 0.124256
0.153222 0.153222 0.153222
0.000000 0.000000 0.000000
0.007328 0.007328 0.007328
0.036294 0.036294 0.036294
0.065259 0.065259 0.065259
0.094225 0.094225 0.094225
0.123191 0.123191 0.123191
0.152156 0.152156 0.152156
0.181122 0.181122 0.181122
0.258507 0.258507 0.258507
0.035228 0.035228 0.035228
0.064194 0.064194 0.064194
0.093159 0.093159 0.093159
0.122125 0.122125 0.122125
0.151091 0.151091 0.151091
0.180056 0.180056 0.180056
0.252327 0.252327 0.252327
0.420327 0.420327 0.420327
0.588328 0.588328 0.588328
0.092094 0.092094 0.092094
0.121059 0.121059 0.121059
0.150025 0.150025 0.150025
0.178991 0.178991 0.178991
0.246146 0.246146 0.246146
0.414147 0.414147 0.414147
0.582147 0.582147 0.582147
0.750148 0.750148 0.750148
0.806201 0.806201 0.806201
0.148959 0.148959 0.148959
0.177925 0.177925 0.177925
0.239966 0.239966 0.239966
0.407966 0.407966 0.407966
0.575967 0.575967 0.575967
0.743967 0.743967 0.743967
0.805028 0.805028 0.805028
0.836891 0.836891 0.836891
0.868753 0.868753 0.868753
0.233785 0.233785 0.233785
0.401786 0.401786 0.401786
0.569786 0.569786 0.569786
0.737787 0.737787 0.737787
0.803856 0.803856 0.803856
0.835718 0.835718 0.835718
0.867581 0.867581 0.867581
0.899443 0.899443 0.899443
0.931305 0.931305 0.931305
0.563606 0.563606 0.563606
0.731606 0.731606 0.731606
0.802684 0.802684 0.802684
0.834546 0.834546 0.834546
0.866408 0.866408 0.866408
0.898271 0.898271 0.898271
0.930133 0.930133 0.930133
0.961995 0.961995 0.961995
0.993857 0.993857 0.993857
0.801512 0.801512 0.801512
0.833374 0.833374 0.833374
0.865236 0.865236 0.865236
0.897098 0.897098 0.897098
0.928961 0.928961 0.928961
0.960823 0.960823 0.960823
0.992685 0.992685 0.992685
1.000000 1.000000 1.000000
1.000000 1.000000 1.000000
0.000000 0.000000 0.000000
0.000000 0.000000 0.000000
0.000000 0.000000 0.000000
0.000000 0.000000 0.000000
0.000000 0.000000 0.000000
0.020503 0.020503 0.020503
0.049469 0.049469 0.049469
0.078434 0.078434 0.078434
0.107400 0.107400 0.107400
0.000000 0.000000 0.000000
0.000000 0.000000 0.000000
0.000000 0.000000 0.000000
0.019438 0.019438 0.019438
0.048403 0.048403 0.048403
0.077369 0.077369 0.077369
0.106334 0.106334 0.106334
0.135300 0.135300 0.135300
0.164266 0.164266 0.164266
0.000000 0.000000 0.000000
0.018372 0.018372 0.018372
0.047338 0.047338 0.047338
0.076303 0.076303 0.076303
0.105269 0.105269 0.105269
0.134234 0.134234 0.134234
0.163200 0.163200 0.163200
0.192166 0.192166 0.192166
0.322561 0.322561 0.322561
0.046272 0.046272 0.046272
0.075238 0.075238 0.075238
0.104203 0.104203 0.104203
0.133169 0.133169 0.133169
0.162134 0.162134 0.162134
0.191100 0.191100 0.191100
0.316381 0.316381 0.316381
0.484381 0.484381 0.484381
0.652382 0.652382 0.652382
0.103138 0.103138 0.103138
0.132103 0.132103 0.132103
0.161069 0.161069 0.161069
0.190034 0.190034 0.190034
0.310200 0.310200 0.310200
0.478201 0.478201 0.478201
0.646201 0.646201 0.646201
0.786487 0.786487 0.786487
0.818349 0.818349 0.818349
0.160003 0.160003 0.160003
0.188969 0.188969 0.188969
0.304019 0.304019 0.304019
0.472020 0.472020 0.472020
0.640020 0.640020 0.640020
0.785314 0.785314 0.785314
0.817177 0.817177 0.817177
0.849039 0.849039 0.849039
0.880901 0.880901 0.880901
0.297839 0.297839 0.297839
0.465839 0.465839 0.465839
0.633840 0.633840 0.633840
0.784142 0.784142 0.784142
0.816004 0.816004 0.816004
0.847867 0.847867 0.847867
0.879729 0.879729 0.879729
0.911591 0.911591 0.911591
0.943453 0.943453 0.943453
0.627659 0.627659 0.627659
0.782970 0.782970 0.782970
0.814832 0.814832 0.814832
0.846694 0.846694 0.846694
0.878557 0.878557 0.878557
0.910419 0.910419 0.910419
0.942281 0.942281 0.942281
0.974143 0.974143 0.974143
1.000000 1.000000 1.000000
0.813660 0.813660 0.813660
0.845522 0.845522 0.845522
0.877384 0.877384 0.877384
0.909247 0.909247 0.909247
0.941109 0.941109 0.941109
0.972971 0.972971 0.972971
1.000000 1.000000 1.000000
1.000000 1.000000 1.000000
1.000000 1.000000 1.000000
0.000000 0.000000 0.000000
0.000000 0.000000 0.000000
0.000000 0.000000 0.000000
0.000000 0.000000 0.000000
0.002581 0.002581 0.002581
0.031547 0.031547 0.031547
0.060512 0.060512 0.060512
0.089478 0.089478 0.089478
0.118444 0.118444 0.118444
0.000000 0.000000 0.000000
0.000000 0.000000 0.000000
0.001516 0.001516 0.001516
0.030481 0.030481 0.030481
0.059447 0.059447 0.059447
0.088412 0.088412 0.088412
0.117378 0.117378 0.117378
0.146344 0.146344 0.146344
0.175309 0.175309 0.175309
0.000450 0.000450 0.000450
0.029416 0.029416 0.029416
0.058381 0.058381 0.058381
0.087347 0.087347 0.087347
0.116313 0.116313 0.116313
0.145278 0.145278 0.145278
0.174244 0.174244 0.174244
0.218614 0.218614 0.218614
0.386615 0.386615 0.386615
0.057316 0.057316 0.057316
0.086281 0.086281 0.086281
0.115247 0.115247 0.115247
0.144213 0.144213 0.144213
0.173178 0.173178 0.173178
0.212434 0.212434 0.212434
0.380434 0.380434 0.380434
0.548435 0.548435 0.548435
0.716436 0.716436 0.716436
0.114181 0.114181 0.114181
0.143147 0.143147 0.143147
0.172113 0.172113 0.172113
0.206253 0.206253 0.206253
0.374254 0.374254 0.374254
0.542254 0.542254 0.542254
0.710255 0.710255 0.710255
0.798635 0.798635 0.798635
0.830497 0.830497 0.830497
0.171047 0.171047 0.171047
0.200072 0.200072 0.200072
0.368073 0.368073 0.368073
0.536074 0.536074 0.536074
0.704074 0.704074 0.704074
0.797462 0.797462 0.797462
0.829325 0.829325 0.829325
0.861187 0.861187 0.861187
0.893049 0.893049 0.893049
0.361892 0.361892 0.361892
0.529893 0.529893 0.529893
0.697894 0.697894 0.697894
0.796290 0.796290 0.796290
0.828152 0.828152 0.828152
0.860015 0.860015 0.860015
0.891877 0.891877 0.891877
0.923739 0.923739 0.923739
0.955601 0.955601 0.955601
0.691713 0.691713 0.691713
0.795118 0.795118 0.795118
0.826980 0.826980 0.826980
0.858842 0.858842 0.858842
0.890705 0.890705 0.890705
0.922567 0.922567 0.922567
0.954429 0.954429 0.954429
0.986291 0.986291 0.986291
1.000000 1.000000 1.000000
0.825808 0.825808 0.825808
0.857670 0.857670 0.857670
0.889533 0.889533 0.889533
0.921395 0.921395 0.921395
0.953257 0.953257 0.953257
0.985119 0.985119 0.985119
1.000000 1.000000 1.000000
1.000000 1.000000 1.000000
1.000000 1.000000 1.000000
0.000000 0.000000 0.000000
0.000000 0.000000 0.000000
0.000000 0.000000 0.000000
0.000000 0.000000 0.000000
0.013625 0.013625 0.013625
0.042591 0.042591 0.042591
0.071556 0.071556 0.071556
0.100522 0.100522 0.100522
0.129487 0.129487 0.129487
0.000000 0.000000 0.000000
0.000000 0.000000 0.000000
0.012559 0.012559 0.012559
0.041525 0.041525 0.041525
0.070491 0.070491 0.070491
0.099456 0.099456 0.099456
0.128422 0.128422 0.128422
0.157387 0.157387 0.157387
0.186353 0.186353 0.186353
0.011494 0.011494 0.011494
0.040459 0.040459 0.040459
0.069425 0.069425 0.069425
0.098391 0.098391 0.098391
0.127356 0.127356 0.127356
0.156322 0.156322 0.156322
0.185288 0.185288 0.185288
0.282668 0.282668 0.282668
0.450669 0.450669 0.450669
0.068359 0.068359 0.068359
0.097325 0.097325 0.097325
0.126291 0.126291 0.126291
0.155256 0.155256 0.155256
0.184222 0.184222 0.184222
0.276487 0.276487 0.276487
0.444488 0.444488 0.444488
0.612489 0.612489 0.612489
0.780093 0.780093 0.780093
0.125225 0.125225 0.125225
0.154191 0.154191 0.154191
0.183156 0.183156 0.183156
0.270307 0.270307 0.270307
0.438308 0.438308 0.438308
0.606308 0.606308 0.606308
0.774309 0.774309 0.774309
0.810783 0.810783 0.810783
0.842645 0.842645 0.842645
0.182091 0.182091 0.182091
0.264126 0.264126 0.264126
0.432127 0.432127 0.432127
0.600127 0.600127 0.600127
0.768128 0.768128 0.768128
0.809611 0.809611 0.809611
0.841473 0.841473 0.841473
0.873335 0.873335 0.873335
0.905197 0.905197 0.905197
0.425946 0.425946 0.425946
0.593947 0.593947 0.593947
0.761947 0.761947 0.761947
0.808438 0.808438 0.808438
0.840301 0.840301 0.840301
0.872163 0.872163 0.872163
0.904025 0.904025 0.904025
0.935887 0.935887 0.935887
0.967749 0.967749 0.967749
0.755767 0.755767 0.755767
0.807266 0.807266 0.807266
0.839128 0.839128 0.839128
0.870991 0.870991 0.870991
0.902853 0.902853 0.902853
0.934715 0.934715 0.934715
0.966577 0.966577 0.966577
0.998439 0.998439 0.998439
1.000000 1.000000 1.000000
0.837956 0.837956 0.837956
0.869818 0.869818 0.869818
0.901681 0.901681 0.901681
0.933543 0.933543 0.933543
0.965405 0.965405 0.965405
0.997267 0.997267 0.997267
1.000000 1.000000 1.000000
1.000000 1.000000 1.000000
1.000000 1.000000 1.000000
0.000000 0.000000 0.000000
0.000000 0.000000 0.000000
0.000000 0.000000 0.000000
0.000000 0.000000 0.000000
0.024669 0.024669 0.024669
0.053634 0.053634 0.053634
0.082600 0.082600 0.082600
0.111566 0.111566 0.111566
0.140531 0.140531 0.140531
0.000000 0.000000 0.000000
0.000000 0.000000 0.000000
0.023603 0.023603 0.023603
0.052569 0.052569 0.052569
0.081534 0.081534 0.081534
0.110500 0.110500 0.110500
0.139466 0.139466 0.139466
0.168431 0.168431 0.168431
0.197397 0.197397 0.197397
0.022538 0.022538 0.022538
0.051503 0.051503 0.051503
0.080469 0.080469 0.080469
0.109434 0.109434 0.109434
0.138400 0.138400 0.138400
0.167366 0.167366 0.167366
0.196331 0.196331 0.196331
0.346722 0.346722 0.346722
0.514722 0.514722 0.514722
0.079403 0.079403 0.079403
0.108369 0.108369 0.108369
0.137334 0.137334 0.137334
0.166300 0.166300 0.166300
0.195266 0.195266 0.195266
0.340541 0.340541 0.340541
0.508542 0.508542 0.508542
0.676542 0.676542 0.676542
0.792241 0.792241 0.792241
0.136269 0.136269 0.136269
0.165234 0.165234 0.165234
0.194200 0.194200 0.194200
0.334361 0.334361 0.334361
0.502361 0.502361 0.502361
0.670362 0.670362 0.670362
0.791069 0.791069 0.791069
0.822931 0.822931 0.822931
0.854793 0.854793 0.854793
0.193134 0.193134 0.193134
0.328180 0.328180 0.328180
0.496181 0.496181 0.496181
0.664181 0.664181 0.664181
0.789896 0.789896 0.789896
0.821759 0.821759 0.821759
0.853621 0.853621 0.853621
0.885483 0.885483 0.885483
0.917345 0.917345 0.917345
0.490000 0.490000 0.490000
0.658001 0.658001 0.658001
0.788724 0.788724 0.788724
0.820587 0.820587 0.820587
0.852449 0.852449 0.852449
0.884311 0.884311 0.884311
0.916173 0.916173 0.916173
0.948035 0.948035 0.948035
0.979897 0.979897 0.979897
0.787552 0.787552 0.787552
0.819414 0.819414 0.819414
0.851277 0.851277 0.851277
0.883139 0.883139 0.883139
0.915001 0.915001 0.915001
0.946863 0.946863 0.946863
0.978725 0.978725 0.978725
1.000000 1.000000 1.000000
1.000000 1.000000 1.000000
0.850104 0.850104 0.850104
0.881967 0.881967 0.881967
0.913829 0.913829 0.913829
0.945691 0.945691 0.945691
0.977553 0.977553 0.977553
1.000000 1.000000 1.000000
1.000000 1.000000 1.000000
1.000000 1.000000 1.000000
1.000000 1.000000 1.000000
0.000000 0.000000 0.000000
0.000000 0.000000 0.000000
0.000000 0.000000 0.000000
0.006747 0.006747 0.006747
0.035712 0.035712 0.035712
0.064678 0.064678 0.064678
0.093644 0.093644 0.093644
0.122609 0.122609 0.122609
0.151575 0.151575 0.151575
0.000000 0.000000 0.000000
0.005681 0.005681 0.005681
0.034647 0.034647 0.034647
0.063612 0.063612 0.063612
0.092578 0.092578 0.092578
0.121544 0.121544 0.121544
0.150509 0.150509 0.150509
0.179475 0.179475 0.179475
0.248955 0.248955 0.248955
0.033581 0.033581 0.033581
0.062547 0.062547 0.062547
0.091513 0.091513 0.091513
0.120478 0.120478 0.120478
0.149444 0.149444 0.149444
0.178409 0.178409 0.178409
0.242775 0.242775 0.242775
0.410776 0.410776 0.410776
0.578776 0.578776 0.578776
0.090447 0.090447 0.090447
0.119413 0.119413 0.119413
0.148378 0.148378 0.148378
0.177344 0.177344 0.177344
0.236594 0.236594 0.236594
0.404595 0.404595 0.404595
0.572596 0.572596 0.572596
0.740596 0.740596 0.740596
0.804389 0.804389 0.804389
0.147312 0.147312 0.147312
0.176278 0.176278 0.176278
0.230414 0.230414 0.230414
0.398414 0.398414 0.398414
0.566415 0.566415 0.566415
0.734416 0.734416 0.734416
0.803217 0.803217 0.803217
0.835079 0.835079 0.835079
0.866941 0.866941 0.866941
0.224233 0.224233 0.224233
0.392234 0.392234 0.392234
0.560234 0.560234 0.560234
0.728235 0.728235 0.728235
0.802045 0.802045 0.802045
0.833907 0.833907 0.833907
0.865769 0.865769 0.865769
0.897631 0.897631 0.897631
0.929493 0.929493 0.929493
0.554054 0.554054 0.554054
0.722054 0.722054 0.722054
0.800872 0.800872 0.800872
0.832735 0.832735 0.832735
0.864597 0.864597 0.864597
0.896459 0.896459 0.896459
0.928321 0.928321 0.928321
0.960183 0.960183 0.960183
0.992046 0.992046 0.992046
0.799700 0.799700 0.799700
0.831562 0.831562 0.831562
0.863425 0.863425 0.863425
0.895287 0.895287 0.895287
0.927149 0.927149 0.927149
0.959011 0.959011 0.959011
0.990873 0.990873 0.990873
1.000000 1.000000 1.000000
1.000000 1.000000 1.000000
0.862252 0.862252 0.862252
0.894115 0.894115 0.894115
0.925977 0.925977 0.925977
0.957839 0.957839 0.957839
0.989701 0.989701 0.989701
1.000000 1.000000 1.000000
1.000000 1.000000 1.000000
1.000000 1.000000 1.000000
1.000000 1.000000 1.000000
