app/src/main/assets/luts/mono_warm.cube
# V-Cam procedural LUT — mono_warm
# Generated by LutBaker. Do not edit by hand.
TITLE "V-Cam mono_warm"
LUT_3D_SIZE 9
DOMAIN_MIN 0.0 0.0 0.0
DOMAIN_MAX 1.0 1.0 1.0
0.030350 0.014150 0.003350
0.062806 0.046555 0.035344
0.101820 0.085427 0.073087
0.140648 0.124115 0.110644
0.179292 0.162617 0.148016
0.217752 0.200935 0.185204
0.256026 0.239068 0.222207
0.294116 0.277017 0.259025
0.332020 0.314780 0.295658
0.100388 0.084000 0.071701
0.139223 0.122695 0.109265
0.177874 0.161204 0.146645
0.216340 0.199529 0.183839
0.254621 0.237669 0.220849
0.292718 0.275624 0.257674
0.330629 0.313394 0.294314
0.368356 0.350980 0.330769
0.405898 0.388380 0.367040
0.176455 0.159791 0.145273
0.214928 0.198122 0.182474
0.253216 0.236269 0.219491
0.291319 0.274231 0.256322
0.329238 0.312008 0.292969
0.366971 0.349600 0.329431
0.404520 0.387008 0.365709
0.441884 0.424230 0.401801
0.479063 0.461268 0.437709
0.251811 0.234869 0.218132
0.289921 0.272837 0.254971
0.327846 0.310621 0.291624
0.365586 0.348220 0.328093
0.403142 0.385635 0.364377
0.440513 0.422864 0.400477
0.477699 0.459909 0.436391
0.514700 0.496769 0.472121
0.551516 0.533444 0.507665
0.326454 0.309235 0.290279
0.364201 0.346840 0.326755
0.401764 0.384262 0.363046
0.439141 0.421498 0.399152
0.476334 0.458549 0.435073
0.513342 0.495416 0.470809
0.550165 0.532098 0.506361
0.586803 0.568595 0.541728
0.623257 0.604907 0.576910
0.400385 0.382888 0.361714
0.437769 0.420131 0.397827
0.474969 0.457189 0.433755
0.511984 0.494063 0.469498
0.548813 0.530752 0.505056
0.585459 0.567255 0.540430
0.621919 0.603574 0.575619
0.658194 0.639709 0.610623
0.694285 0.675658 0.645442
0.473604 0.455829 0.432436
0.510625 0.492710 0.468186
0.547462 0.529405 0.503751
0.584114 0.565916 0.539132
0.620581 0.602242 0.574328
0.656863 0.638383 0.609338
0.692961 0.674339 0.644164
0.728873 0.710110 0.678805
0.764601 0.745697 0.713262
0.546110 0.528058 0.502446
0.582769 0.564576 0.537834
0.619242 0.600908 0.573036
0.655532 0.637056 0.608054
0.691636 0.673019 0.642886
0.727555 0.708797 0.677534
0.763290 0.744391 0.711998
0.798840 0.779799 0.746276
0.834205 0.815023 0.780369
0.617904 0.599575 0.571744
0.654200 0.635730 0.606768
0.690311 0.671699 0.641608
0.726237 0.707484 0.676263
0.761979 0.743085 0.710733
0.797535 0.778500 0.745018
0.832907 0.813731 0.779118
0.868094 0.848776 0.813034
0.903096 0.883637 0.846765
0.041273 0.025073 0.014273
0.077703 0.061397 0.049756
0.116646 0.100199 0.087428
0.155404 0.138816 0.124915
0.193978 0.177249 0.162217
0.232366 0.215496 0.199334
0.270570 0.253559 0.236266
0.308589 0.291437 0.273014
0.346424 0.329130 0.309577
0.115216 0.098775 0.086045
0.153981 0.137399 0.123539
0.192562 0.175838 0.160848
0.230957 0.214092 0.197972
0.269168 0.252162 0.234911
0.307194 0.290046 0.271665
0.345035 0.327746 0.308235
0.382691 0.365261 0.344620
0.420163 0.402591 0.380820
0.191146 0.174427 0.159478
0.229548 0.212688 0.196609
0.267766 0.250764 0.233555
0.305798 0.288656 0.270317
0.343646 0.326363 0.306893
0.381309 0.363884 0.343285
0.418788 0.401221 0.379491
0.456081 0.438374 0.415513
0.493190 0.475341 0.451351
0.266363 0.249367 0.232199
0.304402 0.287265 0.268967
0.342257 0.324979 0.305551
0.379927 0.362507 0.341949
0.417412 0.399851 0.378163
0.454712 0.437010 0.414191
0.491828 0.473984 0.450035
0.528759 0.510774 0.485695
0.565504 0.547378 0.521169
0.340868 0.323594 0.304208
0.378544 0.361130 0.340613
0.416036 0.398480 0.376834
0.453343 0.435646 0.412869
0.490466 0.472627 0.448720
0.527403 0.509423 0.484386
0.564156 0.546035 0.519867
0.600724 0.582461 0.555163
0.637107 0.618703 0.590275
0.414660 0.397110 0.375504
0.451974 0.434282 0.411547
0.489103 0.471270 0.447404
0.526048 0.508073 0.483077
0.562807 0.544691 0.518565
0.599382 0.581125 0.553868
0.635771 0.617373 0.588987
0.671976 0.653437 0.623920
0.707997 0.689316 0.658669
0.487741 0.469913 0.446088
0.524692 0.506722 0.481768
0.561458 0.543347 0.517263
0.598039 0.579787 0.552573
0.634436 0.616043 0.587698
0.670648 0.652113 0.622638
0.706675 0.687999 0.657394
0.742517 0.723700 0.691964
0.778174 0.759216 0.726350
0.560109 0.542003 0.515960
0.596697 0.578450 0.551277
0.633100 0.614712 0.586409
0.669319 0.650790 0.621356
0.705353 0.686682 0.656118
0.741202 0.722390 0.690696
0.776866 0.757913 0.725089
0.812345 0.793251 0.759297
0.847640 0.828404 0.793320
0.631764 0.613381 0.585120
0.667990 0.649466 0.620074
0.704030 0.685365 0.654843
0.739886 0.721080 0.689427
0.775557 0.756609 0.723827
0.811043 0.791954 0.758041
0.846345 0.827114 0.792071
0.881461 0.862090 0.825916
0.916393 0.896880 0.859576
0.053515 0.037297 0.026355
0.092572 0.076213 0.064141
0.131445 0.114945 0.101742
0.170133 0.153491 0.139159
0.208636 0.191853 0.176390
0.246954 0.230030 0.213437
0.285088 0.268022 0.250299
0.323036 0.305830 0.286976
0.360800 0.343452 0.323469
0.130018 0.113523 0.100362
0.168713 0.152076 0.137785
0.207223 0.190445 0.175024
0.245548 0.228629 0.212077
0.283688 0.266628 0.248946
0.321643 0.304442 0.285630
0.359414 0.342071 0.322129
0.397000 0.379516 0.358444
0.434401 0.416776 0.394573
0.205809 0.189037 0.173657
0.244141 0.227227 0.210718
0.282288 0.265233 0.247593
0.320250 0.303054 0.284284
0.358028 0.340690 0.320790
0.395621 0.378142 0.357111
0.433028 0.415408 0.393247
0.470251 0.452490 0.429199
0.507290 0.489387 0.464966
0.280888 0.263838 0.246240
0.318857 0.301666 0.282937
0.356641 0.339309 0.319450
0.394241 0.376767 0.355778
0.431655 0.414040 0.391921
0.468885 0.451129 0.427880
0.505930 0.488033 0.463653
0.542790 0.524752 0.499242
0.579466 0.561286 0.534646
0.355255 0.337927 0.318110
0.392861 0.375392 0.354445
0.430282 0.412672 0.390595
0.467519 0.449768 0.426560
0.504571 0.486678 0.462340
0.541438 0.523404 0.497936
0.578120 0.559945 0.533346
0.614617 0.596301 0.568572
0.650930 0.632472 0.603613
0.428909 0.411304 0.389268
0.466152 0.448406 0.425240
0.503211 0.485324 0.461027
0.540085 0.522056 0.496629
0.576774 0.558604 0.532047
0.613278 0.594967 0.567280
0.649597 0.631145 0.602328
0.685732 0.667138 0.637191
0.721681 0.702947 0.671869
0.501851 0.483969 0.459714
0.538731 0.520708 0.495323
0.575427 0.557263 0.530747
0.611938 0.593632 0.565987
0.648264 0.629817 0.601041
0.684406 0.665817 0.635911
0.720362 0.701633 0.670596
0.756134 0.737263 0.705097
0.791721 0.772709 0.739412
0.574080 0.555921 0.529447
0.610598 0.592298 0.564694
0.646931 0.628489 0.599755
0.683079 0.664496 0.634632
0.719043 0.700318 0.669324
0.754821 0.735956 0.703831
0.790415 0.771408 0.738153
0.825824 0.806676 0.772290
0.861048 0.841759 0.806243
0.645598 0.627161 0.598468
0.681753 0.663175 0.633352
0.717723 0.699004 0.668051
0.753508 0.734648 0.702564
0.789109 0.770107 0.736893
0.824525 0.805381 0.771038
0.859755 0.840471 0.804997
0.894801 0.875376 0.838772
0.929663 0.910096 0.872361
0.068428 0.052156 0.040784
0.107415 0.091002 0.078499
0.146217 0.129663 0.116030
0.184835 0.168139 0.153376
0.223267 0.206431 0.190537
0.261515 0.244537 0.227513
0.299578 0.282459 0.264305
0.337456 0.320196 0.300912
0.375150 0.357748 0.337333
0.144793 0.128244 0.114652
0.183417 0.166727 0.152005
0.221857 0.205025 0.189173
0.260111 0.243139 0.226156
0.298181 0.281067 0.262955
0.336066 0.318811 0.299568
0.373766 0.356370 0.335997
0.411282 0.393744 0.372241
0.448612 0.430933 0.408300
0.220446 0.203620 0.187809
0.258707 0.241740 0.224799
0.296784 0.279675 0.261604
0.334676 0.317426 0.298224
0.372383 0.354991 0.334660
0.409905 0.392372 0.370911
0.447242 0.429568 0.406976
0.484395 0.466579 0.442857
0.521362 0.503406 0.478554
0.295386 0.278283 0.260253
0.333285 0.316040 0.296880
0.370999 0.353612 0.333323
0.408528 0.391000 0.369580
0.445872 0.428203 0.405653
0.483031 0.465221 0.441541
0.520006 0.502054 0.477244
0.556795 0.538703 0.512762
0.593400 0.575166 0.548095
0.369615 0.352233 0.331985
0.407150 0.389628 0.368250
0.444501 0.426838 0.404329
0.481667 0.463863 0.440224
0.518649 0.500703 0.475934
0.555445 0.537358 0.511459
0.592057 0.573828 0.546799
0.628484 0.610114 0.581954
0.664726 0.646215 0.616925
0.443130 0.425472 0.403005
0.480303 0.462504 0.438906
0.517291 0.499351 0.474623
0.554095 0.536013 0.510155
0.590713 0.572490 0.545502
0.627147 0.608782 0.580664
0.663396 0.644890 0.615642
0.699460 0.680813 0.650434
0.735339 0.716551 0.685042
0.515934 0.497998 0.473312
0.552744 0.534667 0.508851
0.589369 0.571151 0.544205
0.625810 0.607450 0.579374
0.662066 0.643565 0.614358
0.698137 0.679495 0.649157
0.734023 0.715239 0.683772
0.769724 0.750799 0.718202
0.805241 0.786175 0.752447
0.588025 0.569812 0.542907
0.624473 0.606118 0.578083
0.660735 0.642240 0.613074
0.696813 0.678176 0.647881
0.732706 0.713928 0.682502
0.768414 0.749494 0.716939
0.803937 0.784876 0.751190
0.839276 0.820074 0.785257
0.874429 0.855086 0.819139
0.659404 0.640914 0.611790
0.695489 0.676857 0.646603
0.731389 0.712616 0.681231
0.767103 0.748189 0.715675
0.802634 0.783578 0.749933
0.837979 0.818782 0.784007
0.873139 0.853801 0.817896
0.908115 0.888635 0.851600
0.942906 0.923285 0.885120
0.083314 0.066989 0.055185
0.122231 0.105764 0.092830
0.160963 0.144355 0.130291
0.199510 0.182760 0.167566
0.237872 0.220981 0.204657
0.276049 0.259017 0.241563
0.314042 0.296869 0.278284
0.351850 0.334535 0.314820
0.389472 0.372017 0.351171
0.159541 0.142938 0.128916
0.198095 0.181351 0.166198
0.236464 0.219579 0.203296
0.274648 0.257621 0.240208
0.312647 0.295479 0.276936
0.350462 0.333153 0.313479
0.388092 0.370641 0.349837
0.425537 0.407945 0.386011
0.462797 0.445064 0.421999
0.235056 0.218175 0.201934
0.273247 0.256225 0.238853
0.311253 0.294090 0.275588
0.349074 0.331770 0.312138
0.386711 0.369265 0.348503
0.424162 0.406576 0.384683
0.461429 0.443701 0.420679
0.498511 0.480642 0.456489
0.535408 0.517398 0.492115
0.309858 0.292700 0.274240
0.347686 0.330387 0.310797
0.385329 0.367889 0.347168
0.422788 0.405206 0.383355
0.460061 0.442339 0.419358
0.497150 0.479286 0.455175
0.534054 0.516049 0.490808
0.570774 0.552627 0.526255
0.607308 0.589020 0.561518
0.383948 0.366513 0.345834
0.421413 0.403837 0.382027
0.458693 0.440976 0.418036
0.495789 0.477930 0.453861
0.532700 0.514700 0.489500
0.569426 0.551285 0.524955
0.605967 0.587685 0.560224
0.642324 0.623900 0.595309
0.678495 0.659930 0.630209
0.457325 0.439613 0.416715
0.494428 0.476574 0.452546
0.531345 0.513351 0.488192
0.568078 0.549942 0.523654
0.604626 0.586349 0.558930
0.640990 0.622571 0.594022
0.677168 0.658608 0.628929
0.713162 0.694460 0.663651
0.748971 0.730128 0.698188
0.529990 0.512001 0.486884
0.566730 0.548599 0.522352
0.603285 0.585013 0.557636
0.639655 0.621242 0.592734
0.675840 0.657286 0.627648
0.711841 0.693145 0.662377
0.747656 0.728819 0.696921
0.783287 0.764309 0.731280
0.818733 0.799613 0.765455
0.601943 0.583676 0.556341
0.638320 0.619912 0.591446
0.674512 0.655963 0.626367
0.710520 0.691829 0.661102
0.746342 0.727510 0.695653
0.781980 0.763006 0.730020
0.817433 0.798318 0.764201
0.852700 0.833445 0.798197
0.887784 0.868386 0.832009
0.673184 0.654640 0.625085
0.709198 0.690513 0.659828
0.745027 0.726201 0.694386
0.780672 0.761704 0.728758
0.816131 0.797022 0.762947
0.851406 0.832156 0.796950
0.886496 0.867104 0.830768
0.921401 0.901868 0.864402
0.956122 0.936447 0.897851
0.098174 0.081795 0.069560
0.137020 0.120500 0.107135
0.175681 0.159020 0.144525
0.214158 0.197355 0.181730
0.252450 0.235505 0.218750
0.290557 0.273471 0.255585
0.328479 0.311252 0.292236
0.366216 0.348848 0.328701
0.403768 0.386259 0.364982
0.174262 0.157606 0.143152
0.212746 0.195948 0.180364
0.251044 0.234105 0.217391
0.289158 0.272077 0.254233
0.327087 0.309865 0.290891
0.364831 0.347468 0.327363
0.402390 0.384886 0.363651
0.439765 0.422119 0.399754
0.476954 0.459167 0.435672
0.249638 0.232704 0.216032
0.287759 0.270684 0.252881
0.325695 0.308478 0.289545
0.363446 0.346088 0.326025
0.401012 0.383512 0.362319
0.438393 0.420752 0.398429
0.475589 0.457808 0.434354
0.512601 0.494678 0.470094
0.549428 0.531363 0.505649
0.324302 0.307091 0.288200
0.362060 0.344707 0.324686
0.399633 0.382139 0.360987
0.437021 0.419386 0.397104
0.474224 0.456448 0.433036
0.511243 0.493325 0.468783
0.548076 0.530017 0.504345
0.584725 0.566525 0.539722
0.621189 0.602847 0.574914
0.398254 0.380765 0.359655
0.435649 0.418019 0.395778
0.472859 0.455087 0.431717
0.509884 0.491971 0.467471
0.546724 0.528671 0.503040
0.583380 0.565185 0.538424
0.619851 0.601514 0.573623
0.656137 0.637659 0.608638
0.692238 0.673619 0.643467
0.471493 0.453727 0.430398
0.508525 0.490618 0.466159
0.545372 0.527324 0.501734
0.582035 0.563845 0.537125
0.618512 0.600181 0.572331
0.654805 0.636333 0.607353
0.690913 0.672299 0.642189
0.726836 0.708081 0.676841
0.762575 0.743678 0.711308
0.544020 0.525977 0.500429
0.580689 0.562505 0.535827
0.617174 0.598848 0.571039
0.653473 0.635006 0.606068
0.689588 0.670979 0.640911
0.725518 0.706768 0.675569
0.761263 0.742372 0.710043
0.796824 0.777791 0.744332
0.832199 0.813025 0.778436
0.615835 0.597514 0.569747
0.652141 0.633679 0.604782
0.688263 0.669659 0.639632
0.724200 0.705455 0.674298
0.759951 0.741066 0.708778
0.795519 0.776491 0.743074
0.830901 0.811732 0.777185
0.866098 0.846789 0.811111
0.901111 0.881660 0.844852
0.686937 0.668339 0.638353
0.722881 0.704141 0.673025
0.758639 0.739759 0.707513
0.794213 0.775191 0.741815
0.829603 0.810439 0.775933
0.864807 0.845502 0.809866
0.899826 0.880381 0.843614
0.934661 0.915074 0.877177
0.969311 0.949583 0.910555
0.113007 0.096573 0.083908
0.151782 0.135208 0.121412
0.190373 0.173657 0.158731
0.228779 0.211922 0.195866
0.267000 0.250002 0.232816
0.305037 0.287897 0.269581
0.342889 0.325608 0.306161
0.380555 0.363133 0.342556
0.418037 0.400474 0.378767
0.188957 0.172246 0.157362
0.227370 0.210518 0.194503
0.265598 0.248605 0.231460
0.303641 0.286506 0.268231
0.341499 0.324224 0.304818
0.379173 0.361756 0.341220
0.416662 0.399103 0.377438
0.453966 0.436266 0.413470
0.491085 0.473244 0.449318
0.264195 0.247207 0.230103
0.302245 0.285115 0.266882
0.340110 0.322839 0.303476
0.377790 0.360378 0.339885
0.415286 0.397733 0.376109
0.452597 0.434902 0.412148
0.489723 0.471887 0.448002
0.526664 0.508687 0.483672
0.563420 0.545302 0.519157
0.338720 0.321455 0.302133
0.376407 0.359001 0.338548
0.413910 0.396362 0.374779
0.451227 0.433538 0.410825
0.488360 0.470530 0.446687
0.525308 0.507336 0.482363
0.562071 0.543958 0.517855
0.598649 0.580395 0.553162
0.635043 0.616648 0.588284
0.412533 0.394991 0.373450
0.449858 0.432174 0.409503
0.486997 0.469172 0.445371
0.523952 0.505985 0.481054
0.560722 0.542614 0.516552
0.597307 0.579058 0.551866
0.633707 0.615317 0.586995
0.669923 0.651391 0.621939
0.705954 0.687281 0.656698
0.485634 0.467814 0.444054
0.522596 0.504634 0.479744
0.559372 0.541270 0.515250
0.595964 0.577721 0.550570
0.632372 0.613986 0.585706
0.668594 0.650068 0.620657
0.704631 0.685964 0.655423
0.740484 0.721675 0.690004
0.776152 0.757202 0.724400
0.558023 0.539925 0.513947
0.594621 0.576383 0.549274
0.631035 0.612656 0.584416
0.667265 0.648743 0.619374
0.703309 0.684646 0.654147
0.739168 0.720365 0.688735
0.774843 0.755898 0.723138
0.810333 0.791247 0.757357
0.845638 0.826411 0.791390
0.629699 0.611324 0.583127
0.665935 0.647419 0.618091
0.701986 0.683329 0.652871
0.737852 0.719054 0.687466
0.773534 0.754594 0.721876
0.809031 0.789950 0.756101
0.844343 0.825120 0.790141
0.879470 0.860106 0.823997
0.914412 0.894907 0.857668
0.700663 0.682011 0.651595
0.736536 0.717743 0.686196
0.772224 0.753290 0.720613
0.807728 0.788652 0.754845
0.843047 0.823830 0.788892
0.878181 0.858822 0.822755
0.913130 0.893630 0.856432
0.947894 0.928253 0.889925
0.982473 0.962691 0.923233
0.127813 0.111325 0.098229
0.166518 0.149889 0.135663
0.205038 0.188268 0.172912
0.243374 0.226463 0.209976
0.281524 0.264472 0.246855
0.319490 0.302297 0.283549
0.357272 0.339937 0.320059
0.394868 0.377392 0.356384
0.432279 0.414662 0.392524
0.203624 0.186860 0.171545
0.241967 0.225061 0.208615
0.280124 0.263077 0.245501
0.318097 0.300909 0.282203
0.355885 0.338555 0.318719
0.393488 0.376017 0.355051
0.430906 0.413294 0.391198
0.468140 0.450387 0.427160
0.505189 0.487294 0.462937
0.278724 0.261682 0.244148
0.316703 0.299520 0.280856
0.354498 0.337174 0.317379
0.392108 0.374642 0.353718
0.429533 0.411926 0.389871
0.466773 0.449025 0.425840
0.503829 0.485940 0.461624
0.540700 0.522669 0.497223
0.577386 0.559214 0.532638
0.353111 0.335792 0.316039
0.390728 0.373267 0.352384
0.428160 0.410558 0.388544
0.465407 0.447664 0.424520
0.502469 0.484585 0.460311
0.539346 0.521321 0.495917
0.576039 0.557872 0.531338
0.612547 0.594239 0.566574
0.648870 0.630421 0.601626
0.426786 0.409189 0.387217
0.464040 0.446302 0.423200
0.501109 0.483230 0.458997
0.537993 0.519973 0.494610
0.574693 0.556531 0.530038
0.611207 0.592904 0.565281
0.647537 0.629093 0.600340
0.683682 0.665097 0.635213
0.719642 0.700916 0.669902
0.499748 0.481874 0.457684
0.536639 0.518624 0.493303
0.573346 0.555189 0.528738
0.609867 0.591569 0.563988
0.646204 0.627765 0.599053
0.682356 0.663776 0.633934
0.718323 0.699601 0.668629
0.754105 0.735242 0.703140
0.789703 0.770698 0.737466
0.571999 0.553847 0.527438
0.608527 0.590234 0.562695
0.644870 0.626437 0.597766
0.681029 0.662454 0.632654
0.717003 0.698287 0.667356
0.752792 0.733934 0.701874
0.788396 0.769397 0.736206
0.823816 0.804675 0.770354
0.859050 0.839769 0.804317
0.643537 0.625108 0.596479
0.679702 0.661132 0.631374
0.715683 0.696972 0.666083
0.751479 0.732626 0.700607
0.787090 0.768096 0.734947
0.822516 0.803381 0.769101
0.857757 0.838481 0.803071
0.892814 0.873396 0.836856
0.927686 0.908127 0.870457
0.714362 0.695656 0.664809
0.750165 0.731318 0.699340
0.785783 0.766794 0.733687
0.821216 0.802086 0.767848
0.856464 0.837193 0.801825
0.891527 0.872115 0.835617
0.926406 0.906852 0.869224
0.961100 0.941405 0.902646
0.993525 0.973725 0.934125
0.142591 0.126051 0.112523
0.181226 0.164544 0.149886
0.219676 0.202853 0.187065
0.257941 0.240976 0.224058
0.296022 0.278916 0.260867
0.333917 0.316670 0.297491
0.371628 0.354239 0.333931
0.409154 0.391624 0.370185
0.446495 0.428824 0.406254
0.218265 0.201447 0.185700
0.256537 0.239577 0.222701
0.294624 0.277523 0.259516
0.332526 0.315284 0.296147
0.370244 0.352860 0.332593
0.407776 0.390252 0.368854
0.445124 0.427458 0.404931
0.482287 0.464480 0.440822
0.519266 0.501317 0.476529
0.293226 0.276130 0.258165
0.331135 0.313898 0.294803
0.368859 0.351481 0.331256
0.406399 0.388879 0.367524
0.443754 0.426093 0.403607
0.480923 0.463121 0.439505
0.517908 0.499965 0.475219
0.554709 0.536624 0.510747
0.591324 0.573098 0.546091
0.367475 0.350102 0.329918
0.405021 0.387507 0.366193
0.442383 0.424727 0.402283
0.479559 0.461762 0.438188
0.516551 0.498613 0.473908
0.553358 0.535279 0.509444
0.589980 0.571760 0.544794
0.626418 0.608056 0.579960
0.662670 0.644167 0.614941
0.441011 0.423361 0.400958
0.478195 0.460403 0.436870
0.515193 0.497261 0.472597
0.552007 0.533933 0.508140
0.588636 0.570421 0.543497
0.625081 0.606724 0.578670
0.661340 0.642842 0.613658
0.697415 0.678775 0.648461
0.733304 0.714524 0.683079
0.513836 0.495908 0.471286
0.550656 0.532587 0.506835
0.587292 0.569082 0.542200
0.623743 0.605392 0.577379
0.660009 0.641517 0.612374
0.696091 0.677457 0.647184
0.731987 0.713212 0.681809
0.767699 0.748783 0.716249
0.803226 0.784168 0.750505
0.585948 0.567742 0.540902
0.622405 0.604059 0.576088
0.658678 0.640191 0.611090
0.694767 0.676138 0.645907
0.730670 0.711900 0.680538
0.766389 0.747477 0.714986
0.801922 0.782870 0.749248
0.837271 0.818077 0.783325
0.872436 0.853100 0.817218
0.657347 0.638865 0.609805
0.693442 0.674819 0.644629
0.729352 0.710587 0.679268
0.765078 0.746172 0.713722
0.800618 0.781571 0.747991
0.835974 0.816785 0.782075
0.871145 0.851815 0.815974
0.906131 0.886660 0.849689
0.940933 0.921320 0.883219
0.728035 0.709275 0.677997
0.763767 0.744866 0.712457
0.799314 0.780272 0.746733
0.834677 0.815493 0.780824
0.869855 0.850530 0.814731
0.904848 0.885381 0.848452
0.939656 0.920048 0.881989
0.974279 0.954530 0.915340
1.000000 0.983750 0.944150
