app/src/main/assets/luts/mono_soft_bw.cube
# V-Cam procedural LUT — mono_soft_bw
# Generated by LutBaker. Do not edit by hand.
TITLE "V-Cam mono_soft_bw"
LUT_3D_SIZE 9
DOMAIN_MIN 0.0 0.0 0.0
DOMAIN_MAX 1.0 1.0 1.0
0.224282 0.224282 0.224282
0.230582 0.224286 0.224286
0.258152 0.224432 0.224432
0.329500 0.226353 0.226353
0.443880 0.239527 0.239527
0.568245 0.290692 0.290692
0.645445 0.406870 0.406870
0.642452 0.546626 0.546626
0.611034 0.610041 0.610041
0.224291 0.230586 0.224291
0.230591 0.230591 0.224295
0.258196 0.230704 0.224483
0.329626 0.232470 0.226536
0.444134 0.245054 0.239985
0.568674 0.294784 0.291485
0.646044 0.409302 0.407956
0.643357 0.548044 0.547753
0.612151 0.611163 0.611160
0.224576 0.258277 0.224576
0.230819 0.258299 0.224602
0.258405 0.258405 0.224724
0.330225 0.259560 0.227403
0.445342 0.269779 0.242143
0.570718 0.313535 0.295219
0.648899 0.420711 0.413109
0.647664 0.554771 0.553110
0.617461 0.616495 0.616482
0.228255 0.330821 0.228255
0.234233 0.330883 0.228344
0.260759 0.331178 0.228769
0.332136 0.332136 0.230144
0.449223 0.337499 0.248895
0.577369 0.367923 0.306861
0.658220 0.456016 0.429626
0.661629 0.576300 0.570367
0.634590 0.633697 0.633649
0.251842 0.451167 0.251842
0.256880 0.451284 0.252040
0.279599 0.451841 0.252980
0.342961 0.453650 0.256007
0.457841 0.457841 0.262871
0.592700 0.471736 0.330888
0.680158 0.530300 0.466938
0.693948 0.624690 0.609745
0.673782 0.673043 0.672920
0.330103 0.595967 0.330103
0.333369 0.596145 0.330373
0.348527 0.596993 0.331655
0.393989 0.599750 0.335785
0.485023 0.606179 0.345158
0.617314 0.617314 0.360544
0.724677 0.641715 0.514957
0.749637 0.704377 0.676210
0.740030 0.739523 0.739288
0.482759 0.727171 0.482759
0.484404 0.727412 0.483053
0.492199 0.728560 0.484453
0.517057 0.732309 0.488999
0.572618 0.741129 0.499541
0.663984 0.756738 0.517654
0.777329 0.777329 0.544480
0.822241 0.802571 0.760720
0.824251 0.823991 0.823634
0.691124 0.794550 0.691124
0.691856 0.794833 0.691539
0.695340 0.796189 0.693522
0.706644 0.800661 0.700036
0.732838 0.811460 0.715619
0.777998 0.831658 0.744177
0.837013 0.861335 0.784743
0.893330 0.893330 0.826820
0.903487 0.903417 0.902951
0.796804 0.797778 0.796804
0.797181 0.798152 0.797179
0.798983 0.799936 0.798969
0.804896 0.805793 0.804847
0.819008 0.819779 0.818880
0.844806 0.845365 0.844547
0.881468 0.881769 0.881055
0.919602 0.919683 0.919064
0.936097 0.936097 0.935516
0.224283 0.224283 0.230579
0.230584 0.224288 0.230584
0.258161 0.224442 0.230664
0.329525 0.226388 0.232326
0.443931 0.239614 0.244692
0.568342 0.290833 0.294139
0.645562 0.407081 0.408430
0.642628 0.546845 0.547137
0.611251 0.610259 0.610261
0.224292 0.230588 0.230588
0.230592 0.230592 0.230592
0.258248 0.230692 0.230692
0.329789 0.232417 0.232417
0.444457 0.244906 0.244906
0.569213 0.294500 0.294500
0.646871 0.408963 0.408963
0.644607 0.547691 0.547691
0.613694 0.610812 0.610812
0.224586 0.258286 0.230803
0.230788 0.258333 0.230788
0.258421 0.258421 0.230886
0.330360 0.259538 0.233223
0.445643 0.269670 0.246985
0.571240 0.313292 0.298167
0.649709 0.420399 0.414080
0.648891 0.554434 0.553034
0.618973 0.616157 0.616125
0.228290 0.330844 0.234180
0.234098 0.330986 0.234098
0.260681 0.331267 0.234492
0.332180 0.332180 0.235771
0.449455 0.337476 0.253495
0.577834 0.367778 0.309604
0.658975 0.455775 0.430487
0.662780 0.576011 0.570248
0.636006 0.633400 0.633265
0.251924 0.451209 0.256767
0.256535 0.451480 0.256535
0.279324 0.452027 0.257443
0.342843 0.453803 0.260367
0.457920 0.457920 0.267004
0.593032 0.471727 0.333251
0.680790 0.530188 0.467570
0.694935 0.624501 0.609534
0.674991 0.672833 0.672480
0.330260 0.596017 0.333257
0.332784 0.596447 0.332784
0.348001 0.597287 0.334046
0.393619 0.600021 0.338114
0.484893 0.606392 0.347349
0.617427 0.617427 0.362514
0.725154 0.641734 0.515193
0.750364 0.704330 0.675860
0.740925 0.739445 0.738763
0.483079 0.727180 0.484429
0.483587 0.727875 0.483587
0.491419 0.729016 0.484977
0.516390 0.732743 0.489491
0.572177 0.741512 0.499958
0.663848 0.757029 0.517939
0.777485 0.777485 0.544647
0.822679 0.802668 0.760222
0.824813 0.824054 0.823015
0.691696 0.794428 0.692011
0.690856 0.795585 0.690856
0.694368 0.796932 0.692836
0.705762 0.801373 0.699342
0.732152 0.812101 0.714906
0.777617 0.832177 0.743438
0.836969 0.861697 0.783982
0.893552 0.893552 0.826051
0.903800 0.903595 0.902239
0.797136 0.797788 0.797137
0.796229 0.799061 0.796229
0.798052 0.800834 0.798020
0.804034 0.806653 0.803899
0.818303 0.820552 0.817935
0.844362 0.845993 0.843611
0.881341 0.882218 0.880139
0.919743 0.919979 0.918176
0.936336 0.936336 0.934642
0.224339 0.224339 0.258072
0.230589 0.224365 0.258094
0.258202 0.224489 0.258202
0.329643 0.226558 0.258821
0.444176 0.240032 0.267888
0.568806 0.291504 0.310050
0.646118 0.408091 0.415805
0.643469 0.547893 0.549575
0.612289 0.611299 0.611313
0.224390 0.230613 0.258116
0.230631 0.230631 0.258193
0.258282 0.230730 0.258282
0.329901 0.232574 0.258956
0.444697 0.245306 0.268136
0.569673 0.295156 0.310435
0.647423 0.409963 0.416358
0.645442 0.548734 0.550148
0.614724 0.611848 0.611881
0.224633 0.258326 0.258326
0.230825 0.258367 0.258367
0.258454 0.258454 0.258454
0.330971 0.259393 0.259393
0.447058 0.269113 0.269113
0.573708 0.312096 0.312096
0.653555 0.418874 0.418874
0.654705 0.552798 0.552798
0.626129 0.614520 0.614520
0.228454 0.330956 0.260482
0.234250 0.331093 0.260463
0.260269 0.331665 0.260269
0.332363 0.332363 0.261151
0.450543 0.337338 0.274604
0.580031 0.367058 0.322617
0.662564 0.454603 0.434750
0.668242 0.574610 0.569801
0.642709 0.631960 0.631530
0.252319 0.451411 0.278993
0.256915 0.451678 0.278832
0.277972 0.452894 0.277972
0.342250 0.454517 0.280457
0.458280 0.458280 0.286121
0.594600 0.471669 0.344540
0.683793 0.529636 0.470735
0.699618 0.623582 0.608634
0.680720 0.671816 0.670463
0.331015 0.596254 0.347887
0.333524 0.596682 0.347479
0.345455 0.598676 0.345455
0.391829 0.601294 0.349237
0.484254 0.607395 0.357837
0.617953 0.617953 0.371990
0.727409 0.641811 0.516505
0.753819 0.704094 0.674277
0.745176 0.739061 0.736325
0.484618 0.727224 0.492303
0.485112 0.727918 0.491512
0.487662 0.731172 0.487662
0.513183 0.734797 0.492025
0.570056 0.743322 0.502136
0.663191 0.758399 0.519486
0.778217 0.778217 0.545629
0.824762 0.803120 0.757909
0.827488 0.824350 0.820111
0.694424 0.793851 0.696178
0.693573 0.795013 0.695061
0.689705 0.800439 0.689705
0.701527 0.804736 0.696164
0.728860 0.815130 0.711629
0.775790 0.834629 0.740022
0.836751 0.863412 0.780445
0.894604 0.894604 0.822457
0.905289 0.904442 0.898876
0.797819 0.798470 0.797828
0.797461 0.799356 0.797482
0.793584 0.805076 0.793584
0.799898 0.810717 0.799465
0.814923 0.824208 0.813513
0.842234 0.848964 0.839224
0.880726 0.884348 0.875833
0.920407 0.921382 0.913993
0.937469 0.937469 0.930523
0.225082 0.225082 0.328630
0.231148 0.225178 0.328696
0.258015 0.225635 0.329010
0.330031 0.227115 0.330031
0.444984 0.241392 0.331985
0.570346 0.293675 0.357055
0.647955 0.411410 0.439141
0.646241 0.551342 0.557544
0.615708 0.614725 0.614776
0.225270 0.231237 0.328759
0.231297 0.231297 0.329002
0.258190 0.231719 0.329300
0.330270 0.233089 0.330270
0.445489 0.246610 0.332317
0.571199 0.297278 0.357510
0.649247 0.413251 0.439755
0.648195 0.552167 0.558178
0.618116 0.615262 0.615402
0.226162 0.258475 0.329372
0.232123 0.258552 0.329585
0.258815 0.258815 0.330519
0.331249 0.259742 0.331249
0.447776 0.270189 0.333738
0.575168 0.314001 0.359528
0.655318 0.422014 0.442569
0.657367 0.556154 0.561118
0.629398 0.617875 0.618319
0.228997 0.331325 0.331325
0.234754 0.331444 0.331444
0.260613 0.331932 0.331932
0.332623 0.332623 0.332623
0.453858 0.336560 0.336560
0.586995 0.364381 0.364381
0.674091 0.450446 0.450446
0.685712 0.569756 0.569756
0.664049 0.627001 0.627001
0.253626 0.452075 0.341083
0.258172 0.452329 0.341085
0.279024 0.453486 0.341022
0.339993 0.456624 0.339993
0.459243 0.459243 0.343311
0.599530 0.471266 0.381509
0.694768 0.526866 0.481359
0.714641 0.620362 0.606962
0.699032 0.668285 0.664881
0.333540 0.597037 0.391687
0.336001 0.597458 0.391452
0.347712 0.599415 0.390264
0.385674 0.605274 0.385674
0.481984 0.610502 0.392462
0.619524 0.619524 0.403692
0.734547 0.641903 0.522944
0.764942 0.703174 0.670143
0.758830 0.737663 0.729160
0.489769 0.727373 0.517000
0.490217 0.728065 0.516364
0.492548 0.731313 0.513264
0.502390 0.741288 0.502390
0.562935 0.749032 0.511358
0.660927 0.762696 0.526687
0.780474 0.780474 0.550912
0.831490 0.804506 0.751119
0.836137 0.825224 0.811212
0.703332 0.792037 0.709083
0.702444 0.793212 0.708086
0.698396 0.798698 0.703305
0.687414 0.815343 0.687414
0.717909 0.824699 0.702454
0.769705 0.842401 0.730202
0.835945 0.868860 0.769994
0.897935 0.897935 0.811607
0.910105 0.907148 0.888341
0.800074 0.800722 0.800107
0.799712 0.801598 0.799804
0.798030 0.805748 0.798325
0.786113 0.823557 0.786113
0.803679 0.835786 0.800129
0.835156 0.858412 0.825841
0.878630 0.891146 0.862571
0.922491 0.925868 0.900997
0.941086 0.941086 0.917686
0.230347 0.230347 0.439015
0.235881 0.230602 0.439153
0.260583 0.231815 0.439811
0.327928 0.235718 0.441952
0.446931 0.244563 0.446931
0.574102 0.298637 0.449164
0.652401 0.419367 0.490434
0.652928 0.559633 0.576365
0.623932 0.622967 0.623105
0.230848 0.236121 0.439284
0.236274 0.236274 0.439779
0.260979 0.237434 0.440424
0.328343 0.241171 0.442520
0.447397 0.249653 0.447397
0.574920 0.302127 0.449747
0.653662 0.421133 0.491174
0.654834 0.560420 0.577139
0.626276 0.623475 0.623870
0.233211 0.261824 0.440562
0.238541 0.261985 0.441033
0.262648 0.262648 0.443214
0.330150 0.265710 0.445104
0.449502 0.272702 0.449502
0.578724 0.318359 0.452411
0.659589 0.429552 0.494605
0.663788 0.564224 0.580744
0.637266 0.625948 0.627443
0.240651 0.331477 0.444631
0.245686 0.331660 0.445025
0.268575 0.332457 0.446844
0.334146 0.334146 0.452083
0.455011 0.337929 0.455011
0.590010 0.367532 0.459737
0.679215 0.455922 0.504219
0.691479 0.577236 0.591562
0.671061 0.634613 0.638255
0.256829 0.453676 0.453676
0.261257 0.453901 0.453901
0.281605 0.454917 0.454917
0.341416 0.457608 0.457608
0.460191 0.460191 0.460191
0.609965 0.469002 0.469002
0.718868 0.518863 0.518863
0.748449 0.611335 0.611335
0.739926 0.658589 0.658589
0.339874 0.598942 0.478743
0.342216 0.599343 0.478788
0.353384 0.601215 0.478950
0.389844 0.606797 0.478913
0.475510 0.616781 0.475510
0.622328 0.622328 0.481565
0.749983 0.641159 0.550720
0.790221 0.700040 0.667367
0.789718 0.733416 0.717848
0.502681 0.727782 0.569860
0.503018 0.728470 0.569537
0.504819 0.731701 0.567943
0.512935 0.741621 0.562146
0.545023 0.761249 0.545023
0.654908 0.771742 0.555980
0.785003 0.785003 0.575261
0.846886 0.807173 0.740428
0.856004 0.826680 0.794388
0.722592 0.789178 0.734233
0.722395 0.789945 0.734052
0.718877 0.795036 0.731231
0.706462 0.812073 0.719596
0.690864 0.845402 0.690864
0.754636 0.859322 0.715990
0.833479 0.880775 0.752781
0.905160 0.905160 0.792054
0.921308 0.913166 0.865966
0.805525 0.806165 0.805616
0.805154 0.807019 0.805416
0.803430 0.811061 0.804434
0.798357 0.823929 0.800880
0.775849 0.861025 0.775849
0.817674 0.879191 0.800758
0.873137 0.906234 0.836743
0.926884 0.935847 0.874840
0.949108 0.949108 0.891513
0.252277 0.252277 0.551216
0.256630 0.252775 0.551464
0.276422 0.255137 0.552647
0.332731 0.262684 0.556499
0.437528 0.279541 0.565501
0.581208 0.306732 0.581208
0.666919 0.427863 0.574963
0.665387 0.574984 0.610078
0.639179 0.638247 0.638542
0.253256 0.257104 0.551694
0.257395 0.257395 0.552547
0.277168 0.259691 0.553717
0.333446 0.267033 0.557525
0.438240 0.283463 0.566425
0.581957 0.310040 0.581957
0.668190 0.429450 0.575893
0.667208 0.575702 0.611087
0.641410 0.638702 0.639557
0.257862 0.278934 0.553954
0.261886 0.279223 0.554786
0.280498 0.280498 0.558695
0.336676 0.286974 0.562299
0.441503 0.301580 0.570724
0.585428 0.325477 0.585428
0.674151 0.437045 0.580229
0.675764 0.579179 0.615817
0.651872 0.640924 0.644313
0.272220 0.340251 0.561127
0.275903 0.340540 0.561890
0.293047 0.341841 0.565475
0.345160 0.345160 0.576538
0.450642 0.355452 0.583496
0.595637 0.372675 0.595637
0.692483 0.462117 0.593221
0.702257 0.591127 0.630290
0.684113 0.648756 0.658926
0.302974 0.452373 0.576930
0.306002 0.452685 0.577543
0.320260 0.454114 0.580416
0.365044 0.458116 0.589208
0.463540 0.463540 0.606315
0.613177 0.471457 0.613177
0.729054 0.522916 0.616957
0.756877 0.622783 0.658746
0.750049 0.670729 0.688008
0.352695 0.602604 0.602604
0.354803 0.602972 0.602972
0.364907 0.604684 0.604684
0.398381 0.609756 0.609756
0.479252 0.618595 0.618595
0.624233 0.624233 0.624233
0.772580 0.636504 0.636504
0.832283 0.690479 0.690479
0.840884 0.721924 0.721924
0.528628 0.728811 0.649078
0.528756 0.729493 0.649209
0.529558 0.732694 0.649790
0.534389 0.742514 0.651164
0.559067 0.761901 0.651322
0.642256 0.784037 0.642256
0.790445 0.790445 0.651975
0.876680 0.808381 0.737096
0.889635 0.826826 0.783435
0.733266 0.798374 0.758100
0.733045 0.799101 0.758140
0.732051 0.802541 0.758305
0.729539 0.813473 0.758536
0.718441 0.842322 0.751351
0.725099 0.884945 0.725099
0.827002 0.898891 0.751908
0.915817 0.915817 0.782130
0.941028 0.922374 0.837043
0.815733 0.816360 0.815932
0.815346 0.817172 0.815922
0.813543 0.821018 0.815850
0.808194 0.833267 0.815334
0.799267 0.860322 0.812273
0.783375 0.911495 0.783375
0.861223 0.930020 0.813800
0.932776 0.951549 0.847206
0.961582 0.961582 0.862171
0.306717 0.306717 0.604993
0.309408 0.307439 0.605402
0.321952 0.310861 0.607353
0.360038 0.321799 0.613710
0.437932 0.346277 0.628595
0.554166 0.386193 0.654746
0.689474 0.434645 0.689474
0.683540 0.597141 0.656486
0.661227 0.660339 0.660853
0.308146 0.310111 0.605749
0.310516 0.310516 0.607199
0.323047 0.313883 0.609134
0.361105 0.324652 0.615439
0.438983 0.348781 0.630203
0.555246 0.388199 0.656147
0.690607 0.436124 0.690607
0.685241 0.597765 0.657794
0.663299 0.660722 0.662213
0.314873 0.325815 0.609316
0.317154 0.326217 0.610743
0.328039 0.328039 0.617477
0.365997 0.338050 0.623538
0.443842 0.360606 0.637740
0.560278 0.397745 0.662715
0.695912 0.443226 0.695912
0.693234 0.600792 0.663942
0.673030 0.662594 0.668602
0.335924 0.372535 0.620536
0.337942 0.372935 0.621892
0.347621 0.374761 0.628293
0.379789 0.379789 0.648368
0.457976 0.398056 0.660847
0.575367 0.428714 0.682839
0.712114 0.466937 0.712114
0.718027 0.611269 0.682968
0.703097 0.669267 0.688392
0.381674 0.464708 0.644712
0.383179 0.465128 0.645921
0.390479 0.467072 0.651620
0.415624 0.472691 0.669457
0.481514 0.481514 0.706834
0.603209 0.500986 0.722689
0.743762 0.525690 0.743762
0.769284 0.639504 0.721884
0.764879 0.688434 0.728987
0.458206 0.594938 0.682362
0.458962 0.595438 0.683343
0.462741 0.597772 0.687958
0.477016 0.604791 0.702317
0.521435 0.617689 0.731863
0.628457 0.628457 0.769841
0.779324 0.637859 0.779324
0.849142 0.694880 0.774620
0.850694 0.734570 0.782633
0.554847 0.735972 0.735972
0.555263 0.736468 0.736468
0.557345 0.738810 0.738810
0.565312 0.746143 0.746143
0.583279 0.763757 0.763757
0.650392 0.785046 0.785046
0.792970 0.792970 0.792970
0.908090 0.804053 0.804053
0.934664 0.819007 0.819007
0.748880 0.811907 0.791797
0.748625 0.812577 0.792128
0.747466 0.815750 0.793688
0.744374 0.825832 0.798524
0.741724 0.847917 0.808289
0.747409 0.885056 0.817531
0.813347 0.917433 0.813347
0.925539 0.925539 0.826167
0.962645 0.930004 0.851550
0.830732 0.831341 0.831085
0.830322 0.832094 0.831346
0.828405 0.835661 0.832575
0.822653 0.847032 0.836351
0.812595 0.872175 0.843749
0.807272 0.912616 0.850113
0.839580 0.956423 0.839580
0.936228 0.968492 0.858970
0.974451 0.974451 0.868144
0.385368 0.385368 0.532922
0.386725 0.386228 0.533579
0.393149 0.390309 0.536707
0.413625 0.403430 0.546872
0.459369 0.433240 0.570538
0.534809 0.483301 0.611830
0.630125 0.547015 0.666593
0.719072 0.606210 0.719072
0.684443 0.683601 0.684333
0.387089 0.387584 0.534025
0.388038 0.388038 0.536765
0.394465 0.392082 0.539865
0.414954 0.405090 0.549940
0.460741 0.434662 0.573405
0.536278 0.484365 0.614370
0.631749 0.547675 0.668734
0.720852 0.606521 0.720852
0.686358 0.683910 0.686038
0.395223 0.398002 0.539197
0.396116 0.398457 0.541904
0.400541 0.400541 0.554610
0.421106 0.413023 0.564271
0.467114 0.441480 0.586812
0.543139 0.489502 0.626267
0.639362 0.550897 0.678773
0.729200 0.608081 0.729200
0.695355 0.685432 0.694052
0.421032 0.430405 0.555144
0.421755 0.430870 0.557752
0.425373 0.433009 0.569994
0.439077 0.439077 0.607872
0.486038 0.464145 0.627741
0.563900 0.506936 0.662747
0.662699 0.562229 0.709650
0.754880 0.614029 0.754880
0.723219 0.690941 0.718908
0.478525 0.498841 0.589050
0.479077 0.499385 0.590940
0.481212 0.501784 0.601669
0.489353 0.508673 0.636884
0.520096 0.520096 0.709644
0.603587 0.552041 0.736156
0.709115 0.594013 0.771938
0.806714 0.633609 0.806714
0.782571 0.705837 0.771701
0.566450 0.602212 0.658448
0.566679 0.602776 0.659890
0.567873 0.605434 0.666700
0.572928 0.613676 0.688155
0.587505 0.630197 0.743751
0.645385 0.645385 0.831694
0.765248 0.668055 0.852982
0.869681 0.693161 0.869681
0.873574 0.737983 0.850335
0.672039 0.722712 0.746108
0.671964 0.723303 0.747075
0.671680 0.726095 0.751652
0.671643 0.734874 0.766151
0.677317 0.753507 0.797780
0.701197 0.780822 0.855351
0.796401 0.796401 0.907713
0.913409 0.806620 0.913409
0.943991 0.822778 0.908800
0.765541 0.826467 0.826467
0.765251 0.827079 0.827079
0.763922 0.829974 0.829974
0.760233 0.839175 0.839175
0.755925 0.859301 0.859301
0.766338 0.889631 0.889631
0.820316 0.919537 0.919537
0.929018 0.929018 0.929018
0.977845 0.930986 0.930986
0.846844 0.847434 0.847357
0.846409 0.848126 0.847901
0.844370 0.851408 0.850480
0.838193 0.861873 0.858670
0.826941 0.885026 0.876548
0.821359 0.921034 0.903197
0.849572 0.959659 0.927321
0.932980 0.979569 0.932980
0.981448 0.981448 0.935247
0.425104 0.425104 0.426898
0.426015 0.426010 0.427801
0.430342 0.430317 0.432092
0.444294 0.444206 0.445933
0.476226 0.475993 0.477623
0.530553 0.530079 0.531576
0.600968 0.600178 0.601543
0.667680 0.666579 0.667846
0.694754 0.693523 0.694754
0.426906 0.426910 0.428475
0.427396 0.427396 0.432573
0.431732 0.431673 0.436806
0.445714 0.445468 0.450466
0.477722 0.477055 0.481778
0.532206 0.530834 0.535177
0.602870 0.600574 0.604540
0.669861 0.666659 0.670342
0.697058 0.693478 0.697058
0.435294 0.435315 0.436826
0.435824 0.435875 0.440263
0.438173 0.438173 0.458527
0.452304 0.451529 0.471395
0.484689 0.482172 0.501034
0.539929 0.534494 0.551944
0.611777 0.602528 0.618548
0.680079 0.667099 0.682030
0.707854 0.693320 0.707854
0.461728 0.461801 0.463153
0.462161 0.462364 0.466292
0.464350 0.464993 0.480922
0.471786 0.471786 0.533051
0.505523 0.499468 0.558342
0.563352 0.547141 0.602493
0.639050 0.609634 0.661220
0.711425 0.669237 0.717814
0.740931 0.693481 0.740931
0.519337 0.519513 0.520566
0.519584 0.520087 0.523152
0.520869 0.522779 0.535267
0.526356 0.531033 0.572539
0.543945 0.543945 0.668848
0.608570 0.581387 0.701689
0.693351 0.631193 0.746117
0.774286 0.679073 0.789430
0.807280 0.698582 0.807280
0.610663 0.610978 0.611655
0.610668 0.611577 0.613551
0.610775 0.614401 0.622480
0.612160 0.623191 0.650410
0.622049 0.641274 0.709700
0.658272 0.658272 0.829047
0.760091 0.687939 0.856228
0.850684 0.721104 0.876933
0.885124 0.736629 0.885124
0.720133 0.720582 0.720908
0.719906 0.721212 0.722164
0.718889 0.724188 0.728097
0.716322 0.733560 0.746852
0.715293 0.753541 0.787549
0.730650 0.782074 0.854302
0.800913 0.800913 0.935052
0.906656 0.816693 0.943260
0.947519 0.824355 0.947519
0.816320 0.816864 0.816946
0.815931 0.817516 0.817755
0.814124 0.820607 0.821590
0.808759 0.830426 0.833804
0.799788 0.851934 0.860784
0.799583 0.884534 0.902879
0.836660 0.917107 0.950335
0.929736 0.929736 0.976929
0.978551 0.931738 0.978551
0.853939 0.854521 0.854521
0.853493 0.855188 0.855188
0.851401 0.858348 0.858348
0.845038 0.868427 0.868427
0.833268 0.890723 0.890723
0.826465 0.925341 0.925341
0.853878 0.961538 0.961538
0.933855 0.980254 0.980254
0.982207 0.982207 0.982207
