app/src/main/assets/luts/mono_high_contrast_bw.cube
# V-Cam procedural LUT — mono_high_contrast_bw
# Generated by LutBaker. Do not edit by hand.
TITLE "V-Cam mono_high_contrast_bw"
LUT_3D_SIZE 5
DOMAIN_MIN 0.0 0.0 0.0
DOMAIN_MAX 1.0 1.0 1.0
0.000000 0.000000 0.000000
0.000000 0.000000 0.000000
0.003720 0.003720 0.003720
0.045580 0.045580 0.045580
0.087440 0.087440 0.087440
0.002180 0.002180 0.002180
0.044040 0.044040 0.044040
0.085900 0.085900 0.085900
0.211040 0.211040 0.211040
0.378480 0.378480 0.378480
0.084360 0.084360 0.084360
0.204880 0.204880 0.204880
0.372320 0.372320 0.372320
0.539760 0.539760 0.539760
0.707200 0.707200 0.707200
0.366160 0.366160 0.366160
0.533600 0.533600 0.533600
0.701040 0.701040 0.701040
0.868480 0.868480 0.868480
0.933980 0.933980 0.933980
0.694880 0.694880 0.694880
0.862320 0.862320 0.862320
0.932440 0.932440 0.932440
0.974300 0.974300 0.974300
1.000000 1.000000 1.000000
0.000000 0.000000 0.000000
0.000000 0.000000 0.000000
0.019680 0.019680 0.019680
0.061540 0.061540 0.061540
0.113600 0.113600 0.113600
0.018140 0.018140 0.018140
0.060000 0.060000 0.060000
0.107440 0.107440 0.107440
0.274880 0.274880 0.274880
0.442320 0.442320 0.442320
0.101280 0.101280 0.101280
0.268720 0.268720 0.268720
0.436160 0.436160 0.436160
0.603600 0.603600 0.603600
0.771040 0.771040 0.771040
0.430000 0.430000 0.430000
0.597440 0.597440 0.597440
0.764880 0.764880 0.764880
0.908080 0.908080 0.908080
0.949940 0.949940 0.949940
0.758720 0.758720 0.758720
0.906540 0.906540 0.906540
0.948400 0.948400 0.948400
0.990260 0.990260 0.990260
1.000000 1.000000 1.000000
0.000000 0.000000 0.000000
0.000000 0.000000 0.000000
0.035640 0.035640 0.035640
0.077500 0.077500 0.077500
0.177440 0.177440 0.177440
0.034100 0.034100 0.034100
0.075960 0.075960 0.075960
0.171280 0.171280 0.171280
0.338720 0.338720 0.338720
0.506160 0.506160 0.506160
0.165120 0.165120 0.165120
0.332560 0.332560 0.332560
0.500000 0.500000 0.500000
0.667440 0.667440 0.667440
0.834880 0.834880 0.834880
0.493840 0.493840 0.493840
0.661280 0.661280 0.661280
0.828720 0.828720 0.828720
0.924040 0.924040 0.924040
0.965900 0.965900 0.965900
0.822560 0.822560 0.822560
0.922500 0.922500 0.922500
0.964360 0.964360 0.964360
1.000000 1.000000 1.000000
1.000000 1.000000 1.000000
0.000000 0.000000 0.000000
0.009740 0.009740 0.009740
0.051600 0.051600 0.051600
0.093460 0.093460 0.093460
0.241280 0.241280 0.241280
0.050060 0.050060 0.050060
0.091920 0.091920 0.091920
0.235120 0.235120 0.235120
0.402560 0.402560 0.402560
0.570000 0.570000 0.570000
0.228960 0.228960 0.228960
0.396400 0.396400 0.396400
0.563840 0.563840 0.563840
0.731280 0.731280 0.731280
0.898720 0.898720 0.898720
0.557680 0.557680 0.557680
0.725120 0.725120 0.725120
0.892560 0.892560 0.892560
0.940000 0.940000 0.940000
0.981860 0.981860 0.981860
0.886400 0.886400 0.886400
0.938460 0.938460 0.938460
0.980320 0.980320 0.980320
1.000000 1.000000 1.000000
1.000000 1.000000 1.000000
0.000000 0.000000 0.000000
0.025700 0.025700 0.025700
0.067560 0.067560 0.067560
0.137680 0.137680 0.137680
0.305120 0.305120 0.305120
0.066020 0.066020 0.066020
0.131520 0.131520 0.131520
0.298960 0.298960 0.298960
0.466400 0.466400 0.466400
0.633840 0.633840 0.633840
0.292800 0.292800 0.292800
0.460240 0.460240 0.460240
0.627680 0.627680 0.627680
0.795120 0.795120 0.795120
0.915640 0.915640 0.915640
0.621520 0.621520 0.621520
0.788960 0.788960 0.788960
0.914100 0.914100 0.914100
0.955960 0.955960 0.955960
0.997820 0.997820 0.997820
0.912560 0.912560 0.912560
0.954420 0.954420 0.954420
0.996280 0.996280 0.996280
1.000000 1.000000 1.000000
1.000000 1.000000 1.000000
