app/src/main/assets/luts/mono_high_contrast_bw.cube
# V-Cam procedural LUT — mono_high_contrast_bw
# Generated by LutBaker. Do not edit by hand.
TITLE "V-Cam mono_high_contrast_bw"
LUT_3D_SIZE 9
DOMAIN_MIN 0.0 0.0 0.0
DOMAIN_MAX 1.0 1.0 1.0
0.000000 0.000000 0.000000
0.000000 0.000000 0.000000
0.000000 0.000000 0.000000
0.000000 0.000000 0.000000
0.003720 0.003720 0.003720
0.024650 0.024650 0.024650
0.045580 0.045580 0.045580
0.066510 0.066510 0.066510
0.087440 0.087440 0.087440
0.000000 0.000000 0.000000
0.000000 0.000000 0.000000
0.002950 0.002950 0.002950
0.023880 0.023880 0.023880
0.044810 0.044810 0.044810
0.065740 0.065740 0.065740
0.086670 0.086670 0.086670
0.130400 0.130400 0.130400
0.214120 0.214120 0.214120
0.002180 0.002180 0.002180
0.023110 0.023110 0.023110
0.044040 0.044040 0.044040
0.064970 0.064970 0.064970
0.085900 0.085900 0.085900
0.127320 0.127320 0.127320
0.211040 0.211040 0.211040
0.294760 0.294760 0.294760
0.378480 0.378480 0.378480
0.043270 0.043270 0.043270
0.064200 0.064200 0.064200
0.085130 0.085130 0.085130
0.124240 0.124240 0.124240
0.207960 0.207960 0.207960
0.291680 0.291680 0.291680
0.375400 0.375400 0.375400
0.459120 0.459120 0.459120
0.542840 0.542840 0.542840
0.084360 0.084360 0.084360
0.121160 0.121160 0.121160
0.204880 0.204880 0.204880
0.288600 0.288600 0.288600
0.372320 0.372320 0.372320
0.456040 0.456040 0.456040
0.539760 0.539760 0.539760
0.623480 0.623480 0.623480
0.707200 0.707200 0.707200
0.201800 0.201800 0.201800
0.285520 0.285520 0.285520
0.369240 0.369240 0.369240
0.452960 0.452960 0.452960
0.536680 0.536680 0.536680
0.620400 0.620400 0.620400
0.704120 0.704120 0.704120
0.787840 0.787840 0.787840
0.871560 0.871560 0.871560
0.366160 0.366160 0.366160
0.449880 0.449880 0.449880
0.533600 0.533600 0.533600
0.617320 0.617320 0.617320
0.701040 0.701040 0.701040
0.784760 0.784760 0.784760
0.868480 0.868480 0.868480
0.913050 0.913050 0.913050
0.933980 0.933980 0.933980
0.530520 0.530520 0.530520
0.614240 0.614240 0.614240
0.697960 0.697960 0.697960
0.781680 0.781680 0.781680
0.865400 0.865400 0.865400
0.912280 0.912280 0.912280
0.933210 0.933210 0.933210
0.954140 0.954140 0.954140
0.975070 0.975070 0.975070
0.694880 0.694880 0.694880
0.778600 0.778600 0.778600
0.862320 0.862320 0.862320
0.911510 0.911510 0.911510
0.932440 0.932440 0.932440
0.953370 0.953370 0.953370
0.974300 0.974300 0.974300
0.995230 0.995230 0.995230
1.000000 1.000000 1.000000
0.000000 0.000000 0.000000
0.000000 0.000000 0.000000
0.000000 0.000000 0.000000
0.000000 0.000000 0.000000
0.011700 0.011700 0.011700
0.032630 0.032630 0.032630
0.053560 0.053560 0.053560
0.074490 0.074490 0.074490
0.095420 0.095420 0.095420
0.000000 0.000000 0.000000
0.000000 0.000000 0.000000
0.010930 0.010930 0.010930
0.031860 0.031860 0.031860
0.052790 0.052790 0.052790
0.073720 0.073720 0.073720
0.094650 0.094650 0.094650
0.162320 0.162320 0.162320
0.246040 0.246040 0.246040
0.010160 0.010160 0.010160
0.031090 0.031090 0.031090
0.052020 0.052020 0.052020
0.072950 0.072950 0.072950
0.093880 0.093880 0.093880
0.159240 0.159240 0.159240
0.242960 0.242960 0.242960
0.326680 0.326680 0.326680
0.410400 0.410400 0.410400
0.051250 0.051250 0.051250
0.072180 0.072180 0.072180
0.093110 0.093110 0.093110
0.156160 0.156160 0.156160
0.239880 0.239880 0.239880
0.323600 0.323600 0.323600
0.407320 0.407320 0.407320
0.491040 0.491040 0.491040
0.574760 0.574760 0.574760
0.092340 0.092340 0.092340
0.153080 0.153080 0.153080
0.236800 0.236800 0.236800
0.320520 0.320520 0.320520
0.404240 0.404240 0.404240
0.487960 0.487960 0.487960
0.571680 0.571680 0.571680
0.655400 0.655400 0.655400
0.739120 0.739120 0.739120
0.233720 0.233720 0.233720
0.317440 0.317440 0.317440
0.401160 0.401160 0.401160
0.484880 0.484880 0.484880
0.568600 0.568600 0.568600
0.652320 0.652320 0.652320
0.736040 0.736040 0.736040
0.819760 0.819760 0.819760
0.900870 0.900870 0.900870
0.398080 0.398080 0.398080
0.481800 0.481800 0.481800
0.565520 0.565520 0.565520
0.649240 0.649240 0.649240
0.732960 0.732960 0.732960
0.816680 0.816680 0.816680
0.900100 0.900100 0.900100
0.921030 0.921030 0.921030
0.941960 0.941960 0.941960
0.562440 0.562440 0.562440
0.646160 0.646160 0.646160
0.729880 0.729880 0.729880
0.813600 0.813600 0.813600
0.897320 0.897320 0.897320
0.920260 0.920260 0.920260
0.941190 0.941190 0.941190
0.962120 0.962120 0.962120
0.983050 0.983050 0.983050
0.726800 0.726800 0.726800
0.810520 0.810520 0.810520
0.894240 0.894240 0.894240
0.919490 0.919490 0.919490
0.940420 0.940420 0.940420
0.961350 0.961350 0.961350
0.982280 0.982280 0.982280
1.000000 1.000000 1.000000
1.000000 1.000000 1.000000
0.000000 0.000000 0.000000
0.000000 0.000000 0.000000
0.000000 0.000000 0.000000
0.000000 0.000000 0.000000
0.019680 0.019680 0.019680
0.040610 0.040610 0.040610
0.061540 0.061540 0.061540
0.082470 0.082470 0.082470
0.113600 0.113600 0.113600
0.000000 0.000000 0.000000
0.000000 0.000000 0.000000
0.018910 0.018910 0.018910
0.039840 0.039840 0.039840
0.060770 0.060770 0.060770
0.081700 0.081700 0.081700
0.110520 0.110520 0.110520
0.194240 0.194240 0.194240
0.277960 0.277960 0.277960
0.018140 0.018140 0.018140
0.039070 0.039070 0.039070
0.060000 0.060000 0.060000
0.080930 0.080930 0.080930
0.107440 0.107440 0.107440
0.191160 0.191160 0.191160
0.274880 0.274880 0.274880
0.358600 0.358600 0.358600
0.442320 0.442320 0.442320
0.059230 0.059230 0.059230
0.080160 0.080160 0.080160
0.104360 0.104360 0.104360
0.188080 0.188080 0.188080
0.271800 0.271800 0.271800
0.355520 0.355520 0.355520
0.439240 0.439240 0.439240
0.522960 0.522960 0.522960
0.606680 0.606680 0.606680
0.101280 0.101280 0.101280
0.185000 0.185000 0.185000
0.268720 0.268720 0.268720
0.352440 0.352440 0.352440
0.436160 0.436160 0.436160
0.519880 0.519880 0.519880
0.603600 0.603600 0.603600
0.687320 0.687320 0.687320
0.771040 0.771040 0.771040
0.265640 0.265640 0.265640
0.349360 0.349360 0.349360
0.433080 0.433080 0.433080
0.516800 0.516800 0.516800
0.600520 0.600520 0.600520
0.684240 0.684240 0.684240
0.767960 0.767960 0.767960
0.851680 0.851680 0.851680
0.908850 0.908850 0.908850
0.430000 0.430000 0.430000
0.513720 0.513720 0.513720
0.597440 0.597440 0.597440
0.681160 0.681160 0.681160
0.764880 0.764880 0.764880
0.848600 0.848600 0.848600
0.908080 0.908080 0.908080
0.929010 0.929010 0.929010
0.949940 0.949940 0.949940
0.594360 0.594360 0.594360
0.678080 0.678080 0.678080
0.761800 0.761800 0.761800
0.845520 0.845520 0.845520
0.907310 0.907310 0.907310
0.928240 0.928240 0.928240
0.949170 0.949170 0.949170
0.970100 0.970100 0.970100
0.991030 0.991030 0.991030
0.758720 0.758720 0.758720
0.842440 0.842440 0.842440
0.906540 0.906540 0.906540
0.927470 0.927470 0.927470
0.948400 0.948400 0.948400
0.969330 0.969330 0.969330
0.990260 0.990260 0.990260
1.000000 1.000000 1.000000
1.000000 1.000000 1.000000
0.000000 0.000000 0.000000
0.000000 0.000000 0.000000
0.000000 0.000000 0.000000
0.006730 0.006730 0.006730
0.027660 0.027660 0.027660
0.048590 0.048590 0.048590
0.069520 0.069520 0.069520
0.090450 0.090450 0.090450
0.145520 0.145520 0.145520
0.000000 0.000000 0.000000
0.005960 0.005960 0.005960
0.026890 0.026890 0.026890
0.047820 0.047820 0.047820
0.068750 0.068750 0.068750
0.089680 0.089680 0.089680
0.142440 0.142440 0.142440
0.226160 0.226160 0.226160
0.309880 0.309880 0.309880
0.026120 0.026120 0.026120
0.047050 0.047050 0.047050
0.067980 0.067980 0.067980
0.088910 0.088910 0.088910
0.139360 0.139360 0.139360
0.223080 0.223080 0.223080
0.306800 0.306800 0.306800
0.390520 0.390520 0.390520
0.474240 0.474240 0.474240
0.067210 0.067210 0.067210
0.088140 0.088140 0.088140
0.136280 0.136280 0.136280
0.220000 0.220000 0.220000
0.303720 0.303720 0.303720
0.387440 0.387440 0.387440
0.471160 0.471160 0.471160
0.554880 0.554880 0.554880
0.638600 0.638600 0.638600
0.133200 0.133200 0.133200
0.216920 0.216920 0.216920
0.300640 0.300640 0.300640
0.384360 0.384360 0.384360
0.468080 0.468080 0.468080
0.551800 0.551800 0.551800
0.635520 0.635520 0.635520
0.719240 0.719240 0.719240
0.802960 0.802960 0.802960
0.297560 0.297560 0.297560
0.381280 0.381280 0.381280
0.465000 0.465000 0.465000
0.548720 0.548720 0.548720
0.632440 0.632440 0.632440
0.716160 0.716160 0.716160
0.799880 0.799880 0.799880
0.883600 0.883600 0.883600
0.916830 0.916830 0.916830
0.461920 0.461920 0.461920
0.545640 0.545640 0.545640
0.629360 0.629360 0.629360
0.713080 0.713080 0.713080
0.796800 0.796800 0.796800
0.880520 0.880520 0.880520
0.916060 0.916060 0.916060
0.936990 0.936990 0.936990
0.957920 0.957920 0.957920
0.626280 0.626280 0.626280
0.710000 0.710000 0.710000
0.793720 0.793720 0.793720
0.877440 0.877440 0.877440
0.915290 0.915290 0.915290
0.936220 0.936220 0.936220
0.957150 0.957150 0.957150
0.978080 0.978080 0.978080
0.999010 0.999010 0.999010
0.790640 0.790640 0.790640
0.874360 0.874360 0.874360
0.914520 0.914520 0.914520
0.935450 0.935450 0.935450
0.956380 0.956380 0.956380
0.977310 0.977310 0.977310
0.998240 0.998240 0.998240
1.000000 1.000000 1.000000
1.000000 1.000000 1.000000
0.000000 0.000000 0.000000
0.000000 0.000000 0.000000
0.000000 0.000000 0.000000
0.014710 0.014710 0.014710
0.035640 0.035640 0.035640
0.056570 0.056570 0.056570
0.077500 0.077500 0.077500
0.098430 0.098430 0.098430
0.177440 0.177440 0.177440
0.000000 0.000000 0.000000
0.013940 0.013940 0.013940
0.034870 0.034870 0.034870
0.055800 0.055800 0.055800
0.076730 0.076730 0.076730
0.097660 0.097660 0.097660
0.174360 0.174360 0.174360
0.258080 0.258080 0.258080
0.341800 0.341800 0.341800
0.034100 0.034100 0.034100
0.055030 0.055030 0.055030
0.075960 0.075960 0.075960
0.096890 0.096890 0.096890
0.171280 0.171280 0.171280
0.255000 0.255000 0.255000
0.338720 0.338720 0.338720
0.422440 0.422440 0.422440
0.506160 0.506160 0.506160
0.075190 0.075190 0.075190
0.096120 0.096120 0.096120
0.168200 0.168200 0.168200
0.251920 0.251920 0.251920
0.335640 0.335640 0.335640
0.419360 0.419360 0.419360
0.503080 0.503080 0.503080
0.586800 0.586800 0.586800
0.670520 0.670520 0.670520
0.165120 0.165120 0.165120
0.248840 0.248840 0.248840
0.332560 0.332560 0.332560
0.416280 0.416280 0.416280
0.500000 0.500000 0.500000
0.583720 0.583720 0.583720
0.667440 0.667440 0.667440
0.751160 0.751160 0.751160
0.834880 0.834880 0.834880
0.329480 0.329480 0.329480
0.413200 0.413200 0.413200
0.496920 0.496920 0.496920
0.580640 0.580640 0.580640
0.664360 0.664360 0.664360
0.748080 0.748080 0.748080
0.831800 0.831800 0.831800
0.903880 0.903880 0.903880
0.924810 0.924810 0.924810
0.493840 0.493840 0.493840
0.577560 0.577560 0.577560
0.661280 0.661280 0.661280
0.745000 0.745000 0.745000
0.828720 0.828720 0.828720
0.903110 0.903110 0.903110
0.924040 0.924040 0.924040
0.944970 0.944970 0.944970
0.965900 0.965900 0.965900
0.658200 0.658200 0.658200
0.741920 0.741920 0.741920
0.825640 0.825640 0.825640
0.902340 0.902340 0.902340
0.923270 0.923270 0.923270
0.944200 0.944200 0.944200
0.965130 0.965130 0.965130
0.986060 0.986060 0.986060
1.000000 1.000000 1.000000
0.822560 0.822560 0.822560
0.901570 0.901570 0.901570
0.922500 0.922500 0.922500
0.943430 0.943430 0.943430
0.964360 0.964360 0.964360
0.985290 0.985290 0.985290
1.000000 1.000000 1.000000
1.000000 1.000000 1.000000
1.000000 1.000000 1.000000
0.000000 0.000000 0.000000
0.000000 0.000000 0.000000
0.001760 0.001760 0.001760
0.022690 0.022690 0.022690
0.043620 0.043620 0.043620
0.064550 0.064550 0.064550
0.085480 0.085480 0.085480
0.125640 0.125640 0.125640
0.209360 0.209360 0.209360
0.000990 0.000990 0.000990
0.021920 0.021920 0.021920
0.042850 0.042850 0.042850
0.063780 0.063780 0.063780
0.084710 0.084710 0.084710
0.122560 0.122560 0.122560
0.206280 0.206280 0.206280
0.290000 0.290000 0.290000
0.373720 0.373720 0.373720
0.042080 0.042080 0.042080
0.063010 0.063010 0.063010
0.083940 0.083940 0.083940
0.119480 0.119480 0.119480
0.203200 0.203200 0.203200
0.286920 0.286920 0.286920
0.370640 0.370640 0.370640
0.454360 0.454360 0.454360
0.538080 0.538080 0.538080
0.083170 0.083170 0.083170
0.116400 0.116400 0.116400
0.200120 0.200120 0.200120
0.283840 0.283840 0.283840
0.367560 0.367560 0.367560
0.451280 0.451280 0.451280
0.535000 0.535000 0.535000
0.618720 0.618720 0.618720
0.702440 0.702440 0.702440
0.197040 0.197040 0.197040
0.280760 0.280760 0.280760
0.364480 0.364480 0.364480
0.448200 0.448200 0.448200
0.531920 0.531920 0.531920
0.615640 0.615640 0.615640
0.699360 0.699360 0.699360
0.783080 0.783080 0.783080
0.866800 0.866800 0.866800
0.361400 0.361400 0.361400
0.445120 0.445120 0.445120
0.528840 0.528840 0.528840
0.612560 0.612560 0.612560
0.696280 0.696280 0.696280
0.780000 0.780000 0.780000
0.863720 0.863720 0.863720
0.911860 0.911860 0.911860
0.932790 0.932790 0.932790
0.525760 0.525760 0.525760
0.609480 0.609480 0.609480
0.693200 0.693200 0.693200
0.776920 0.776920 0.776920
0.860640 0.860640 0.860640
0.911090 0.911090 0.911090
0.932020 0.932020 0.932020
0.952950 0.952950 0.952950
0.973880 0.973880 0.973880
0.690120 0.690120 0.690120
0.773840 0.773840 0.773840
0.857560 0.857560 0.857560
0.910320 0.910320 0.910320
0.931250 0.931250 0.931250
0.952180 0.952180 0.952180
0.973110 0.973110 0.973110
0.994040 0.994040 0.994040
1.000000 1.000000 1.000000
0.854480 0.854480 0.854480
0.909550 0.909550 0.909550
0.930480 0.930480 0.930480
0.951410 0.951410 0.951410
0.972340 0.972340 0.972340
0.993270 0.993270 0.993270
1.000000 1.000000 1.000000
1.000000 1.000000 1.000000
1.000000 1.000000 1.000000
0.000000 0.000000 0.000000
0.000000 0.000000 0.000000
0.009740 0.009740 0.009740
0.030670 0.030670 0.030670
0.051600 0.051600 0.051600
0.072530 0.072530 0.072530
0.093460 0.093460 0.093460
0.157560 0.157560 0.157560
0.241280 0.241280 0.241280
0.008970 0.008970 0.008970
0.029900 0.029900 0.029900
0.050830 0.050830 0.050830
0.071760 0.071760 0.071760
0.092690 0.092690 0.092690
0.154480 0.154480 0.154480
0.238200 0.238200 0.238200
0.321920 0.321920 0.321920
0.405640 0.405640 0.405640
0.050060 0.050060 0.050060
0.070990 0.070990 0.070990
0.091920 0.091920 0.091920
0.151400 0.151400 0.151400
0.235120 0.235120 0.235120
0.318840 0.318840 0.318840
0.402560 0.402560 0.402560
0.486280 0.486280 0.486280
0.570000 0.570000 0.570000
0.091150 0.091150 0.091150
0.148320 0.148320 0.148320
0.232040 0.232040 0.232040
0.315760 0.315760 0.315760
0.399480 0.399480 0.399480
0.483200 0.483200 0.483200
0.566920 0.566920 0.566920
0.650640 0.650640 0.650640
0.734360 0.734360 0.734360
0.228960 0.228960 0.228960
0.312680 0.312680 0.312680
0.396400 0.396400 0.396400
0.480120 0.480120 0.480120
0.563840 0.563840 0.563840
0.647560 0.647560 0.647560
0.731280 0.731280 0.731280
0.815000 0.815000 0.815000
0.898720 0.898720 0.898720
0.393320 0.393320 0.393320
0.477040 0.477040 0.477040
0.560760 0.560760 0.560760
0.644480 0.644480 0.644480
0.728200 0.728200 0.728200
0.811920 0.811920 0.811920
0.895640 0.895640 0.895640
0.919840 0.919840 0.919840
0.940770 0.940770 0.940770
0.557680 0.557680 0.557680
0.641400 0.641400 0.641400
0.725120 0.725120 0.725120
0.808840 0.808840 0.808840
0.892560 0.892560 0.892560
0.919070 0.919070 0.919070
0.940000 0.940000 0.940000
0.960930 0.960930 0.960930
0.981860 0.981860 0.981860
0.722040 0.722040 0.722040
0.805760 0.805760 0.805760
0.889480 0.889480 0.889480
0.918300 0.918300 0.918300
0.939230 0.939230 0.939230
0.960160 0.960160 0.960160
0.981090 0.981090 0.981090
1.000000 1.000000 1.000000
1.000000 1.000000 1.000000
0.886400 0.886400 0.886400
0.917530 0.917530 0.917530
0.938460 0.938460 0.938460
0.959390 0.959390 0.959390
0.980320 0.980320 0.980320
1.000000 1.000000 1.000000
1.000000 1.000000 1.000000
1.000000 1.000000 1.000000
1.000000 1.000000 1.000000
0.000000 0.000000 0.000000
0.000000 0.000000 0.000000
0.017720 0.017720 0.017720
0.038650 0.038650 0.038650
0.059580 0.059580 0.059580
0.080510 0.080510 0.080510
0.105760 0.105760 0.105760
0.189480 0.189480 0.189480
0.273200 0.273200 0.273200
0.016950 0.016950 0.016950
0.037880 0.037880 0.037880
0.058810 0.058810 0.058810
0.079740 0.079740 0.079740
0.102680 0.102680 0.102680
0.186400 0.186400 0.186400
0.270120 0.270120 0.270120
0.353840 0.353840 0.353840
0.437560 0.437560 0.437560
0.058040 0.058040 0.058040
0.078970 0.078970 0.078970
0.099900 0.099900 0.099900
0.183320 0.183320 0.183320
0.267040 0.267040 0.267040
0.350760 0.350760 0.350760
0.434480 0.434480 0.434480
0.518200 0.518200 0.518200
0.601920 0.601920 0.601920
0.099130 0.099130 0.099130
0.180240 0.180240 0.180240
0.263960 0.263960 0.263960
0.347680 0.347680 0.347680
0.431400 0.431400 0.431400
0.515120 0.515120 0.515120
0.598840 0.598840 0.598840
0.682560 0.682560 0.682560
0.766280 0.766280 0.766280
0.260880 0.260880 0.260880
0.344600 0.344600 0.344600
0.428320 0.428320 0.428320
0.512040 0.512040 0.512040
0.595760 0.595760 0.595760
0.679480 0.679480 0.679480
0.763200 0.763200 0.763200
0.846920 0.846920 0.846920
0.907660 0.907660 0.907660
0.425240 0.425240 0.425240
0.508960 0.508960 0.508960
0.592680 0.592680 0.592680
0.676400 0.676400 0.676400
0.760120 0.760120 0.760120
0.843840 0.843840 0.843840
0.906890 0.906890 0.906890
0.927820 0.927820 0.927820
0.948750 0.948750 0.948750
0.589600 0.589600 0.589600
0.673320 0.673320 0.673320
0.757040 0.757040 0.757040
0.840760 0.840760 0.840760
0.906120 0.906120 0.906120
0.927050 0.927050 0.927050
0.947980 0.947980 0.947980
0.968910 0.968910 0.968910
0.989840 0.989840 0.989840
0.753960 0.753960 0.753960
0.837680 0.837680 0.837680
0.905350 0.905350 0.905350
0.926280 0.926280 0.926280
0.947210 0.947210 0.947210
0.968140 0.968140 0.968140
0.989070 0.989070 0.989070
1.000000 1.000000 1.000000
1.000000 1.000000 1.000000
0.904580 0.904580 0.904580
0.925510 0.925510 0.925510
0.946440 0.946440 0.946440
0.967370 0.967370 0.967370
0.988300 0.988300 0.988300
1.000000 1.000000 1.000000
1.000000 1.000000 1.000000
1.000000 1.000000 1.000000
1.000000 1.000000 1.000000
0.000000 0.000000 0.000000
0.004770 0.004770 0.004770
0.025700 0.025700 0.025700
0.046630 0.046630 0.046630
0.067560 0.067560 0.067560
0.088490 0.088490 0.088490
0.137680 0.137680 0.137680
0.221400 0.221400 0.221400
0.305120 0.305120 0.305120
0.024930 0.024930 0.024930
0.045860 0.045860 0.045860
0.066790 0.066790 0.066790
0.087720 0.087720 0.087720
0.134600 0.134600 0.134600
0.218320 0.218320 0.218320
0.302040 0.302040 0.302040
0.385760 0.385760 0.385760
0.469480 0.469480 0.469480
0.066020 0.066020 0.066020
0.086950 0.086950 0.086950
0.131520 0.131520 0.131520
0.215240 0.215240 0.215240
0.298960 0.298960 0.298960
0.382680 0.382680 0.382680
0.466400 0.466400 0.466400
0.550120 0.550120 0.550120
0.633840 0.633840 0.633840
0.128440 0.128440 0.128440
0.212160 0.212160 0.212160
0.295880 0.295880 0.295880
0.379600 0.379600 0.379600
0.463320 0.463320 0.463320
0.547040 0.547040 0.547040
0.630760 0.630760 0.630760
0.714480 0.714480 0.714480
0.798200 0.798200 0.798200
0.292800 0.292800 0.292800
0.376520 0.376520 0.376520
0.460240 0.460240 0.460240
0.543960 0.543960 0.543960
0.627680 0.627680 0.627680
0.711400 0.711400 0.711400
0.795120 0.795120 0.795120
0.878840 0.878840 0.878840
0.915640 0.915640 0.915640
0.457160 0.457160 0.457160
0.540880 0.540880 0.540880
0.624600 0.624600 0.624600
0.708320 0.708320 0.708320
0.792040 0.792040 0.792040
0.875760 0.875760 0.875760
0.914870 0.914870 0.914870
0.935800 0.935800 0.935800
0.956730 0.956730 0.956730
0.621520 0.621520 0.621520
0.705240 0.705240 0.705240
0.788960 0.788960 0.788960
0.872680 0.872680 0.872680
0.914100 0.914100 0.914100
0.935030 0.935030 0.935030
0.955960 0.955960 0.955960
0.976890 0.976890 0.976890
0.997820 0.997820 0.997820
0.785880 0.785880 0.785880
0.869600 0.869600 0.869600
0.913330 0.913330 0.913330
0.934260 0.934260 0.934260
0.955190 0.955190 0.955190
0.976120 0.976120 0.976120
0.997050 0.997050 0.997050
1.000000 1.000000 1.000000
1.000000 1.000000 1.000000
0.912560 0.912560 0.912560
0.933490 0.933490 0.933490
0.954420 0.954420 0.954420
0.975350 0.975350 0.975350
0.996280 0.996280 0.996280
1.000000 1.000000 1.000000
1.000000 1.000000 1.000000
1.000000 1.000000 1.000000
1.000000 1.000000 1.000000
