app/src/main/assets/luts/mono_warm.cube
# V-Cam procedural LUT — mono_warm
# Generated by LutBaker. Do not edit by hand.
TITLE "V-Cam mono_warm"
LUT_3D_SIZE 5
DOMAIN_MIN 0.0 0.0 0.0
DOMAIN_MAX 1.0 1.0 1.0
0.030350 0.014150 0.003350
0.101820 0.085427 0.073087
0.179292 0.162617 0.148016
0.256026 0.239068 0.222207
0.332020 0.314780 0.295658
0.176455 0.159791 0.145273
0.253216 0.236269 0.219491
0.329238 0.312008 0.292969
0.404520 0.387008 0.365709
0.479063 0.461268 0.437709
0.326454 0.309235 0.290279
0.401764 0.384262 0.363046
0.476334 0.458549 0.435073
0.550165 0.532098 0.506361
0.623257 0.604907 0.576910
0.473604 0.455829 0.432436
0.547462 0.529405 0.503751
0.620581 0.602242 0.574328
0.692961 0.674339 0.644164
0.764601 0.745697 0.713262
0.617904 0.599575 0.571744
0.690311 0.671699 0.641608
0.761979 0.743085 0.710733
0.832907 0.813731 0.779118
0.903096 0.883637 0.846765
0.053515 0.037297 0.026355
0.131445 0.114945 0.101742
0.208636 0.191853 0.176390
0.285088 0.268022 0.250299
0.360800 0.343452 0.323469
0.205809 0.189037 0.173657
0.282288 0.265233 0.247593
0.358028 0.340690 0.320790
0.433028 0.415408 0.393247
0.507290 0.489387 0.464966
0.355255 0.337927 0.318110
0.430282 0.412672 0.390595
0.504571 0.486678 0.462340
0.578120 0.559945 0.533346
0.650930 0.632472 0.603613
0.501851 0.483969 0.459714
0.575427 0.557263 0.530747
0.648264 0.629817 0.601041
0.720362 0.701633 0.670596
0.791721 0.772709 0.739412
0.645598 0.627161 0.598468
0.717723 0.699004 0.668051
0.789109 0.770107 0.736893
0.859755 0.840471 0.804997
0.929663 0.910096 0.872361
0.083314 0.066989 0.055185
0.160963 0.144355 0.130291
0.237872 0.220981 0.204657
0.314042 0.296869 0.278284
0.389472 0.372017 0.351171
0.235056 0.218175 0.201934
0.311253 0.294090 0.275588
0.386711 0.369265 0.348503
0.461429 0.443701 0.420679
0.535408 0.517398 0.492115
0.383948 0.366513 0.345834
0.458693 0.440976 0.418036
0.532700 0.514700 0.489500
0.605967 0.587685 0.560224
0.678495 0.659930 0.630209
0.529990 0.512001 0.486884
0.603285 0.585013 0.557636
0.675840 0.657286 0.627648
0.747656 0.728819 0.696921
0.818733 0.799613 0.765455
0.673184 0.654640 0.625085
0.745027 0.726201 0.694386
0.816131 0.797022 0.762947
0.886496 0.867104 0.830768
0.956122 0.936447 0.897851
0.113007 0.096573 0.083908
0.190373 0.173657 0.158731
0.267000 0.250002 0.232816
0.342889 0.325608 0.306161
0.418037 0.400474 0.378767
0.264195 0.247207 0.230103
0.340110 0.322839 0.303476
0.415286 0.397733 0.376109
0.489723 0.471887 0.448002
0.563420 0.545302 0.519157
0.412533 0.394991 0.373450
0.486997 0.469172 0.445371
0.560722 0.542614 0.516552
0.633707 0.615317 0.586995
0.705954 0.687281 0.656698
0.558023 0.539925 0.513947
0.631035 0.612656 0.584416
0.703309 0.684646 0.654147
0.774843 0.755898 0.723138
0.845638 0.826411 0.791390
0.700663 0.682011 0.651595
0.772224 0.753290 0.720613
0.843047 0.823830 0.788892
0.913130 0.893630 0.856432
0.982473 0.962691 0.923233
0.142591 0.126051 0.112523
0.219676 0.202853 0.187065
0.296022 0.278916 0.260867
0.371628 0.354239 0.333931
0.446495 0.428824 0.406254
0.293226 0.276130 0.258165
0.368859 0.351481 0.331256
0.443754 0.426093 0.403607
0.517908 0.499965 0.475219
0.591324 0.573098 0.546091
0.441011 0.423361 0.400958
0.515193 0.497261 0.472597
0.588636 0.570421 0.543497
0.661340 0.642842 0.613658
0.733304 0.714524 0.683079
0.585948 0.567742 0.540902
0.658678 0.640191 0.611090
0.730670 0.711900 0.680538
0.801922 0.782870 0.749248
0.872436 0.853100 0.817218
0.728035 0.709275 0.677997
0.799314 0.780272 0.746733
0.869855 0.850530 0.814731
0.939656 0.920048 0.881989
1.000000 0.983750 0.944150
