app/src/main/assets/luts/mono_noir.cube
# V-Cam procedural LUT — mono_noir
# Generated by LutBaker. Do not edit by hand.
TITLE "V-Cam mono_noir"
LUT_3D_SIZE 33
DOMAIN_MIN 0.0 0.0 0.0
DOMAIN_MAX 1.0 1.0 1.0
0.000000 0.000000 0.000000
0.000000 0.000000 0.000000
0.000000 0.000000 0.000000
0.000000 0.000000 0.000000
0.000000 0.000000 0.000000
0.000000 0.000000 0.000000
0.000000 0.000000 0.000000
0.000000 0.000000 0.000000
0.000000 0.000000 0.000000
0.000000 0.000000 0.000000
0.000000 0.000000 0.000000
0.000000 0.000000 0.000000
0.000000 0.000000 0.000000
0.000000 0.000000 0.000000
0.000000 0.000000 0.000000
0.000000 0.000000 0.000000
0.000000 0.000000 0.000000
0.000000 0.000000 0.000000
0.000000 0.000000 0.000000
0.000000 0.000000 0.000000
0.000000 0.000000 0.000000
0.000000 0.000000 0.000000
0.000000 0.000000 0.000000
0.000000 0.000000 0.000000
0.005294 0.005294 0.005294
0.012535 0.012535 0.012535
0.019777 0.019777 0.019777
0.027018 0.027018 0.027018
0.034259 0.034259 0.034259
0.041501 0.041501 0.041501
0.048742 0.048742 0.048742
0.055984 0.055984 0.055984
0.063225 0.063225 0.063225
0.000000 0.000000 0.000000
0.000000 0.000000 0.000000
0.000000 0.000000 0.000000
0.000000 0.000000 0.000000
0.000000 0.000000 0.000000
0.000000 0.000000 0.000000
0.000000 0.000000 0.000000
0.000000 0.000000 0.000000
0.000000 0.000000 0.000000
0.000000 0.000000 0.000000
0.000000 0.000000 0.000000
0.000000 0.000000 0.000000
0.000000 0.000000 0.000000
0.000000 0.000000 0.000000
0.000000 0.000000 0.000000
0.000000 0.000000 0.000000
0.000000 0.000000 0.000000
0.000000 0.000000 0.000000
0.000000 0.000000 0.000000
0.000000 0.000000 0.000000
0.000000 0.000000 0.000000
0.000000 0.000000 0.000000
0.005027 0.005027 0.005027
0.012269 0.012269 0.012269
0.019510 0.019510 0.019510
0.026752 0.026752 0.026752
0.033993 0.033993 0.033993
0.041234 0.041234 0.041234
0.048476 0.048476 0.048476
0.055717 0.055717 0.055717
0.062959 0.062959 0.062959
0.070200 0.070200 0.070200
0.077441 0.077441 0.077441
0.000000 0.000000 0.000000
0.000000 0.000000 0.000000
0.000000 0.000000 0.000000
0.000000 0.000000 0.000000
0.000000 0.000000 0.000000
0.000000 0.000000 0.000000
0.000000 0.000000 0.000000
0.000000 0.000000 0.000000
0.000000 0.000000 0.000000
0.000000 0.000000 0.000000
0.000000 0.000000 0.000000
0.000000 0.000000 0.000000
0.000000 0.000000 0.000000
0.000000 0.000000 0.000000
0.000000 0.000000 0.000000
0.000000 0.000000 0.000000
0.000000 0.000000 0.000000
0.000000 0.000000 0.000000
0.000000 0.000000 0.000000
0.000000 0.000000 0.000000
0.004761 0.004761 0.004761
0.012002 0.012002 0.012002
0.019244 0.019244 0.019244
0.026485 0.026485 0.026485
0.033727 0.033727 0.033727
0.040968 0.040968 0.040968
0.048209 0.048209 0.048209
0.055451 0.055451 0.055451
0.062692 0.062692 0.062692
0.069934 0.069934 0.069934
0.077175 0.077175 0.077175
0.084416 0.084416 0.084416
0.091658 0.091658 0.091658
0.000000 0.000000 0.000000
0.000000 0.000000 0.000000
0.000000 0.000000 0.000000
0.000000 0.000000 0.000000
0.000000 0.000000 0.000000
0.000000 0.000000 0.000000
0.000000 0.000000 0.000000
0.000000 0.000000 0.000000
0.000000 0.000000 0.000000
0.000000 0.000000 0.000000
0.000000 0.000000 0.000000
0.000000 0.000000 0.000000
0.000000 0.000000 0.000000
0.000000 0.000000 0.000000
0.000000 0.000000 0.000000
0.000000 0.000000 0.000000
0.000000 0.000000 0.000000
0.000000 0.000000 0.000000
0.004495 0.004495 0.004495
0.011736 0.011736 0.011736
0.018977 0.018977 0.018977
0.026219 0.026219 0.026219
0.033460 0.033460 0.033460
0.040702 0.040702 0.040702
0.047943 0.047943 0.047943
0.055184 0.055184 0.055184
0.062426 0.062426 0.062426
0.069667 0.069667 0.069667
0.076909 0.076909 0.076909
0.084150 0.084150 0.084150
0.091391 0.091391 0.091391
0.098633 0.098633 0.098633
0.105874 0.105874 0.105874
0.000000 0.000000 0.000000
0.000000 0.000000 0.000000
0.000000 0.000000 0.000000
0.000000 0.000000 0.000000
0.000000 0.000000 0.000000
0.000000 0.000000 0.000000
0.000000 0.000000 0.000000
0.000000 0.000000 0.000000
0.000000 0.000000 0.000000
0.000000 0.000000 0.000000
0.000000 0.000000 0.000000
0.000000 0.000000 0.000000
0.000000 0.000000 0.000000
0.000000 0.000000 0.000000
0.000000 0.000000 0.000000
0.000000 0.000000 0.000000
0.004228 0.004228 0.004228
0.011470 0.011470 0.011470
0.018711 0.018711 0.018711
0.025952 0.025952 0.025952
0.033194 0.033194 0.033194
0.040435 0.040435 0.040435
0.047677 0.047677 0.047677
0.054918 0.054918 0.054918
0.062159 0.062159 0.062159
0.069401 0.069401 0.069401
0.076642 0.076642 0.076642
0.083884 0.083884 0.083884
0.091125 0.091125 0.091125
0.098366 0.098366 0.098366
0.105608 0.105608 0.105608
0.112849 0.112849 0.112849
0.120091 0.120091 0.120091
0.000000 0.000000 0.000000
0.000000 0.000000 0.000000
0.000000 0.000000 0.000000
0.000000 0.000000 0.000000
0.000000 0.000000 0.000000
0.000000 0.000000 0.000000
0.000000 0.000000 0.000000
0.000000 0.000000 0.000000
0.000000 0.000000 0.000000
0.000000 0.000000 0.000000
0.000000 0.000000 0.000000
0.000000 0.000000 0.000000
0.000000 0.000000 0.000000
0.000000 0.000000 0.000000
0.003962 0.003962 0.003962
0.011203 0.011203 0.011203
0.018445 0.018445 0.018445
0.025686 0.025686 0.025686
0.032927 0.032927 0.032927
0.040169 0.040169 0.040169
0.047410 0.047410 0.047410
0.054652 0.054652 0.054652
0.061893 0.061893 0.061893
0.069134 0.069134 0.069134
0.076376 0.076376 0.076376
0.083617 0.083617 0.083617
0.090859 0.090859 0.090859
0.098100 0.098100 0.098100
0.105341 0.105341 0.105341
0.112583 0.112583 0.112583
0.119824 0.119824 0.119824
0.127066 0.127066 0.127066
0.134307 0.134307 0.134307
0.000000 0.000000 0.000000
0.000000 0.000000 0.000000
0.000000 0.000000 0.000000
0.000000 0.000000 0.000000
0.000000 0.000000 0.000000
0.000000 0.000000 0.000000
0.000000 0.000000 0.000000
0.000000 0.000000 0.000000
0.000000 0.000000 0.000000
0.000000 0.000000 0.000000
0.000000 0.000000 0.000000
0.000000 0.000000 0.000000
0.003695 0.003695 0.003695
0.010937 0.010937 0.010937
0.018178 0.018178 0.018178
0.025420 0.025420 0.025420
0.032661 0.032661 0.032661
0.039902 0.039902 0.039902
0.047144 0.047144 0.047144
0.054385 0.054385 0.054385
0.061627 0.061627 0.061627
0.068868 0.068868 0.068868
0.076109 0.076109 0.076109
0.083351 0.083351 0.083351
0.090592 0.090592 0.090592
0.097834 0.097834 0.097834
0.105075 0.105075 0.105075
0.112316 0.112316 0.112316
0.119558 0.119558 0.119558
0.126799 0.126799 0.126799
0.134041 0.134041 0.134041
0.141282 0.141282 0.141282
0.148523 0.148523 0.148523
0.000000 0.000000 0.000000
0.000000 0.000000 0.000000
0.000000 0.000000 0.000000
0.000000 0.000000 0.000000
0.000000 0.000000 0.000000
0.000000 0.000000 0.000000
0.000000 0.000000 0.000000
0.000000 0.000000 0.000000
0.000000 0.000000 0.000000
0.000000 0.000000 0.000000
0.003429 0.003429 0.003429
0.010670 0.010670 0.010670
0.017912 0.017912 0.017912
0.025153 0.025153 0.025153
0.032395 0.032395 0.032395
0.039636 0.039636 0.039636
0.046877 0.046877 0.046877
0.054119 0.054119 0.054119
0.061360 0.061360 0.061360
0.068602 0.068602 0.068602
0.075843 0.075843 0.075843
0.083084 0.083084 0.083084
0.090326 0.090326 0.090326
0.097567 0.097567 0.097567
0.104809 0.104809 0.104809
0.112050 0.112050 0.112050
0.119291 0.119291 0.119291
0.126533 0.126533 0.126533
0.133774 0.133774 0.133774
0.141016 0.141016 0.141016
0.148257 0.148257 0.148257
0.155498 0.155498 0.155498
0.162740 0.162740 0.162740
0.000000 0.000000 0.000000
0.000000 0.000000 0.000000
0.000000 0.000000 0.000000
0.000000 0.000000 0.000000
0.000000 0.000000 0.000000
0.000000 0.000000 0.000000
0.000000 0.000000 0.000000
0.000000 0.000000 0.000000
0.003163 0.003163 0.003163
0.010404 0.010404 0.010404
0.017645 0.017645 0.017645
0.024887 0.024887 0.024887
0.032128 0.032128 0.032128
0.039370 0.039370 0.039370
0.046611 0.046611 0.046611
0.053852 0.053852 0.053852
0.061094 0.061094 0.061094
0.068335 0.068335 0.068335
0.075577 0.075577 0.075577
0.082818 0.082818 0.082818
0.090059 0.090059 0.090059
0.097301 0.097301 0.097301
0.104542 0.104542 0.104542
0.111784 0.111784 0.111784
0.119025 0.119025 0.119025
0.126266 0.126266 0.126266
0.133508 0.133508 0.133508
0.140749 0.140749 0.140749
0.147991 0.147991 0.147991
0.155232 0.155232 0.155232
0.162473 0.162473 0.162473
0.169715 0.169715 0.169715
0.176956 0.176956 0.176956
0.000000 0.000000 0.000000
0.000000 0.000000 0.000000
0.000000 0.000000 0.000000
0.000000 0.000000 0.000000
0.000000 0.000000 0.000000
0.000000 0.000000 0.000000
0.002896 0.002896 0.002896
0.010138 0.010138 0.010138
0.017379 0.017379 0.017379
0.024620 0.024620 0.024620
0.031862 0.031862 0.031862
0.039103 0.039103 0.039103
0.046345 0.046345 0.046345
0.053586 0.053586 0.053586
0.060827 0.060827 0.060827
0.068069 0.068069 0.068069
0.075310 0.075310 0.075310
0.082552 0.082552 0.082552
0.089793 0.089793 0.089793
0.097034 0.097034 0.097034
0.104276 0.104276 0.104276
0.111517 0.111517 0.111517
0.118759 0.118759 0.118759
0.126000 0.126000 0.126000
0.133241 0.133241 0.133241
0.140483 0.140483 0.140483
0.147724 0.147724 0.147724
0.154966 0.154966 0.154966
0.162207 0.162207 0.162207
0.169448 0.169448 0.169448
0.176690 0.176690 0.176690
0.183931 0.183931 0.183931
0.191173 0.191173 0.191173
0.000000 0.000000 0.000000
0.000000 0.000000 0.000000
0.000000 0.000000 0.000000
0.000000 0.000000 0.000000
0.002630 0.002630 0.002630
0.009871 0.009871 0.009871
0.017113 0.017113 0.017113
0.024354 0.024354 0.024354
0.031595 0.031595 0.031595
0.038837 0.038837 0.038837
0.046078 0.046078 0.046078
0.053320 0.053320 0.053320
0.060561 0.060561 0.060561
0.067802 0.067802 0.067802
0.075044 0.075044 0.075044
0.082285 0.082285 0.082285
0.089527 0.089527 0.089527
0.096768 0.096768 0.096768
0.104009 0.104009 0.104009
0.111251 0.111251 0.111251
0.118492 0.118492 0.118492
0.125734 0.125734 0.125734
0.132975 0.132975 0.132975
0.140216 0.140216 0.140216
0.147458 0.147458 0.147458
0.154699 0.154699 0.154699
0.161941 0.161941 0.161941
0.169182 0.169182 0.169182
0.176423 0.176423 0.176423
0.183665 0.183665 0.183665
0.190906 0.190906 0.190906
0.198148 0.198148 0.198148
0.231256 0.231256 0.231256
0.000000 0.000000 0.000000
0.000000 0.000000 0.000000
0.002363 0.002363 0.002363
0.009605 0.009605 0.009605
0.016846 0.016846 0.016846
0.024088 0.024088 0.024088
0.031329 0.031329 0.031329
0.038570 0.038570 0.038570
0.045812 0.045812 0.045812
0.053053 0.053053 0.053053
0.060295 0.060295 0.060295
0.067536 0.067536 0.067536
0.074777 0.074777 0.074777
0.082019 0.082019 0.082019
0.089260 0.089260 0.089260
0.096502 0.096502 0.096502
0.103743 0.103743 0.103743
0.110984 0.110984 0.110984
0.118226 0.118226 0.118226
0.125467 0.125467 0.125467
0.132709 0.132709 0.132709
0.139950 0.139950 0.139950
0.147191 0.147191 0.147191
0.154433 0.154433 0.154433
0.161674 0.161674 0.161674
0.168916 0.168916 0.168916
0.176157 0.176157 0.176157
0.183398 0.183398 0.183398
0.190640 0.190640 0.190640
0.197881 0.197881 0.197881
0.229711 0.229711 0.229711
0.271712 0.271712 0.271712
0.313712 0.313712 0.313712
0.002097 0.002097 0.002097
0.009338 0.009338 0.009338
0.016580 0.016580 0.016580
0.023821 0.023821 0.023821
0.031063 0.031063 0.031063
0.038304 0.038304 0.038304
0.045545 0.045545 0.045545
0.052787 0.052787 0.052787
0.060028 0.060028 0.060028
0.067270 0.067270 0.067270
0.074511 0.074511 0.074511
0.081752 0.081752 0.081752
0.088994 0.088994 0.088994
0.096235 0.096235 0.096235
0.103477 0.103477 0.103477
0.110718 0.110718 0.110718
0.117959 0.117959 0.117959
0.125201 0.125201 0.125201
0.132442 0.132442 0.132442
0.139684 0.139684 0.139684
0.146925 0.146925 0.146925
0.154166 0.154166 0.154166
0.161408 0.161408 0.161408
0.168649 0.168649 0.168649
0.175891 0.175891 0.175891
0.183132 0.183132 0.183132
0.190373 0.190373 0.190373
0.197615 0.197615 0.197615
0.228166 0.228166 0.228166
0.270166 0.270166 0.270166
0.312167 0.312167 0.312167
0.354167 0.354167 0.354167
0.396167 0.396167 0.396167
0.016313 0.016313 0.016313
0.023555 0.023555 0.023555
0.030796 0.030796 0.030796
0.038038 0.038038 0.038038
0.045279 0.045279 0.045279
0.052520 0.052520 0.052520
0.059762 0.059762 0.059762
0.067003 0.067003 0.067003
0.074245 0.074245 0.074245
0.081486 0.081486 0.081486
0.088727 0.088727 0.088727
0.095969 0.095969 0.095969
0.103210 0.103210 0.103210
0.110452 0.110452 0.110452
0.117693 0.117693 0.117693
0.124934 0.124934 0.124934
0.132176 0.132176 0.132176
0.139417 0.139417 0.139417
0.146659 0.146659 0.146659
0.153900 0.153900 0.153900
0.161141 0.161141 0.161141
0.168383 0.168383 0.168383
0.175624 0.175624 0.175624
0.182866 0.182866 0.182866
0.190107 0.190107 0.190107
0.197348 0.197348 0.197348
0.226621 0.226621 0.226621
0.268621 0.268621 0.268621
0.310621 0.310621 0.310621
0.352622 0.352622 0.352622
0.394622 0.394622 0.394622
0.436622 0.436622 0.436622
0.478622 0.478622 0.478622
0.030530 0.030530 0.030530
0.037771 0.037771 0.037771
0.045013 0.045013 0.045013
0.052254 0.052254 0.052254
0.059495 0.059495 0.059495
0.066737 0.066737 0.066737
0.073978 0.073978 0.073978
0.081220 0.081220 0.081220
0.088461 0.088461 0.088461
0.095702 0.095702 0.095702
0.102944 0.102944 0.102944
0.110185 0.110185 0.110185
0.117427 0.117427 0.117427
0.124668 0.124668 0.124668
0.131909 0.131909 0.131909
0.139151 0.139151 0.139151
0.146392 0.146392 0.146392
0.153634 0.153634 0.153634
0.160875 0.160875 0.160875
0.168116 0.168116 0.168116
0.175358 0.175358 0.175358
0.182599 0.182599 0.182599
0.189841 0.189841 0.189841
0.197082 0.197082 0.197082
0.225076 0.225076 0.225076
0.267076 0.267076 0.267076
0.309076 0.309076 0.309076
0.351076 0.351076 0.351076
0.393077 0.393077 0.393077
0.435077 0.435077 0.435077
0.477077 0.477077 0.477077
0.519077 0.519077 0.519077
0.561077 0.561077 0.561077
0.044746 0.044746 0.044746
0.051987 0.051987 0.051987
0.059229 0.059229 0.059229
0.066470 0.066470 0.066470
0.073712 0.073712 0.073712
0.080953 0.080953 0.080953
0.088195 0.088195 0.088195
0.095436 0.095436 0.095436
0.102677 0.102677 0.102677
0.109919 0.109919 0.109919
0.117160 0.117160 0.117160
0.124402 0.124402 0.124402
0.131643 0.131643 0.131643
0.138884 0.138884 0.138884
0.146126 0.146126 0.146126
0.153367 0.153367 0.153367
0.160609 0.160609 0.160609
0.167850 0.167850 0.167850
0.175091 0.175091 0.175091
0.182333 0.182333 0.182333
0.189574 0.189574 0.189574
0.196816 0.196816 0.196816
0.223531 0.223531 0.223531
0.265531 0.265531 0.265531
0.307531 0.307531 0.307531
0.349531 0.349531 0.349531
0.391531 0.391531 0.391531
0.433531 0.433531 0.433531
0.475532 0.475532 0.475532
0.517532 0.517532 0.517532
0.559532 0.559532 0.559532
0.601532 0.601532 0.601532
0.643532 0.643532 0.643532
0.058963 0.058963 0.058963
0.066204 0.066204 0.066204
0.073445 0.073445 0.073445
0.080687 0.080687 0.080687
0.087928 0.087928 0.087928
0.095170 0.095170 0.095170
0.102411 0.102411 0.102411
0.109652 0.109652 0.109652
0.116894 0.116894 0.116894
0.124135 0.124135 0.124135
0.131377 0.131377 0.131377
0.138618 0.138618 0.138618
0.145859 0.145859 0.145859
0.153101 0.153101 0.153101
0.160342 0.160342 0.160342
0.167584 0.167584 0.167584
0.174825 0.174825 0.174825
0.182066 0.182066 0.182066
0.189308 0.189308 0.189308
0.196549 0.196549 0.196549
0.221986 0.221986 0.221986
0.263986 0.263986 0.263986
0.305986 0.305986 0.305986
0.347986 0.347986 0.347986
0.389986 0.389986 0.389986
0.431986 0.431986 0.431986
0.473986 0.473986 0.473986
0.515987 0.515987 0.515987
0.557987 0.557987 0.557987
0.599987 0.599987 0.599987
0.641987 0.641987 0.641987
0.683987 0.683987 0.683987
0.725987 0.725987 0.725987
0.073179 0.073179 0.073179
0.080420 0.080420 0.080420
0.087662 0.087662 0.087662
0.094903 0.094903 0.094903
0.102145 0.102145 0.102145
0.109386 0.109386 0.109386
0.116627 0.116627 0.116627
0.123869 0.123869 0.123869
0.131110 0.131110 0.131110
0.138352 0.138352 0.138352
0.145593 0.145593 0.145593
0.152834 0.152834 0.152834
0.160076 0.160076 0.160076
0.167317 0.167317 0.167317
0.174559 0.174559 0.174559
0.181800 0.181800 0.181800
0.189041 0.189041 0.189041
0.196283 0.196283 0.196283
0.220441 0.220441 0.220441
0.262441 0.262441 0.262441
0.304441 0.304441 0.304441
0.346441 0.346441 0.346441
0.388441 0.388441 0.388441
0.430441 0.430441 0.430441
0.472441 0.472441 0.472441
0.514442 0.514442 0.514442
0.556442 0.556442 0.556442
0.598442 0.598442 0.598442
0.640442 0.640442 0.640442
0.682442 0.682442 0.682442
0.724442 0.724442 0.724442
0.766442 0.766442 0.766442
0.785394 0.785394 0.785394
0.087395 0.087395 0.087395
0.094637 0.094637 0.094637
0.101878 0.101878 0.101878
0.109120 0.109120 0.109120
0.116361 0.116361 0.116361
0.123602 0.123602 0.123602
0.130844 0.130844 0.130844
0.138085 0.138085 0.138085
0.145327 0.145327 0.145327
0.152568 0.152568 0.152568
0.159809 0.159809 0.159809
0.167051 0.167051 0.167051
0.174292 0.174292 0.174292
0.181534 0.181534 0.181534
0.188775 0.188775 0.188775
0.196016 0.196016 0.196016
0.218895 0.218895 0.218895
0.260895 0.260895 0.260895
0.302896 0.302896 0.302896
0.344896 0.344896 0.344896
0.386896 0.386896 0.386896
0.428896 0.428896 0.428896
0.470896 0.470896 0.470896
0.512896 0.512896 0.512896
0.554896 0.554896 0.554896
0.596896 0.596896 0.596896
0.638897 0.638897 0.638897
0.680897 0.680897 0.680897
0.722897 0.722897 0.722897
0.764897 0.764897 0.764897
0.785101 0.785101 0.785101
0.793067 0.793067 0.793067
0.801032 0.801032 0.801032
0.101612 0.101612 0.101612
0.108853 0.108853 0.108853
0.116095 0.116095 0.116095
0.123336 0.123336 0.123336
0.130577 0.130577 0.130577
0.137819 0.137819 0.137819
0.145060 0.145060 0.145060
0.152302 0.152302 0.152302
0.159543 0.159543 0.159543
0.166784 0.166784 0.166784
0.174026 0.174026 0.174026
0.181267 0.181267 0.181267
0.188509 0.188509 0.188509
0.195750 0.195750 0.195750
0.217350 0.217350 0.217350
0.259350 0.259350 0.259350
0.301350 0.301350 0.301350
0.343351 0.343351 0.343351
0.385351 0.385351 0.385351
0.427351 0.427351 0.427351
0.469351 0.469351 0.469351
0.511351 0.511351 0.511351
0.553351 0.553351 0.553351
0.595351 0.595351 0.595351
0.637352 0.637352 0.637352
0.679352 0.679352 0.679352
0.721352 0.721352 0.721352
0.763352 0.763352 0.763352
0.784808 0.784808 0.784808
0.792774 0.792774 0.792774
0.800739 0.800739 0.800739
0.808705 0.808705 0.808705
0.816670 0.816670 0.816670
0.115828 0.115828 0.115828
0.123070 0.123070 0.123070
0.130311 0.130311 0.130311
0.137552 0.137552 0.137552
0.144794 0.144794 0.144794
0.152035 0.152035 0.152035
0.159277 0.159277 0.159277
0.166518 0.166518 0.166518
0.173759 0.173759 0.173759
0.181001 0.181001 0.181001
0.188242 0.188242 0.188242
0.195484 0.195484 0.195484
0.215805 0.215805 0.215805
0.257805 0.257805 0.257805
0.299805 0.299805 0.299805
0.341805 0.341805 0.341805
0.383806 0.383806 0.383806
0.425806 0.425806 0.425806
0.467806 0.467806 0.467806
0.509806 0.509806 0.509806
0.551806 0.551806 0.551806
0.593806 0.593806 0.593806
0.635807 0.635807 0.635807
0.677807 0.677807 0.677807
0.719807 0.719807 0.719807
0.761807 0.761807 0.761807
0.784515 0.784515 0.784515
0.792481 0.792481 0.792481
0.800446 0.800446 0.800446
0.808412 0.808412 0.808412
0.816377 0.816377 0.816377
0.824343 0.824343 0.824343
0.832308 0.832308 0.832308
0.130045 0.130045 0.130045
0.137286 0.137286 0.137286
0.144527 0.144527 0.144527
0.151769 0.151769 0.151769
0.159010 0.159010 0.159010
0.166252 0.166252 0.166252
0.173493 0.173493 0.173493
0.180734 0.180734 0.180734
0.187976 0.187976 0.187976
0.195217 0.195217 0.195217
0.214260 0.214260 0.214260
0.256260 0.256260 0.256260
0.298260 0.298260 0.298260
0.340260 0.340260 0.340260
0.382260 0.382260 0.382260
0.424260 0.424260 0.424260
0.466261 0.466261 0.466261
0.508261 0.508261 0.508261
0.550261 0.550261 0.550261
0.592261 0.592261 0.592261
0.634261 0.634261 0.634261
0.676261 0.676261 0.676261
0.718262 0.718262 0.718262
0.760262 0.760262 0.760262
0.784222 0.784222 0.784222
0.792188 0.792188 0.792188
0.800153 0.800153 0.800153
0.808119 0.808119 0.808119
0.816084 0.816084 0.816084
0.824050 0.824050 0.824050
0.832015 0.832015 0.832015
0.839981 0.839981 0.839981
0.847946 0.847946 0.847946
0.144261 0.144261 0.144261
0.151502 0.151502 0.151502
0.158744 0.158744 0.158744
0.165985 0.165985 0.165985
0.173227 0.173227 0.173227
0.180468 0.180468 0.180468
0.187709 0.187709 0.187709
0.194951 0.194951 0.194951
0.212715 0.212715 0.212715
0.254715 0.254715 0.254715
0.296715 0.296715 0.296715
0.338715 0.338715 0.338715
0.380715 0.380715 0.380715
0.422715 0.422715 0.422715
0.464715 0.464715 0.464715
0.506716 0.506716 0.506716
0.548716 0.548716 0.548716
0.590716 0.590716 0.590716
0.632716 0.632716 0.632716
0.674716 0.674716 0.674716
0.716716 0.716716 0.716716
0.758717 0.758717 0.758717
0.783929 0.783929 0.783929
0.791895 0.791895 0.791895
0.799860 0.799860 0.799860
0.807826 0.807826 0.807826
0.815791 0.815791 0.815791
0.823757 0.823757 0.823757
0.831722 0.831722 0.831722
0.839688 0.839688 0.839688
0.847653 0.847653 0.847653
0.855619 0.855619 0.855619
0.863584 0.863584 0.863584
0.158477 0.158477 0.158477
0.165719 0.165719 0.165719
0.172960 0.172960 0.172960
0.180202 0.180202 0.180202
0.187443 0.187443 0.187443
0.194684 0.194684 0.194684
0.211169 0.211169 0.211169
0.253170 0.253170 0.253170
0.295170 0.295170 0.295170
0.337170 0.337170 0.337170
0.379170 0.379170 0.379170
0.421170 0.421170 0.421170
0.463170 0.463170 0.463170
0.505171 0.505171 0.505171
0.547171 0.547171 0.547171
0.589171 0.589171 0.589171
0.631171 0.631171 0.631171
0.673171 0.673171 0.673171
0.715171 0.715171 0.715171
0.757171 0.757171 0.757171
0.783636 0.783636 0.783636
0.791601 0.791601 0.791601
0.799567 0.799567 0.799567
0.807533 0.807533 0.807533
0.815498 0.815498 0.815498
0.823464 0.823464 0.823464
0.831429 0.831429 0.831429
0.839395 0.839395 0.839395
0.847360 0.847360 0.847360
0.855326 0.855326 0.855326
0.863291 0.863291 0.863291
0.871257 0.871257 0.871257
0.879223 0.879223 0.879223
0.172694 0.172694 0.172694
0.179935 0.179935 0.179935
0.187177 0.187177 0.187177
0.194418 0.194418 0.194418
0.209624 0.209624 0.209624
0.251624 0.251624 0.251624
0.293625 0.293625 0.293625
0.335625 0.335625 0.335625
0.377625 0.377625 0.377625
0.419625 0.419625 0.419625
0.461625 0.461625 0.461625
0.503625 0.503625 0.503625
0.545626 0.545626 0.545626
0.587626 0.587626 0.587626
0.629626 0.629626 0.629626
0.671626 0.671626 0.671626
0.713626 0.713626 0.713626
0.755626 0.755626 0.755626
0.783343 0.783343 0.783343
0.791308 0.791308 0.791308
0.799274 0.799274 0.799274
0.807240 0.807240 0.807240
0.815205 0.815205 0.815205
0.823171 0.823171 0.823171
0.831136 0.831136 0.831136
0.839102 0.839102 0.839102
0.847067 0.847067 0.847067
0.855033 0.855033 0.855033
0.862998 0.862998 0.862998
0.870964 0.870964 0.870964
0.878929 0.878929 0.878929
0.886895 0.886895 0.886895
0.894861 0.894861 0.894861
0.186910 0.186910 0.186910
0.194152 0.194152 0.194152
0.208079 0.208079 0.208079
0.250079 0.250079 0.250079
0.292080 0.292080 0.292080
0.334080 0.334080 0.334080
0.376080 0.376080 0.376080
0.418080 0.418080 0.418080
0.460080 0.460080 0.460080
0.502080 0.502080 0.502080
0.544080 0.544080 0.544080
0.586081 0.586081 0.586081
0.628081 0.628081 0.628081
0.670081 0.670081 0.670081
0.712081 0.712081 0.712081
0.754081 0.754081 0.754081
0.783050 0.783050 0.783050
0.791015 0.791015 0.791015
0.798981 0.798981 0.798981
0.806947 0.806947 0.806947
0.814912 0.814912 0.814912
0.822878 0.822878 0.822878
0.830843 0.830843 0.830843
0.838809 0.838809 0.838809
0.846774 0.846774 0.846774
0.854740 0.854740 0.854740
0.862705 0.862705 0.862705
0.870671 0.870671 0.870671
0.878636 0.878636 0.878636
0.886602 0.886602 0.886602
0.894568 0.894568 0.894568
0.902533 0.902533 0.902533
0.910499 0.910499 0.910499
0.206534 0.206534 0.206534
0.248534 0.248534 0.248534
0.290534 0.290534 0.290534
0.332535 0.332535 0.332535
0.374535 0.374535 0.374535
0.416535 0.416535 0.416535
0.458535 0.458535 0.458535
0.500535 0.500535 0.500535
0.542535 0.542535 0.542535
0.584535 0.584535 0.584535
0.626535 0.626535 0.626535
0.668536 0.668536 0.668536
0.710536 0.710536 0.710536
0.752536 0.752536 0.752536
0.782757 0.782757 0.782757
0.790722 0.790722 0.790722
0.798688 0.798688 0.798688
0.806653 0.806653 0.806653
0.814619 0.814619 0.814619
0.822585 0.822585 0.822585
0.830550 0.830550 0.830550
0.838516 0.838516 0.838516
0.846481 0.846481 0.846481
0.854447 0.854447 0.854447
