app/src/main/assets/luts/mono_warm.cube
# V-Cam procedural LUT — mono_warm
# Generated by LutBaker. Do not edit by hand.
TITLE "V-Cam mono_warm"
LUT_3D_SIZE 33
DOMAIN_MIN 0.0 0.0 0.0
DOMAIN_MAX 1.0 1.0 1.0
0.030350 0.014150 0.003350
0.037512 0.021312 0.010512
0.044674 0.028474 0.017674
0.053024 0.036808 0.025880
0.062806 0.046555 0.035344
0.072577 0.056290 0.044797
0.082336 0.066014 0.054239
0.092084 0.075726 0.063668
0.101820 0.085427 0.073087
0.111544 0.095116 0.082493
0.121257 0.104794 0.091888
0.130959 0.114460 0.101272
0.140648 0.124115 0.110644
0.150327 0.133758 0.120004
0.159994 0.143389 0.129353
0.169649 0.153009 0.138691
0.179292 0.162617 0.148016
0.188925 0.172214 0.157331
0.198545 0.181799 0.166633
0.208154 0.191373 0.175925
0.217752 0.200935 0.185204
0.227338 0.210486 0.194472
0.236912 0.220025 0.203729
0.246475 0.229552 0.212974
0.256026 0.239068 0.222207
0.265566 0.248573 0.231429
0.275094 0.258066 0.240639
0.284611 0.267547 0.249838
0.294116 0.277017 0.259025
0.303609 0.286475 0.268201
0.313091 0.295922 0.277365
0.322562 0.305357 0.286517
0.332020 0.314780 0.295658
0.044411 0.028211 0.017411
0.052664 0.036449 0.025532
0.062446 0.046196 0.034996
0.072217 0.055932 0.044450
0.081977 0.065656 0.053891
0.091725 0.075369 0.063322
0.101462 0.085070 0.072740
0.111187 0.094760 0.082147
0.120900 0.104438 0.091543
0.130602 0.114105 0.100927
0.140292 0.123760 0.110299
0.149971 0.133403 0.119660
0.159638 0.143035 0.129010
0.169294 0.152655 0.138347
0.178938 0.162264 0.147674
0.188570 0.171861 0.156988
0.198191 0.181447 0.166291
0.207801 0.191021 0.175583
0.217399 0.200584 0.184863
0.226985 0.210135 0.194131
0.236560 0.219674 0.203388
0.246123 0.229202 0.212634
0.255675 0.238718 0.221868
0.265215 0.248223 0.231090
0.274744 0.257717 0.240301
0.284261 0.267198 0.249500
0.293766 0.276668 0.258687
0.303260 0.286127 0.267863
0.312742 0.295574 0.277028
0.322213 0.305010 0.286181
0.331673 0.314434 0.295322
0.341120 0.323846 0.304452
0.350557 0.333247 0.313570
0.062087 0.045838 0.034648
0.071858 0.055574 0.044102
0.081618 0.065299 0.053544
0.091367 0.075012 0.062975
0.101104 0.084714 0.072394
0.110829 0.094404 0.081802
0.120543 0.104082 0.091197
0.130245 0.113749 0.100582
0.139936 0.123405 0.109955
0.149615 0.133048 0.119316
0.159283 0.142681 0.128666
0.168939 0.152302 0.138004
0.178583 0.161911 0.147331
0.188216 0.171508 0.156646
0.197838 0.181094 0.165949
0.207448 0.190669 0.175241
0.217046 0.200232 0.184522
0.226633 0.209784 0.193791
0.236208 0.219323 0.203048
0.245772 0.228852 0.212294
0.255324 0.238369 0.221528
0.264864 0.247874 0.230751
0.274393 0.257368 0.239962
0.283911 0.266850 0.249161
0.293417 0.276320 0.258350
0.302911 0.285779 0.267526
0.312394 0.295227 0.276691
0.321865 0.304663 0.285844
0.331325 0.314087 0.294986
0.340773 0.323500 0.304117
0.350210 0.332901 0.313235
0.359635 0.342291 0.322342
0.369048 0.351669 0.331438
0.081259 0.064941 0.053197
0.091008 0.074655 0.062628
0.100746 0.084357 0.072048
0.110471 0.094047 0.081456
0.120186 0.103726 0.090852
0.129888 0.113394 0.100237
0.139580 0.123050 0.109610
0.149259 0.132694 0.118972
0.158927 0.142327 0.128322
0.168584 0.151948 0.137661
0.178229 0.161557 0.146988
0.187862 0.171155 0.156303
0.197484 0.180742 0.165607
0.207094 0.190317 0.174900
0.216693 0.199880 0.184181
0.226280 0.209432 0.193450
0.235856 0.218973 0.202708
0.245420 0.228501 0.211954
0.254972 0.238019 0.221189
0.264513 0.247524 0.230412
0.274043 0.257018 0.239623
0.283561 0.266501 0.248823
0.293067 0.275972 0.258012
0.302562 0.285432 0.267189
0.312045 0.294879 0.276354
0.321517 0.304316 0.285508
0.330977 0.313741 0.294650
0.340426 0.323154 0.303781
0.349863 0.332556 0.312900
0.359288 0.341946 0.322008
0.368702 0.351324 0.331104
0.378104 0.360691 0.340188
0.387495 0.370047 0.349261
0.100388 0.084000 0.071701
0.110114 0.093691 0.081110
0.119828 0.103371 0.090507
0.129532 0.113038 0.099892
0.139223 0.122695 0.109265
0.148903 0.132339 0.118628
0.158572 0.141972 0.127978
0.168229 0.151594 0.137317
0.177874 0.161204 0.146645
0.187508 0.170803 0.155961
0.197130 0.180390 0.165265
0.206741 0.189965 0.174558
0.216340 0.199529 0.183839
0.225928 0.209081 0.193109
0.235504 0.218622 0.202367
0.245068 0.228151 0.211614
0.254621 0.237669 0.220849
0.264163 0.247175 0.230073
0.273693 0.256669 0.239285
0.283211 0.266152 0.248485
0.292718 0.275624 0.257674
0.302213 0.285084 0.266851
0.311696 0.294532 0.276017
0.321169 0.303969 0.285171
0.330629 0.313394 0.294314
0.340078 0.322808 0.303445
0.349516 0.332210 0.312565
0.358942 0.341601 0.321673
0.368356 0.350980 0.330769
0.377759 0.360347 0.339854
0.387150 0.369703 0.348928
0.396530 0.379047 0.357989
0.405898 0.388380 0.367040
0.119471 0.103015 0.090161
0.129175 0.112683 0.099547
0.138867 0.122340 0.108921
0.148547 0.131985 0.118283
0.158216 0.141618 0.127634
0.167874 0.151240 0.136974
0.177519 0.160851 0.146302
0.187154 0.170450 0.155618
0.196776 0.180037 0.164923
0.206387 0.189613 0.174216
0.215987 0.199177 0.183498
0.225575 0.208730 0.192768
0.235152 0.218271 0.202027
0.244717 0.227801 0.211274
0.254270 0.237319 0.220509
0.263812 0.246825 0.229733
0.273342 0.256320 0.238946
0.282861 0.265804 0.248147
0.292368 0.275276 0.257336
0.301864 0.284736 0.266514
0.311348 0.294185 0.275680
0.320820 0.303622 0.284835
0.330281 0.313048 0.293978
0.339731 0.322462 0.303109
0.349169 0.331864 0.312229
0.358595 0.341255 0.321338
0.368010 0.350635 0.330435
0.377413 0.360003 0.339520
0.386805 0.369359 0.348594
0.396185 0.378704 0.357656
0.405553 0.388037 0.366707
0.414910 0.397359 0.375746
0.424256 0.406669 0.384774
0.138510 0.121984 0.108576
0.148191 0.131630 0.117939
0.157861 0.141264 0.127291
0.167518 0.150886 0.136631
0.177165 0.160497 0.145959
0.186799 0.170097 0.155276
0.196422 0.179685 0.164581
0.206034 0.189261 0.173875
0.215634 0.198826 0.183157
0.225223 0.208379 0.192427
0.234800 0.217920 0.201686
0.244365 0.227450 0.210934
0.253919 0.236969 0.220170
0.263461 0.246476 0.229394
0.272992 0.255971 0.238607
0.282511 0.265455 0.247808
0.292018 0.274927 0.256998
0.301515 0.284388 0.266176
0.310999 0.293837 0.275343
0.320472 0.303275 0.284498
0.329933 0.312701 0.293642
0.339383 0.322116 0.302774
0.348822 0.331519 0.311894
0.358248 0.340910 0.321003
0.367664 0.350290 0.330100
0.377067 0.359658 0.339186
0.386459 0.369015 0.348260
0.395840 0.378360 0.357323
0.405209 0.387694 0.366374
0.414566 0.397016 0.375414
0.423912 0.406327 0.384442
0.433247 0.415626 0.393458
0.442570 0.424913 0.402463
0.157505 0.140910 0.126947
0.167163 0.150533 0.136287
0.176810 0.160144 0.145616
0.186445 0.169744 0.154933
0.196069 0.179332 0.164239
0.205681 0.188909 0.173533
0.215281 0.198474 0.182816
0.224870 0.208027 0.192087
0.234447 0.217569 0.201346
0.244013 0.227100 0.210594
0.253567 0.236619 0.219830
0.263110 0.246126 0.229055
0.272641 0.255622 0.238268
0.282161 0.265106 0.247470
0.291669 0.274579 0.256660
0.301165 0.284040 0.265839
0.310650 0.293490 0.275006
0.320124 0.302928 0.284161
0.329586 0.312354 0.293305
0.339036 0.321769 0.302438
0.348475 0.331173 0.311559
0.357902 0.340565 0.320668
0.367317 0.349945 0.329766
0.376722 0.359314 0.338852
0.386114 0.368671 0.347927
0.395495 0.378017 0.356990
0.404864 0.387351 0.366041
0.414222 0.396673 0.375081
0.423569 0.405984 0.384110
0.432904 0.415284 0.393127
0.442227 0.424572 0.402132
0.451538 0.433848 0.411126
0.460839 0.443113 0.420108
0.176455 0.159791 0.145273
0.186091 0.169391 0.154591
0.195715 0.178980 0.163897
0.205327 0.188557 0.173191
0.214928 0.198122 0.182474
0.224517 0.207676 0.191746
0.234095 0.217219 0.201006
0.243661 0.226750 0.210254
0.253216 0.236269 0.219491
0.262759 0.245777 0.228716
0.272291 0.255273 0.237930
0.281811 0.264758 0.247132
0.291319 0.274231 0.256322
0.300816 0.283692 0.265501
0.310302 0.293142 0.274669
0.319775 0.302581 0.283825
0.329238 0.312008 0.292969
0.338688 0.321423 0.302102
0.348128 0.330827 0.311223
0.357555 0.340219 0.320333
0.366971 0.349600 0.329431
0.376376 0.358969 0.338518
0.385769 0.368327 0.347593
0.395150 0.377673 0.356657
0.404520 0.387008 0.365709
0.413878 0.396331 0.374749
0.423225 0.405642 0.383778
0.432560 0.414942 0.392795
0.441884 0.424230 0.401801
0.451196 0.433507 0.410795
0.460497 0.442772 0.419778
0.469786 0.452026 0.428749
0.479063 0.461268 0.437709
0.195361 0.178627 0.163555
0.204974 0.188204 0.172849
0.214575 0.197770 0.182133
0.224165 0.207325 0.191405
0.233743 0.216868 0.200665
0.243310 0.226399 0.209914
0.252865 0.235919 0.219151
0.262408 0.245427 0.228377
0.271940 0.254924 0.237591
0.281461 0.264409 0.246793
0.290970 0.273882 0.255984
0.300467 0.283345 0.265164
0.309953 0.292795 0.274332
0.319427 0.302234 0.283488
0.328890 0.311661 0.292633
0.338341 0.321077 0.301766
0.347781 0.330481 0.310888
0.357209 0.339874 0.319998
0.366625 0.349255 0.329097
0.376030 0.358625 0.338184
0.385423 0.367983 0.347259
0.394805 0.377329 0.356323
0.404176 0.386664 0.365376
0.413534 0.395988 0.374417
0.422881 0.405300 0.383446
0.432217 0.414600 0.392464
0.441541 0.423889 0.401470
0.450854 0.433166 0.410465
0.460155 0.442432 0.419448
0.469444 0.451686 0.428419
0.478722 0.460928 0.437379
0.487988 0.470159 0.446328
0.497243 0.479379 0.455265
0.214222 0.197419 0.181792
0.223812 0.206974 0.191064
0.233391 0.216517 0.200325
0.242958 0.226049 0.209574
0.252514 0.235569 0.218811
0.262058 0.245078 0.228038
0.271590 0.254575 0.237252
0.281111 0.264060 0.246455
0.290620 0.273534 0.255647
0.300118 0.282997 0.264826
0.309604 0.292448 0.273995
0.319079 0.301887 0.283152
0.328542 0.311315 0.292297
0.337993 0.320731 0.301431
0.347433 0.330136 0.310553
0.356862 0.339529 0.319663
0.366279 0.348910 0.328762
0.375684 0.358280 0.337850
0.385078 0.367639 0.346926
0.394460 0.376986 0.355990
0.403831 0.386321 0.365043
0.413190 0.395645 0.374084
0.422538 0.404957 0.383114
0.431874 0.414258 0.392132
0.441198 0.423547 0.401139
0.450511 0.432825 0.410134
0.459813 0.442091 0.419117
0.469103 0.451346 0.428089
0.478381 0.460589 0.437050
0.487648 0.469820 0.445999
0.496903 0.479040 0.454936
0.506147 0.488248 0.463862
0.515379 0.497445 0.472776
0.233039 0.216166 0.199984
0.242606 0.225698 0.209234
0.252162 0.235219 0.218472
0.261707 0.244728 0.227698
0.271239 0.254225 0.236913
0.280761 0.263711 0.246117
0.290270 0.273186 0.255309
0.299769 0.282649 0.264489
0.309255 0.292100 0.273658
0.318730 0.301540 0.282815
0.328194 0.310968 0.291961
0.337646 0.320385 0.301095
0.347086 0.329790 0.310217
0.356515 0.339183 0.319328
0.365933 0.348565 0.328428
0.375338 0.357936 0.337516
0.384733 0.367295 0.346592
0.394115 0.376642 0.355657
0.403486 0.385978 0.364710
0.412846 0.395302 0.373752
0.422194 0.404615 0.382782
0.431531 0.413916 0.391801
0.440856 0.423206 0.400808
0.450169 0.432484 0.409803
0.459471 0.441750 0.418787
0.468761 0.451005 0.427760
0.478040 0.460249 0.436720
0.487307 0.469481 0.445670
0.496563 0.478701 0.454607
0.505807 0.487910 0.463534
0.515039 0.497107 0.472448
0.524260 0.506293 0.481351
0.533470 0.515467 0.490243
0.251811 0.234869 0.218132
0.261356 0.244378 0.227359
0.270889 0.253876 0.236575
0.280411 0.263363 0.245778
0.289921 0.272837 0.254971
0.299419 0.282301 0.264151
0.308906 0.291753 0.273321
0.318382 0.301193 0.282478
0.327846 0.310621 0.291624
0.337298 0.320038 0.300759
0.346739 0.329444 0.309882
0.356169 0.338838 0.318993
0.365586 0.348220 0.328093
0.374993 0.357591 0.337182
0.384387 0.366951 0.346258
0.393770 0.376298 0.355324
0.403142 0.385635 0.364377
0.412502 0.394959 0.373419
0.421850 0.404273 0.382450
0.431187 0.413574 0.391469
0.440513 0.422864 0.400477
0.449826 0.432143 0.409472
0.459129 0.441410 0.418457
0.468419 0.450665 0.427430
0.477699 0.459909 0.436391
0.486966 0.469141 0.445341
0.496222 0.478362 0.454279
0.505467 0.487571 0.463205
0.514700 0.496769 0.472121
0.523921 0.505955 0.481024
0.533131 0.515129 0.489916
0.542329 0.524292 0.498797
0.551516 0.533444 0.507665
0.270538 0.253527 0.236236
0.280061 0.263014 0.245440
0.289571 0.272489 0.254633
0.299070 0.281953 0.263814
0.308558 0.291405 0.272983
0.318034 0.300846 0.282142
0.327498 0.310275 0.291288
0.336951 0.319692 0.300423
0.346392 0.329098 0.309546
0.355822 0.338493 0.318658
0.365240 0.347875 0.327759
0.374647 0.357247 0.336847
0.384042 0.366607 0.345925
0.393425 0.375955 0.354990
0.402797 0.385291 0.364044
0.412158 0.394617 0.373087
0.421507 0.403930 0.382118
0.430844 0.413232 0.391137
0.440170 0.422523 0.400145
0.449484 0.431802 0.409142
0.458787 0.441069 0.418126
0.468078 0.450325 0.427100
0.477357 0.459569 0.436061
0.486625 0.468802 0.445012
0.495882 0.478023 0.453950
0.505127 0.487232 0.462877
0.514360 0.496431 0.471793
0.523582 0.505617 0.480697
0.532792 0.514792 0.489589
0.541991 0.523955 0.498470
0.551178 0.533107 0.507339
0.560354 0.542248 0.516197
0.569518 0.551376 0.525043
0.289221 0.272141 0.254295
0.298721 0.281605 0.263476
0.308209 0.291057 0.272646
0.317685 0.300498 0.281805
0.327150 0.309928 0.290952
0.336603 0.319346 0.300087
0.346045 0.328752 0.309211
0.355475 0.338147 0.318323
0.364894 0.347530 0.327424
0.374301 0.356902 0.336513
0.383696 0.366262 0.345591
0.393080 0.375611 0.354657
0.402453 0.384948 0.363711
0.411814 0.394274 0.372754
0.421163 0.403588 0.381786
0.430501 0.412890 0.390806
0.439827 0.422181 0.399814
0.449142 0.431460 0.408811
0.458445 0.440728 0.417796
0.467736 0.449984 0.426770
0.477016 0.459229 0.435732
0.486285 0.468462 0.444683
0.495542 0.477684 0.453622
0.504787 0.486894 0.462549
0.514021 0.496092 0.471465
0.523243 0.505279 0.480369
0.532454 0.514455 0.489262
0.541653 0.523619 0.498143
0.550840 0.532771 0.507013
0.560017 0.541912 0.515871
0.569181 0.551041 0.524718
0.578334 0.560158 0.533553
0.587475 0.569264 0.542377
0.307860 0.290710 0.272309
0.317337 0.300151 0.281468
0.326802 0.309581 0.290615
0.336256 0.319000 0.299751
0.345698 0.328406 0.308876
0.355128 0.337802 0.317988
0.364547 0.347185 0.327089
0.373955 0.356558 0.336179
0.383351 0.365918 0.345257
0.392735 0.375267 0.354324
0.402108 0.384605 0.363379
0.411469 0.393931 0.372422
0.420819 0.403245 0.381454
0.430157 0.412548 0.390474
0.439484 0.421839 0.399483
0.448799 0.431119 0.408480
0.458103 0.440387 0.417466
0.467395 0.449644 0.426440
0.476675 0.458889 0.435402
0.485944 0.468123 0.444353
0.495201 0.477345 0.453293
0.504447 0.486555 0.462221
0.513681 0.495754 0.471137
0.522904 0.504941 0.480042
0.532115 0.514117 0.488935
0.541315 0.523282 0.497817
0.550503 0.532434 0.506687
0.559679 0.541575 0.515546
0.568844 0.550705 0.524393
0.577997 0.559823 0.533228
0.587139 0.568930 0.542052
0.596270 0.578025 0.550865
0.605388 0.587108 0.559665
0.326454 0.309235 0.290279
0.335908 0.318653 0.299415
0.345351 0.328061 0.308540
0.354782 0.337456 0.317653
0.364201 0.346840 0.326755
0.373609 0.356213 0.335845
0.383005 0.365574 0.344923
0.392390 0.374924 0.353990
0.401764 0.384262 0.363046
0.411125 0.393588 0.372090
0.420475 0.402903 0.381122
0.429814 0.412206 0.390143
0.439141 0.421498 0.399152
0.448457 0.430778 0.408149
0.457761 0.440047 0.417135
0.467053 0.449304 0.426110
0.476334 0.458549 0.435073
0.485603 0.467783 0.444024
0.494861 0.477006 0.452964
0.504107 0.486217 0.461893
0.513342 0.495416 0.470809
0.522565 0.504604 0.479715
0.531776 0.513780 0.488608
0.540976 0.522945 0.497490
0.550165 0.532098 0.506361
0.559342 0.541239 0.515220
0.568507 0.550369 0.524068
0.577661 0.559488 0.532903
0.586803 0.568595 0.541728
0.595934 0.577690 0.550541
0.605053 0.586774 0.559342
0.614161 0.595846 0.568132
0.623257 0.604907 0.576910
0.345003 0.327715 0.308205
0.354435 0.337111 0.317318
0.363855 0.346495 0.326420
0.373263 0.355868 0.335511
0.382660 0.365230 0.344590
0.392045 0.374580 0.353657
0.401419 0.383918 0.362713
0.410781 0.393245 0.371757
0.420132 0.402560 0.380790
0.429471 0.411864 0.389811
0.438798 0.421156 0.398820
0.448114 0.430437 0.407818
0.457418 0.439706 0.416805
0.466711 0.448963 0.425780
0.475993 0.458209 0.434743
0.485262 0.467444 0.443695
0.494520 0.476667 0.452636
0.503767 0.485878 0.461564
0.513002 0.495078 0.470482
0.522226 0.504266 0.479387
0.531438 0.513443 0.488281
0.540638 0.522608 0.497164
0.549827 0.531761 0.506035
0.559004 0.540903 0.514894
0.568170 0.550034 0.523742
0.577324 0.559153 0.532579
0.586467 0.568260 0.541403
0.595598 0.577356 0.550217
0.604718 0.586440 0.559018
0.613826 0.595513 0.567809
0.622922 0.604574 0.576587
0.632007 0.613623 0.585354
0.641080 0.622661 0.594110
0.363509 0.346150 0.326086
0.372917 0.355524 0.335176
0.382315 0.364886 0.344256
0.391700 0.374236 0.353324
0.401074 0.383575 0.362380
0.410437 0.392902 0.371424
0.419788 0.402218 0.380458
0.429127 0.411522 0.389479
0.438455 0.420815 0.398489
0.447772 0.430096 0.407488
0.457076 0.439365 0.416475
0.466370 0.448623 0.425450
0.475651 0.457869 0.434414
0.484921 0.467104 0.443366
0.494180 0.476328 0.452307
0.503427 0.485539 0.461236
0.512663 0.494739 0.470154
0.521887 0.503928 0.479060
0.531099 0.513105 0.487954
0.540300 0.522271 0.496837
0.549489 0.531425 0.505709
0.558667 0.540567 0.514569
0.567833 0.549698 0.523417
0.576988 0.558817 0.532254
0.586131 0.567925 0.541079
0.595262 0.577021 0.549893
0.604382 0.586106 0.558695
0.613491 0.595179 0.567485
0.622588 0.604241 0.576264
0.631673 0.613291 0.585032
0.640747 0.622329 0.593788
0.649809 0.631356 0.602532
0.658860 0.640372 0.611265
0.381969 0.364542 0.343922
0.391355 0.373892 0.352990
0.400730 0.383232 0.362047
0.410093 0.392559 0.371092
0.419444 0.401875 0.380125
0.428784 0.411180 0.389147
0.438112 0.420473 0.398158
0.447429 0.429754 0.407157
0.456734 0.439024 0.416144
0.466028 0.448283 0.425120
0.475310 0.457529 0.434084
0.484581 0.466765 0.443037
0.493840 0.475988 0.451978
0.503087 0.485201 0.460908
0.512323 0.494401 0.469826
0.521547 0.503590 0.478732
0.530760 0.512768 0.487627
0.539962 0.521934 0.496511
0.549151 0.531088 0.505383
0.558330 0.540231 0.514243
0.567496 0.549362 0.523092
0.576651 0.558482 0.531929
0.585795 0.567590 0.540754
0.594927 0.576687 0.549568
0.604047 0.585772 0.558371
0.613156 0.594846 0.567162
0.622253 0.603908 0.575942
0.631339 0.612958 0.584709
0.640413 0.621997 0.593466
0.649476 0.631024 0.602211
0.658527 0.640040 0.610944
0.667567 0.649044 0.619666
0.676595 0.658037 0.628376
0.400385 0.382888 0.361714
0.409748 0.392216 0.370759
0.419100 0.401533 0.379793
0.428441 0.410838 0.388816
0.437769 0.420131 0.397827
0.447087 0.429413 0.406826
0.456392 0.438683 0.415814
0.465686 0.447942 0.424790
0.474969 0.457189 0.433755
0.484240 0.466425 0.442708
0.493499 0.475649 0.451649
0.502747 0.484862 0.460579
0.511984 0.494063 0.469498
0.521208 0.503252 0.478405
0.530422 0.512430 0.487300
0.539623 0.521597 0.496184
0.548813 0.530752 0.505056
0.557992 0.539895 0.513917
0.567159 0.549027 0.522766
0.576315 0.558147 0.531604
0.585459 0.567255 0.540430
0.594591 0.576352 0.549245
0.603712 0.585438 0.558047
0.612821 0.594512 0.566839
0.621919 0.603574 0.575619
0.631005 0.612625 0.584387
0.640080 0.621665 0.593144
0.649143 0.630692 0.601889
0.658194 0.639709 0.610623
0.667234 0.648713 0.619345
0.676263 0.657706 0.628056
0.685280 0.666688 0.636754
0.694285 0.675658 0.645442
0.418756 0.401190 0.379461
0.428097 0.410496 0.388484
0.437426 0.419790 0.397495
0.446744 0.429072 0.406495
0.456050 0.438343 0.415483
0.465345 0.447602 0.424460
0.474627 0.456849 0.433425
0.483899 0.466086 0.442379
0.493159 0.475310 0.451321
0.502407 0.484523 0.460251
0.511644 0.493725 0.469170
0.520869 0.502914 0.478077
0.530083 0.512093 0.486973
0.539285 0.521260 0.495857
0.548476 0.530415 0.504730
0.557655 0.539559 0.513591
0.566822 0.548691 0.522441
0.575978 0.557811 0.531279
0.585122 0.566921 0.540106
0.594255 0.576018 0.548920
0.603376 0.585104 0.557724
0.612486 0.594178 0.566516
0.621584 0.603241 0.575296
0.630671 0.612292 0.584065
0.639746 0.621332 0.592822
0.648810 0.630360 0.601568
0.657862 0.639377 0.610302
0.666902 0.648382 0.619024
0.675931 0.657376 0.627735
0.684948 0.666358 0.636435
0.693954 0.675328 0.645123
0.702948 0.684287 0.653799
0.711931 0.693234 0.662464
0.437083 0.419448 0.397164
0.446401 0.428731 0.406164
0.455708 0.438002 0.415153
0.465003 0.447261 0.424130
0.474286 0.456509 0.433096
0.483558 0.465746 0.442050
0.492818 0.474971 0.450992
0.502067 0.484184 0.459923
0.511304 0.493386 0.468842
0.520530 0.502577 0.477750
0.529744 0.511755 0.486646
0.538947 0.520923 0.495531
0.548138 0.530078 0.504404
0.557317 0.539222 0.513266
0.566485 0.548355 0.522116
0.575641 0.557476 0.530954
0.584786 0.566586 0.539781
0.593919 0.575683 0.548596
0.603041 0.584770 0.557400
0.612151 0.593845 0.566192
0.621250 0.602908 0.574973
0.630337 0.611960 0.583742
0.639412 0.621000 0.592500
0.648476 0.630029 0.601246
0.657529 0.639046 0.609981
0.666570 0.648051 0.618704
0.675599 0.657045 0.627415
0.684617 0.666028 0.636115
0.693623 0.674998 0.644803
0.702618 0.683958 0.653480
0.711601 0.692906 0.662145
0.720572 0.701842 0.670799
0.729532 0.710766 0.679441
0.455366 0.437661 0.414822
0.464661 0.446921 0.423800
0.473945 0.456169 0.432766
0.483217 0.465406 0.441720
0.492478 0.474632 0.450663
0.501727 0.483846 0.459594
0.510965 0.493048 0.468514
0.520191 0.502239 0.477422
0.529405 0.511418 0.486319
0.538608 0.520586 0.495204
0.547800 0.529742 0.504078
0.556980 0.538886 0.512940
0.566148 0.548019 0.521790
0.575305 0.557141 0.530629
0.584450 0.566251 0.539456
0.593584 0.575349 0.548272
0.602706 0.584436 0.557077
0.611816 0.593511 0.565869
0.620915 0.602575 0.574650
0.630003 0.611627 0.583420
0.639079 0.620668 0.592178
0.648143 0.629697 0.600924
0.657196 0.638714 0.609659
0.666237 0.647720 0.618383
0.675267 0.656714 0.627095
0.684285 0.665697 0.635795
0.693292 0.674669 0.644484
0.702287 0.683628 0.653161
0.711270 0.692577 0.661827
0.720242 0.701513 0.670481
0.729203 0.710438 0.679123
0.738152 0.719352 0.687754
0.747089 0.728254 0.696374
0.473604 0.455829 0.432436
0.482876 0.465067 0.441391
0.492137 0.474293 0.450334
0.501387 0.483507 0.459266
0.510625 0.492710 0.468186
0.519852 0.501901 0.477095
0.529067 0.511080 0.485992
0.538270 0.520249 0.494877
0.547462 0.529405 0.503751
0.556642 0.538550 0.512614
0.565811 0.547684 0.521465
0.574968 0.556805 0.530304
0.584114 0.565916 0.539132
0.593248 0.575014 0.547948
0.602370 0.584102 0.556753
0.611481 0.593177 0.565546
0.620581 0.602242 0.574328
0.629669 0.611294 0.583097
0.638745 0.620335 0.591856
0.647810 0.629365 0.600603
0.656863 0.638383 0.609338
0.665905 0.647389 0.618062
0.674935 0.656384 0.626774
0.683953 0.665367 0.635475
0.692961 0.674339 0.644164
0.701956 0.683299 0.652842
0.710940 0.692248 0.661508
0.719912 0.701185 0.670162
0.728873 0.710110 0.678805
0.737822 0.719024 0.687437
0.746760 0.727926 0.696057
0.755686 0.736817 0.704665
0.764601 0.745697 0.713262
0.491797 0.473953 0.450006
0.501047 0.483168 0.458938
0.510285 0.492371 0.467858
0.519512 0.501563 0.476767
0.528728 0.510743 0.485665
0.537932 0.519911 0.494551
0.547124 0.529068 0.503425
0.556305 0.538214 0.512288
0.565474 0.547348 0.521139
0.574631 0.556470 0.529979
0.583777 0.565581 0.538807
0.592912 0.574680 0.547624
0.602035 0.583768 0.556429
0.611146 0.592844 0.565223
0.620246 0.601908 0.574005
0.629335 0.610961 0.582775
0.638411 0.620003 0.591534
0.647476 0.629033 0.600281
0.656530 0.638051 0.609017
0.665572 0.647058 0.617741
0.674603 0.656053 0.626454
0.683622 0.665037 0.635155
0.692629 0.674009 0.643845
0.701625 0.682969 0.652523
0.710610 0.691919 0.661189
0.719582 0.700856 0.669844
0.728544 0.709782 0.678488
0.737494 0.718696 0.687120
0.746432 0.727599 0.695740
0.755358 0.736491 0.704349
0.764273 0.745370 0.712946
0.773177 0.754238 0.721531
0.782069 0.763095 0.730106
0.509946 0.492033 0.467530
0.519173 0.501225 0.476440
0.528389 0.510405 0.485338
0.537593 0.519574 0.494224
0.546786 0.528732 0.503099
0.555967 0.537878 0.511962
0.565137 0.547012 0.520814
0.574295 0.556135 0.529654
0.583441 0.565246 0.538483
0.592576 0.574345 0.547300
0.601700 0.583434 0.556105
0.610811 0.592510 0.564899
0.619912 0.601575 0.573682
0.629000 0.610628 0.582453
0.638078 0.619670 0.591212
0.647143 0.628701 0.599960
0.656197 0.637719 0.608696
0.665240 0.646727 0.617421
0.674271 0.655722 0.626134
0.683290 0.664706 0.634835
0.692298 0.673679 0.643525
0.701295 0.682640 0.652204
0.710279 0.691590 0.660871
0.719253 0.700527 0.669526
