app/src/main/assets/luts/night_city.cube
# V-Cam procedural LUT — night_city
# Generated by LutBaker. Do not edit by hand.
TITLE "V-Cam night_city"
LUT_3D_SIZE 9
DOMAIN_MIN 0.0 0.0 0.0
DOMAIN_MAX 1.0 1.0 1.0
0.000000 0.000000 0.000000
0.000000 0.000000 0.000000
0.013378 0.000000 0.000000
0.153579 0.000000 0.000000
0.331795 0.000000 0.000000
0.532746 0.000000 0.000000
0.739822 0.000000 0.000000
0.921340 0.000000 0.000000
1.000000 0.000000 0.000000
0.000000 0.000000 0.000000
0.000000 0.000000 0.000000
0.013378 0.000000 0.000000
0.153579 0.000000 0.000000
0.331795 0.000000 0.000000
0.532746 0.000000 0.000000
0.739822 0.000000 0.000000
0.921340 0.000000 0.000000
1.000000 0.000000 0.000000
0.000000 0.013738 0.000000
0.000000 0.013738 0.000000
0.013378 0.013737 0.000000
0.153576 0.013648 0.000000
0.331789 0.011954 0.000000
0.532736 0.000724 0.000000
0.739808 0.000000 0.000000
0.921325 0.000000 0.000000
1.000000 0.000000 0.000000
0.000000 0.155131 0.000000
0.000000 0.155131 0.000000
0.013195 0.155130 0.000000
0.153516 0.155100 0.000000
0.331674 0.154690 0.000000
0.532554 0.151314 0.000000
0.739558 0.136509 0.000000
0.921051 0.097477 0.000000
1.000000 0.047720 0.000000
0.000000 0.334235 0.000000
0.000000 0.334235 0.000000
0.009867 0.334232 0.000000
0.152650 0.334177 0.000000
0.331289 0.333987 0.000000
0.531921 0.333063 0.000000
0.738651 0.328104 0.000000
0.920075 0.315969 0.000000
1.000000 0.305160 0.000000
0.000000 0.535531 0.000000
0.000000 0.535531 0.000000
0.000000 0.535527 0.000000
0.146207 0.535445 0.000000
0.329351 0.535162 0.000000
0.530673 0.534573 0.000000
0.736645 0.532975 0.000000
0.917906 0.527562 0.000000
1.000000 0.522630 0.000000
0.000000 0.741294 0.000000
0.000000 0.741294 0.000000
0.000000 0.741288 0.000000
0.120158 0.741181 0.000000
0.320797 0.740802 0.000000
0.527394 0.739997 0.000000
0.733783 0.738775 0.000000
0.914321 0.736892 0.000000
1.000000 0.734477 0.000000
0.000000 0.920545 0.000000
0.000000 0.920545 0.000000
0.000000 0.920538 0.000000
0.002942 0.920403 0.000000
0.296718 0.919942 0.000000
0.516602 0.919027 0.000000
0.729159 0.917466 0.000000
0.909862 0.915487 0.000000
1.000000 0.914497 0.000000
0.000000 1.000000 0.000000
0.000000 1.000000 0.000000
0.000000 1.000000 0.000000
0.000000 1.000000 0.000000
0.267619 1.000000 0.000000
0.504530 1.000000 0.000000
0.723458 1.000000 0.000000
0.907202 1.000000 0.000000
0.998267 1.000000 0.000000
0.000000 0.000000 0.000000
0.000000 0.000000 0.000000
0.013378 0.000000 0.000000
0.153579 0.000000 0.000000
0.331795 0.000000 0.000000
0.532746 0.000000 0.000000
0.739822 0.000000 0.000000
0.921340 0.000000 0.000000
1.000000 0.000000 0.000000
0.000000 0.000000 0.000000
0.000000 0.000000 0.000000
0.013378 0.000000 0.000000
0.153579 0.000000 0.000000
0.331795 0.000000 0.000000
0.532746 0.000000 0.000000
0.739822 0.000000 0.000000
0.921340 0.000000 0.000000
1.000000 0.000000 0.000000
0.000000 0.013738 0.000000
0.000000 0.013738 0.000000
0.013378 0.013737 0.000000
0.153576 0.013648 0.000000
0.331789 0.011954 0.000000
0.532736 0.000724 0.000000
0.739808 0.000000 0.000000
0.921325 0.000000 0.000000
1.000000 0.000000 0.000000
0.000000 0.155131 0.000000
0.000000 0.155131 0.000000
0.013195 0.155130 0.000000
0.153516 0.155100 0.000000
0.331674 0.154690 0.000000
0.532554 0.151314 0.000000
0.739558 0.136509 0.000000
0.921051 0.097477 0.000000
1.000000 0.047720 0.000000
0.000000 0.334235 0.000000
0.000000 0.334235 0.000000
0.009867 0.334232 0.000000
0.152650 0.334177 0.000000
0.331289 0.333987 0.000000
0.531921 0.333063 0.000000
0.738651 0.328104 0.000000
0.920075 0.315969 0.000000
1.000000 0.305160 0.000000
0.000000 0.535531 0.000000
0.000000 0.535531 0.000000
0.000000 0.535527 0.000000
0.146207 0.535445 0.000000
0.329351 0.535162 0.000000
0.530673 0.534573 0.000000
0.736645 0.532975 0.000000
0.917906 0.527562 0.000000
1.000000 0.522630 0.000000
0.000000 0.741294 0.000000
0.000000 0.741294 0.000000
0.000000 0.741288 0.000000
0.120158 0.741181 0.000000
0.320797 0.740802 0.000000
0.527394 0.739997 0.000000
0.733783 0.738775 0.000000
0.914321 0.736892 0.000000
1.000000 0.734477 0.000000
0.000000 0.920545 0.000000
0.000000 0.920545 0.000000
0.000000 0.920538 0.000000
0.002942 0.920403 0.000000
0.296718 0.919942 0.000000
0.516602 0.919027 0.000000
0.729159 0.917466 0.000000
0.909862 0.915487 0.000000
1.000000 0.914497 0.000000
0.000000 1.000000 0.000000
0.000000 1.000000 0.000000
0.000000 1.000000 0.000000
0.000000 1.000000 0.000000
0.267619 1.000000 0.000000
0.504530 1.000000 0.000000
0.723458 1.000000 0.000000
0.907202 1.000000 0.000000
0.998267 1.000000 0.000000
0.000000 0.000000 0.014523
0.000000 0.000000 0.014523
0.013378 0.000000 0.014523
0.153578 0.000000 0.014442
0.331794 0.000000 0.012776
0.532743 0.000000 0.001605
0.739818 0.000000 0.000000
0.921337 0.000000 0.000000
1.000000 0.000000 0.000000
0.000000 0.000000 0.014523
0.000000 0.000000 0.014523
0.013378 0.000000 0.014523
0.153578 0.000000 0.014442
0.331794 0.000000 0.012776
0.532743 0.000000 0.001605
0.739818 0.000000 0.000000
0.921337 0.000000 0.000000
1.000000 0.000000 0.000000
0.000000 0.013737 0.014522
0.000000 0.013737 0.014522
0.013377 0.013737 0.014522
0.153571 0.013651 0.014437
0.331781 0.011967 0.012756
0.532723 0.000761 0.001556
0.739790 0.000000 0.000000
0.921304 0.000000 0.000000
1.000000 0.000000 0.000000
0.000000 0.155131 0.014344
0.000000 0.155131 0.014344
0.013202 0.155127 0.014348
0.153515 0.155098 0.014264
0.331667 0.154692 0.012016
0.532541 0.151325 0.000000
0.739539 0.136540 0.000000
0.921030 0.097539 0.000000
1.000000 0.047856 0.000000
0.000000 0.334234 0.011028
0.000000 0.334234 0.011028
0.009899 0.334227 0.011049
0.152658 0.334173 0.010698
0.331287 0.333985 0.009473
0.531912 0.333064 0.000000
0.738634 0.328112 0.000000
0.920055 0.315984 0.000000
1.000000 0.305179 0.000000
0.000000 0.535529 0.000000
0.000000 0.535529 0.000000
0.000000 0.535519 0.000000
0.146237 0.535438 0.000000
0.329357 0.535156 0.000000
0.530670 0.534570 0.000000
0.736632 0.532975 0.000000
0.917890 0.527565 0.000000
1.000000 0.522636 0.000000
0.000000 0.741294 0.000000
0.000000 0.741294 0.000000
0.000000 0.741278 0.000000
0.120248 0.741169 0.000000
0.320821 0.740792 0.000000
0.527400 0.739988 0.000000
0.733779 0.738770 0.000000
0.914309 0.736890 0.000000
1.000000 0.734476 0.000000
0.000000 0.920547 0.000000
0.000000 0.920547 0.000000
0.000000 0.920521 0.000000
0.003430 0.920385 0.000000
0.296784 0.919925 0.000000
0.516624 0.919012 0.000000
0.729163 0.917455 0.000000
0.909856 0.915481 0.000000
1.000000 0.914492 0.000000
0.000000 1.000000 0.000000
0.000000 1.000000 0.000000
0.000000 1.000000 0.000000
0.000000 1.000000 0.000000
0.267720 1.000000 0.000000
0.504564 1.000000 0.000000
0.723467 1.000000 0.000000
0.907199 1.000000 0.000000
0.998260 1.000000 0.000000
0.000000 0.000000 0.159369
0.000000 0.000000 0.159369
0.013348 0.000000 0.159368
0.153570 0.000000 0.159336
0.331770 0.000000 0.159106
0.532703 0.000000 0.156198
0.739747 0.000000 0.142712
0.921281 0.000000 0.107095
1.000000 0.000000 0.064582
0.000000 0.000000 0.159369
0.000000 0.000000 0.159369
0.013348 0.000000 0.159368
0.153570 0.000000 0.159336
0.331770 0.000000 0.159106
0.532703 0.000000 0.156198
0.739747 0.000000 0.142712
0.921281 0.000000 0.107095
1.000000 0.000000 0.064582
0.000000 0.013703 0.159366
0.000000 0.013703 0.159366
0.013339 0.013699 0.159360
0.153564 0.013608 0.159330
0.331757 0.011816 0.159095
0.532682 0.000385 0.156177
0.739719 0.000000 0.142669
0.921249 0.000000 0.106999
1.000000 0.000000 0.064403
0.000000 0.155120 0.159304
0.000000 0.155120 0.159304
0.013156 0.155117 0.159300
0.153505 0.155087 0.159267
0.331547 0.154742 0.158947
0.532328 0.151520 0.155851
0.739212 0.137086 0.141939
0.920657 0.098607 0.105280
1.000000 0.050134 0.061136
0.000000 0.334212 0.158544
0.000000 0.334212 0.158544
0.009748 0.334205 0.158546
0.152803 0.334095 0.158613
0.331252 0.333947 0.158320
0.531745 0.333088 0.153919
0.738329 0.328268 0.136997
0.919691 0.316251 0.092787
1.000000 0.305542 0.034008
0.000000 0.535502 0.152470
0.000000 0.535502 0.152470
0.000000 0.535491 0.152488
0.146741 0.535308 0.152834
0.329478 0.535045 0.152020
0.530616 0.534513 0.150267
0.736411 0.532977 0.127118
0.917580 0.527627 0.057534
1.000000 0.522742 0.000000
0.000000 0.741280 0.127650
0.000000 0.741280 0.127650
0.000000 0.741264 0.127723
0.121740 0.740978 0.129101
0.321274 0.740605 0.127340
0.527508 0.739842 0.123317
0.733703 0.738688 0.117316
0.914090 0.736843 0.000000
1.000000 0.734457 0.000000
0.000000 0.920588 0.019724
0.000000 0.920588 0.019724
0.000000 0.920562 0.020243
0.011468 0.920085 0.030052
0.297988 0.919625 0.020260
0.517036 0.918754 0.000000
0.729229 0.917262 0.000000
0.909742 0.915360 0.000000
1.000000 0.914399 0.000000
0.000000 1.000000 0.000000
0.000000 1.000000 0.000000
0.000000 1.000000 0.000000
0.000000 1.000000 0.000000
0.269573 1.000000 0.000000
0.505187 1.000000 0.000000
0.723635 1.000000 0.000000
0.907148 1.000000 0.000000
0.998133 1.000000 0.000000
0.000000 0.000000 0.342206
0.000000 0.000000 0.342206
0.012636 0.000000 0.342203
0.153587 0.000000 0.342141
0.331717 0.000000 0.341928
0.532556 0.000000 0.341660
0.739490 0.000000 0.338132
0.921083 0.000000 0.328091
1.000000 0.000000 0.318761
0.000000 0.000000 0.342206
0.000000 0.000000 0.342206
0.012636 0.000000 0.342203
0.153587 0.000000 0.342141
0.331717 0.000000 0.341928
0.532556 0.000000 0.341660
0.739490 0.000000 0.338132
0.921083 0.000000 0.328091
1.000000 0.000000 0.318761
0.000000 0.012975 0.342200
0.000000 0.012975 0.342200
0.012599 0.012961 0.342187
0.153571 0.012550 0.342126
0.331705 0.011126 0.341915
0.532537 0.000000 0.341644
0.739462 0.000000 0.338108
0.921051 0.000000 0.328054
1.000000 0.000000 0.318717
0.000000 0.155033 0.342078
0.000000 0.155033 0.342078
0.011782 0.155026 0.342067
0.153342 0.154933 0.341878
0.331507 0.154568 0.341713
0.532195 0.151125 0.341371
0.738962 0.136273 0.337692
0.920464 0.096005 0.327402
1.000000 0.044511 0.317922
0.000000 0.334146 0.341668
0.000000 0.334146 0.341668
0.009014 0.334140 0.341662
0.152613 0.334044 0.341560
0.331204 0.333891 0.341382
0.531227 0.333230 0.340796
0.737335 0.328846 0.336643
0.918477 0.317187 0.325474
1.000000 0.306790 0.315493
0.000000 0.535403 0.340015
0.000000 0.535403 0.340015
0.000000 0.535393 0.340015
0.146248 0.535219 0.340021
0.329913 0.534720 0.340212
0.530471 0.534355 0.339765
0.735676 0.533031 0.333685
0.916499 0.527894 0.318354
1.000000 0.523168 0.306113
0.000000 0.741229 0.331795
0.000000 0.741229 0.331795
0.000000 0.741213 0.331811
0.119642 0.740930 0.332126
0.322723 0.740034 0.333405
0.527917 0.739366 0.332438
0.733469 0.738436 0.330857
0.913334 0.736709 0.306024
1.000000 0.734423 0.289643
0.000000 0.920729 0.307949
0.000000 0.920729 0.307949
0.000000 0.920703 0.308014
0.000000 0.920223 0.309228
0.301626 0.918712 0.313365
0.518481 0.917895 0.310039
0.729484 0.916621 0.303393
0.909370 0.914964 0.294644
1.000000 0.914094 0.268151
0.000000 1.000000 0.283405
0.000000 1.000000 0.283405
0.000000 1.000000 0.283432
0.000000 1.000000 0.283959
0.275180 1.000000 0.288391
0.507370 1.000000 0.283641
0.724245 1.000000 0.274270
0.906992 1.000000 0.262166
0.997709 1.000000 0.254355
0.000000 0.000000 0.548691
0.000000 0.000000 0.548691
0.007772 0.000000 0.548685
0.152534 0.000000 0.548584
0.332086 0.000000 0.548230
0.532358 0.000000 0.547484
0.738905 0.000000 0.547542
0.920644 0.000000 0.544836
1.000000 0.000000 0.541494
0.000000 0.000000 0.548691
0.000000 0.000000 0.548691
0.007772 0.000000 0.548685
0.152534 0.000000 0.548584
0.332086 0.000000 0.548230
0.532358 0.000000 0.547484
0.738905 0.000000 0.547542
0.920644 0.000000 0.544836
1.000000 0.000000 0.541494
0.000000 0.008078 0.548680
0.000000 0.008078 0.548680
0.007677 0.008042 0.548661
0.152499 0.006954 0.548560
0.332066 0.003162 0.548207
0.532340 0.000000 0.547465
0.738878 0.000000 0.547520
0.920612 0.000000 0.544808
1.000000 0.000000 0.541462
0.000000 0.153767 0.548482
0.000000 0.153767 0.548482
0.005505 0.153754 0.548464
0.151907 0.153527 0.548133
0.331713 0.152380 0.547808
0.532015 0.149969 0.547133
0.738395 0.134709 0.547118
0.920036 0.090008 0.544294
1.000000 0.030746 0.540882
0.000000 0.334102 0.547813
0.000000 0.334102 0.547813
0.000000 0.334093 0.547798
0.149590 0.333940 0.547520
0.330879 0.333592 0.546653
0.531112 0.332916 0.546199
0.736843 0.328374 0.545930
0.918087 0.315682 0.542675
1.000000 0.304811 0.539027
0.000000 0.535228 0.546485
0.000000 0.535228 0.546485
0.000000 0.535219 0.546476
0.144638 0.535060 0.546307
0.329500 0.534612 0.545826
0.530366 0.534227 0.545364
0.734390 0.533322 0.544608
0.914362 0.528635 0.540283
1.000000 0.524223 0.536117
0.000000 0.741109 0.543580
0.000000 0.741109 0.543580
0.000000 0.741094 0.543577
0.114376 0.740816 0.543533
0.321387 0.739940 0.543498
0.528779 0.738616 0.543973
0.733142 0.738072 0.543602
0.911474 0.736694 0.536343
1.000000 0.734522 0.529670
0.000000 0.920698 0.533428
0.000000 0.920698 0.533428
0.000000 0.920681 0.533429
0.000000 0.920371 0.533443
0.296441 0.918959 0.534313
0.521114 0.916448 0.536838
0.730142 0.915444 0.534762
0.908720 0.914263 0.531482
0.998967 0.913542 0.522108
0.000000 1.000000 0.524049
0.000000 1.000000 0.524049
0.000000 1.000000 0.524053
0.000000 1.000000 0.524130
0.270390 1.000000 0.524519
0.511372 1.000000 0.527685
0.725649 1.000000 0.524651
0.906784 1.000000 0.520011
0.996917 1.000000 0.517046
0.000000 0.000000 0.761601
0.000000 0.000000 0.761601
0.000000 0.000000 0.761594
0.147470 0.000000 0.761452
0.331357 0.000000 0.760953
0.533592 0.000000 0.759879
0.738296 0.000000 0.758208
0.919921 0.000000 0.759504
1.000000 0.000000 0.759013
0.000000 0.000000 0.761601
0.000000 0.000000 0.761601
0.000000 0.000000 0.761594
0.147470 0.000000 0.761452
0.331357 0.000000 0.760953
0.533592 0.000000 0.759879
0.738296 0.000000 0.758208
0.919921 0.000000 0.759504
1.000000 0.000000 0.759013
0.000000 0.000000 0.761587
0.000000 0.000000 0.761587
0.000000 0.000000 0.761560
0.147402 0.000000 0.761418
0.331323 0.000000 0.760920
0.533566 0.000000 0.759849
0.738270 0.000000 0.758182
0.919890 0.000000 0.759476
1.000000 0.000000 0.758982
0.000000 0.148365 0.761320
0.000000 0.148365 0.761320
0.000000 0.148339 0.761294
0.146191 0.147901 0.760810
0.330723 0.145366 0.760326
0.533093 0.139821 0.759299
0.737806 0.130993 0.757707
0.919331 0.079313 0.758964
1.000000 0.007792 0.758429
0.000000 0.332697 0.760425
0.000000 0.332697 0.760425
0.000000 0.332683 0.760400
0.140940 0.332443 0.759944
0.329037 0.331808 0.758403
0.531671 0.330004 0.757517
0.736338 0.327288 0.756196
0.917398 0.313292 0.757252
1.000000 0.301525 0.756595
0.000000 0.535471 0.758671
0.000000 0.535471 0.758671
0.000000 0.535458 0.758649
0.128457 0.535236 0.758252
0.325203 0.534578 0.756937
0.529919 0.533831 0.754631
0.734115 0.532994 0.753860
0.913329 0.528203 0.754151
1.000000 0.522834 0.753302
0.000000 0.740965 0.756011
0.000000 0.740965 0.756011
0.000000 0.740952 0.755998
0.100481 0.740713 0.755746
0.318051 0.739844 0.754816
0.527944 0.738548 0.753389
0.733012 0.737906 0.752585
0.909392 0.737044 0.751941
0.999688 0.735134 0.750288
0.000000 0.919966 0.752221
0.000000 0.919966 0.752221
0.000000 0.919950 0.752212
0.000000 0.919657 0.752044
0.291304 0.918663 0.751515
0.518445 0.916522 0.750858
0.731208 0.914222 0.751105
0.908093 0.913562 0.750325
0.997213 0.913060 0.747490
0.000000 1.000000 0.747941
0.000000 1.000000 0.747941
0.000000 1.000000 0.747934
0.000000 1.000000 0.747805
0.266550 1.000000 0.747415
0.508092 1.000000 0.746945
0.727704 1.000000 0.747962
0.906811 1.000000 0.746467
0.996004 1.000000 0.745247
0.000000 0.000000 0.948622
0.000000 0.000000 0.948622
0.000000 0.000000 0.948614
0.134784 0.000000 0.948458
0.328149 0.000000 0.947905
0.534003 0.000000 0.946688
0.741049 0.000000 0.944718
0.918974 0.000000 0.942392
1.000000 0.000000 0.943624
0.000000 0.000000 0.948622
0.000000 0.000000 0.948622
0.000000 0.000000 0.948614
0.134784 0.000000 0.948458
0.328149 0.000000 0.947905
0.534003 0.000000 0.946688
0.741049 0.000000 0.944718
0.918974 0.000000 0.942392
1.000000 0.000000 0.943624
0.000000 0.000000 0.948608
0.000000 0.000000 0.948608
0.000000 0.000000 0.948573
0.134663 0.000000 0.948417
0.328097 0.000000 0.947864
0.533966 0.000000 0.946648
0.741016 0.000000 0.944680
0.918939 0.000000 0.942357
1.000000 0.000000 0.943592
0.000000 0.135173 0.948343
0.000000 0.135173 0.948343
0.000000 0.135131 0.948309
0.132468 0.134390 0.947668
0.327169 0.129544 0.947113
0.533308 0.118244 0.945915
0.740409 0.097577 0.943981
0.918304 0.066987 0.941706
1.000000 0.000000 0.943016
0.000000 0.328535 0.947472
0.000000 0.328535 0.947472
0.000000 0.328515 0.947438
0.122000 0.328168 0.946798
0.324324 0.327196 0.944560
0.531228 0.323728 0.943403
0.738422 0.318109 0.941609
0.916184 0.311533 0.939528
1.000000 0.297510 0.941064
0.000000 0.534491 0.945447
0.000000 0.534491 0.945447
0.000000 0.534475 0.945422
0.093900 0.534183 0.944950
0.316561 0.533274 0.942982
0.528143 0.532141 0.938608
0.735076 0.530021 0.937130
0.912367 0.527681 0.935558
1.000000 0.522019 0.936882
0.000000 0.741612 0.941800
0.000000 0.741612 0.941800
0.000000 0.741597 0.941779
0.020738 0.741325 0.941389
0.302773 0.740425 0.940047
0.522803 0.738756 0.936857
0.732611 0.737571 0.932675
0.909172 0.736658 0.932177
0.998769 0.734862 0.932581
0.000000 0.919332 0.937371
0.000000 0.919332 0.937371
0.000000 0.919317 0.937355
0.000000 0.919039 0.937064
0.285622 0.918098 0.936077
0.515361 0.916309 0.934177
0.730182 0.914162 0.931784
0.907905 0.913311 0.930670
0.995933 0.913048 0.930537
0.000000 1.000000 0.935422
0.000000 1.000000 0.935422
0.000000 1.000000 0.935408
0.000000 1.000000 0.935152
0.261839 1.000000 0.934290
0.506320 1.000000 0.932670
0.726466 1.000000 0.930878
0.907255 1.000000 0.930238
0.995476 0.999999 0.930077
0.000000 0.000000 1.000000
0.000000 0.000000 1.000000
0.000000 0.000000 1.000000
0.125469 0.000000 1.000000
0.325640 0.000000 1.000000
0.533755 0.000000 1.000000
0.742226 0.000000 1.000000
0.921246 0.000000 1.000000
1.000000 0.000000 1.000000
0.000000 0.000000 1.000000
0.000000 0.000000 1.000000
0.000000 0.000000 1.000000
0.125469 0.000000 1.000000
0.325640 0.000000 1.000000
0.533755 0.000000 1.000000
0.742226 0.000000 1.000000
0.921246 0.000000 1.000000
1.000000 0.000000 1.000000
0.000000 0.000000 1.000000
0.000000 0.000000 1.000000
0.000000 0.000000 1.000000
0.125312 0.000000 1.000000
0.325578 0.000000 1.000000
0.533713 0.000000 1.000000
0.742189 0.000000 1.000000
0.921208 0.000000 1.000000
1.000000 0.000000 1.000000
0.000000 0.125626 1.000000
0.000000 0.125626 1.000000
0.000000 0.125564 1.000000
0.122442 0.124535 1.000000
0.324467 0.118052 1.000000
0.532958 0.102281 1.000000
0.741511 0.070013 1.000000
0.920505 0.008757 1.000000
1.000000 0.000000 1.000000
0.000000 0.325625 1.000000
0.000000 0.325625 1.000000
0.000000 0.325599 1.000000
0.108643 0.325138 1.000000
0.320965 0.323901 1.000000
0.530529 0.319446 1.000000
0.739266 0.311998 1.000000
0.918135 0.302865 1.000000
1.000000 0.297249 1.000000
0.000000 0.533514 1.000000
0.000000 0.533514 1.000000
0.000000 0.533496 1.000000
0.070483 0.533171 1.000000
0.311253 0.532118 1.000000
0.526706 0.530756 1.000000
0.735348 0.527849 1.000000
0.913737 0.524474 1.000000
1.000000 0.522057 1.000000
0.000000 0.741596 1.000000
0.000000 0.741596 1.000000
0.000000 0.741580 1.000000
0.000000 0.741287 1.000000
0.294823 0.740311 1.000000
0.519329 0.738542 1.000000
0.732101 0.737108 1.000000
0.909711 0.735654 1.000000
0.998504 0.734659 1.000000
0.000000 0.919888 1.000000
0.000000 0.919888 1.000000
0.000000 0.919873 1.000000
0.000000 0.919579 1.000000
0.273413 0.918582 1.000000
0.510727 0.916668 1.000000
0.728397 0.914354 1.000000
0.907774 0.913224 1.000000
0.995885 0.912949 1.000000
0.000000 1.000000 1.000000
0.000000 1.000000 1.000000
0.000000 1.000000 1.000000
0.000000 1.000000 1.000000
0.259591 1.000000 1.000000
0.505484 1.000000 1.000000
0.725920 1.000000 1.000000
0.907138 1.000000 1.000000
0.995435 0.999921 1.000000
