app/src/main/assets/luts/night_neon_soft.cube
# V-Cam procedural LUT — night_neon_soft
# Generated by LutBaker. Do not edit by hand.
TITLE "V-Cam night_neon_soft"
LUT_3D_SIZE 9
DOMAIN_MIN 0.0 0.0 0.0
DOMAIN_MAX 1.0 1.0 1.0
0.000000 0.000000 0.000000
0.000404 0.000000 0.000000
0.060272 0.000000 0.000000
0.199524 0.000000 0.000000
0.374727 0.000000 0.000000
0.577277 0.000000 0.000000
0.792199 0.000000 0.000000
0.983980 0.000000 0.000000
1.000000 0.000000 0.000000
0.000000 0.000405 0.000012
0.000404 0.000405 0.000012
0.060272 0.000386 0.000000
0.199523 0.000000 0.000000
0.374726 0.000000 0.000000
0.577276 0.000000 0.000000
0.792198 0.000000 0.000000
0.983978 0.000000 0.000000
1.000000 0.000000 0.000000
0.000000 0.058910 0.001840
0.000370 0.058910 0.001840
0.060245 0.058896 0.001822
0.199462 0.058388 0.000834
0.374620 0.051546 0.000000
0.577115 0.004586 0.000000
0.792007 0.000000 0.000000
0.983754 0.000000 0.000000
1.000000 0.000000 0.000000
0.000000 0.196150 0.011029
0.000000 0.196150 0.011030
0.059331 0.196113 0.010961
0.199126 0.195949 0.010266
0.374025 0.194393 0.000000
0.576208 0.183034 0.000000
0.790923 0.129897 0.000000
0.982475 0.000000 0.000000
1.000000 0.000000 0.000000
0.000000 0.368003 0.026826
0.000000 0.368003 0.026828
0.047201 0.367909 0.026983
0.196330 0.367636 0.025015
0.372436 0.366878 0.018724
0.573654 0.363398 0.000000
0.787676 0.345328 0.000000
0.978754 0.302115 0.000000
1.000000 0.271777 0.000000
0.000000 0.564315 0.013952
0.000000 0.564314 0.013959
0.000000 0.564146 0.015091
0.177728 0.563692 0.012311
0.366369 0.562595 0.000934
0.569021 0.560524 0.000000
0.780247 0.554486 0.000000
0.971075 0.535566 0.000000
1.000000 0.523149 0.000000
0.000000 0.767322 0.000000
0.000000 0.767320 0.000000
0.000000 0.767067 0.000000
0.090006 0.766200 0.000000
0.340482 0.764764 0.000000
0.559079 0.761927 0.000000
0.769943 0.757948 0.000000
0.958926 0.750978 0.000000
1.000000 0.744962 0.000000
0.000000 0.946394 0.000000
0.000000 0.946391 0.000000
0.000000 0.945983 0.000000
0.000000 0.944165 0.000000
0.260745 0.942656 0.000000
0.526633 0.939460 0.000000
0.756572 0.934171 0.000000
0.944437 0.927986 0.000000
1.000000 0.925428 0.000000
0.000000 1.000000 0.000000
0.000000 1.000000 0.000000
0.000000 1.000000 0.000000
0.000000 1.000000 0.000000
0.147181 1.000000 0.000000
0.494418 1.000000 0.000000
0.742272 1.000000 0.000000
0.937523 1.000000 0.000000
1.000000 1.000000 0.000000
0.000000 0.000000 0.000415
0.000404 0.000000 0.000415
0.060272 0.000000 0.000397
0.199524 0.000000 0.000000
0.374727 0.000000 0.000000
0.577277 0.000000 0.000000
0.792199 0.000000 0.000000
0.983980 0.000000 0.000000
1.000000 0.000000 0.000000
0.000000 0.000405 0.000428
0.000404 0.000405 0.000428
0.060272 0.000386 0.000409
0.199523 0.000000 0.000000
0.374726 0.000000 0.000000
0.577275 0.000000 0.000000
0.792196 0.000000 0.000000
0.983977 0.000000 0.000000
1.000000 0.000000 0.000000
0.000000 0.058910 0.002256
0.000370 0.058910 0.002256
0.060245 0.058896 0.002238
0.199461 0.058389 0.001253
0.374619 0.051548 0.000000
0.577114 0.004591 0.000000
0.792006 0.000000 0.000000
0.983752 0.000000 0.000000
1.000000 0.000000 0.000000
0.000000 0.196150 0.011447
0.000000 0.196150 0.011448
0.059332 0.196112 0.011380
0.199126 0.195949 0.010686
0.374024 0.194393 0.000000
0.576207 0.183035 0.000000
0.790922 0.129900 0.000000
0.982473 0.000000 0.000000
1.000000 0.000000 0.000000
0.000000 0.368003 0.027249
0.000000 0.368002 0.027251
0.047205 0.367909 0.027410
0.196331 0.367635 0.025443
0.372436 0.366878 0.019154
0.573653 0.363398 0.000000
0.787674 0.345329 0.000000
0.978752 0.302117 0.000000
1.000000 0.271779 0.000000
0.000000 0.564315 0.014385
0.000000 0.564313 0.014392
0.000000 0.564146 0.015523
0.177731 0.563692 0.012756
0.366369 0.562594 0.001380
0.569021 0.560524 0.000000
0.780246 0.554486 0.000000
0.971074 0.535567 0.000000
1.000000 0.523149 0.000000
0.000000 0.767322 0.000000
0.000000 0.767320 0.000000
0.000000 0.767067 0.000000
0.090017 0.766199 0.000000
0.340484 0.764763 0.000000
0.559080 0.761926 0.000000
0.769942 0.757948 0.000000
0.958925 0.750978 0.000000
1.000000 0.744962 0.000000
0.000000 0.946394 0.000000
0.000000 0.946391 0.000000
0.000000 0.945983 0.000000
0.000000 0.944164 0.000000
0.260752 0.942654 0.000000
0.526635 0.939459 0.000000
0.756572 0.934170 0.000000
0.944436 0.927985 0.000000
1.000000 0.925427 0.000000
0.000000 1.000000 0.000000
0.000000 1.000000 0.000000
0.000000 1.000000 0.000000
0.000000 1.000000 0.000000
0.147198 1.000000 0.000000
0.494421 1.000000 0.000000
0.742273 1.000000 0.000000
0.937523 1.000000 0.000000
1.000000 1.000000 0.000000
0.000000 0.000000 0.060646
0.000397 0.000000 0.060646
0.060267 0.000000 0.060632
0.199512 0.000000 0.060262
0.374706 0.000000 0.053966
0.577241 0.000000 0.008433
0.792162 0.000000 0.000000
0.983936 0.000000 0.000000
1.000000 0.000000 0.000000
0.000000 0.000398 0.060655
0.000397 0.000398 0.060655
0.060266 0.000379 0.060641
0.199511 0.000000 0.060271
0.374704 0.000000 0.053974
0.577239 0.000000 0.008440
0.792159 0.000000 0.000000
0.983933 0.000000 0.000000
1.000000 0.000000 0.000000
0.000000 0.058906 0.062017
0.000360 0.058905 0.062017
0.060239 0.058891 0.062001
0.199392 0.058429 0.061572
0.374492 0.051736 0.055200
0.576925 0.005190 0.009535
0.791759 0.000000 0.000000
0.983460 0.000000 0.000000
1.000000 0.000000 0.000000
0.000000 0.196139 0.068757
0.000000 0.196138 0.068757
0.059419 0.196074 0.068804
0.199104 0.195929 0.068429
0.373916 0.194421 0.060504
0.576022 0.183178 0.010893
0.790669 0.130341 0.000000
0.982171 0.000000 0.000000
1.000000 0.000000 0.000000
0.000000 0.367985 0.079458
0.000000 0.367984 0.079459
0.047288 0.367871 0.079668
0.196425 0.367567 0.078816
0.372399 0.366845 0.075055
0.573513 0.363413 0.017055
0.787421 0.345455 0.000000
0.978469 0.302343 0.000000
1.000000 0.272093 0.000000
0.000000 0.564293 0.072235
0.000000 0.564292 0.072239
0.000000 0.564125 0.072943
0.178102 0.563582 0.072352
0.366447 0.562506 0.064687
0.568969 0.560479 0.043633
0.780058 0.554490 0.000000
0.970832 0.535614 0.000000
1.000000 0.523224 0.000000
0.000000 0.767313 0.000000
0.000000 0.767311 0.000000
0.000000 0.767059 0.000000
0.091787 0.766037 0.000000
0.340822 0.764617 0.000000
0.559151 0.761812 0.000000
0.769868 0.757884 0.000000
0.958748 0.750943 0.000000
1.000000 0.744943 0.000000
0.000000 0.946428 0.000000
0.000000 0.946426 0.000000
0.000000 0.946018 0.000000
0.000000 0.943919 0.000000
0.261834 0.942427 0.000000
0.526929 0.939265 0.000000
0.756601 0.934028 0.000000
0.944331 0.927894 0.000000
1.000000 0.925355 0.000000
0.000000 1.000000 0.000000
0.000000 1.000000 0.000000
0.000000 1.000000 0.000000
0.000000 1.000000 0.000000
0.149827 1.000000 0.000000
0.494872 1.000000 0.000000
0.742367 1.000000 0.000000
0.937462 1.000000 0.000000
1.000000 1.000000 0.000000
0.000000 0.000000 0.200337
0.000086 0.000000 0.200337
0.060219 0.000000 0.200305
0.199446 0.000000 0.200126
0.374585 0.000000 0.199377
0.577040 0.000000 0.189971
0.791952 0.000000 0.143899
0.983689 0.000000 0.000000
1.000000 0.000000 0.000000
0.000000 0.000086 0.200340
0.000085 0.000086 0.200339
0.060218 0.000000 0.200307
0.199445 0.000000 0.200128
0.374584 0.000000 0.199379
0.577038 0.000000 0.189973
0.791950 0.000000 0.143898
0.983686 0.000000 0.000000
1.000000 0.000000 0.000000
0.000000 0.058774 0.200745
0.000000 0.058773 0.200745
0.060067 0.058709 0.200637
0.199338 0.058248 0.200484
0.374377 0.051037 0.199677
0.576727 0.003301 0.190177
0.791551 0.000000 0.143819
0.983214 0.000000 0.000000
1.000000 0.000000 0.000000
0.000000 0.196086 0.203034
0.000000 0.196085 0.203034
0.059178 0.196029 0.202973
0.199044 0.195883 0.202797
0.373369 0.194615 0.201679
0.575057 0.183954 0.191674
0.789336 0.132603 0.143807
0.980569 0.000000 0.000000
1.000000 0.000000 0.000000
0.000000 0.367879 0.208137
0.000000 0.367878 0.208137
0.046578 0.367770 0.208145
0.196919 0.367241 0.208347
0.372218 0.366689 0.207374
0.572738 0.363532 0.193904
0.785998 0.346203 0.135794
0.976865 0.303671 0.000000
1.000000 0.273922 0.000000
0.000000 0.564169 0.207381
0.000000 0.564167 0.207382
0.000000 0.564003 0.207561
0.179427 0.563125 0.208717
0.366915 0.562029 0.206969
0.568697 0.560242 0.201354
0.779008 0.554528 0.126352
0.969459 0.535906 0.000000
1.000000 0.523673 0.000000
0.000000 0.767264 0.172583
0.000000 0.767262 0.172589
0.000000 0.767010 0.173407
0.093848 0.765628 0.178156
0.342744 0.763804 0.176879
0.559564 0.761185 0.166589
0.769465 0.757540 0.142725
0.957752 0.750756 0.000000
1.000000 0.744848 0.000000
0.000000 0.946623 0.000000
0.000000 0.946621 0.000000
0.000000 0.946212 0.000000
0.000000 0.943985 0.000000
0.267849 0.941159 0.000000
0.528594 0.938188 0.000000
0.756777 0.933237 0.000000
0.943747 0.927393 0.000000
1.000000 0.924950 0.000000
0.000000 1.000000 0.000000
0.000000 1.000000 0.000000
0.000000 1.000000 0.000000
0.000000 1.000000 0.000000
0.163879 1.000000 0.000000
0.497424 1.000000 0.000000
0.742909 1.000000 0.000000
0.937126 1.000000 0.000000
1.000000 1.000000 0.000000
0.000000 0.000000 0.376576
0.000000 0.000000 0.376576
0.058088 0.000000 0.376520
0.199758 0.000000 0.376201
0.374249 0.000000 0.375302
0.576452 0.000000 0.374440
0.791249 0.000000 0.362241
0.982969 0.000000 0.328188
1.000000 0.000000 0.304071
0.000000 0.000000 0.376577
0.000000 0.000000 0.376576
0.058084 0.000000 0.376520
0.199757 0.000000 0.376201
0.374248 0.000000 0.375302
0.576450 0.000000 0.374440
0.791246 0.000000 0.362241
0.982965 0.000000 0.328186
1.000000 0.000000 0.304068
0.000000 0.056360 0.376700
0.000000 0.056359 0.376699
0.057569 0.056146 0.376502
0.199532 0.054317 0.376198
0.374059 0.048938 0.375340
0.576148 0.000000 0.374422
0.790827 0.000000 0.362116
0.982497 0.000000 0.327889
1.000000 0.000000 0.303674
0.000000 0.195881 0.377406
0.000000 0.195880 0.377405
0.054076 0.195778 0.377230
0.198584 0.195366 0.376344
0.373148 0.194131 0.375711
0.574535 0.182668 0.374482
0.788498 0.128794 0.361583
0.979872 0.000000 0.326368
1.000000 0.000000 0.301611
0.000000 0.367645 0.379514
0.000000 0.367644 0.379513
0.043199 0.367547 0.379409
0.196243 0.367079 0.378897
0.371987 0.366522 0.378198
0.570841 0.364048 0.376146
0.782319 0.348355 0.361751
0.972625 0.307240 0.323620
1.000000 0.278739 0.297419
0.000000 0.563808 0.381947
0.000000 0.563807 0.381947
0.000000 0.563650 0.381923
0.177803 0.562813 0.381865
0.368249 0.560935 0.382397
0.568084 0.559730 0.380816
0.776167 0.554819 0.360612
0.965541 0.536956 0.308507
1.000000 0.525184 0.275219
0.000000 0.767115 0.370004
0.000000 0.767114 0.370005
0.000000 0.766863 0.370201
0.082444 0.765492 0.371397
0.346763 0.762042 0.375544
0.560855 0.759554 0.373508
0.768462 0.756699 0.366776
0.954940 0.750341 0.282265
1.000000 0.744703 0.234351
0.000000 0.947183 0.314379
0.000000 0.947180 0.314384
0.000000 0.946773 0.315260
0.000000 0.944547 0.320178
0.276294 0.938917 0.333714
0.533350 0.935285 0.327303
0.757381 0.931114 0.305542
0.942193 0.926069 0.264553
1.000000 0.923870 0.175309
0.000000 1.000000 0.260226
0.000000 1.000000 0.260229
0.000000 1.000000 0.260598
0.000000 1.000000 0.262820
0.179701 1.000000 0.278289
0.504670 1.000000 0.270074
0.744552 1.000000 0.234976
0.936262 1.000000 0.182573
1.000000 1.000000 0.144084
0.000000 0.000000 0.581470
0.000000 0.000000 0.581469
0.042952 0.000000 0.581381
0.197392 0.000000 0.580884
0.375931 0.000000 0.579467
0.575272 0.000000 0.576687
0.789058 0.000000 0.577256
0.981479 0.000000 0.567998
1.000000 0.000000 0.560090
0.000000 0.000000 0.581470
0.000000 0.000000 0.581468
0.042942 0.000000 0.581380
0.197389 0.000000 0.580883
0.375929 0.000000 0.579465
0.575271 0.000000 0.576687
0.789055 0.000000 0.577255
0.981476 0.000000 0.567996
1.000000 0.000000 0.560088
0.000000 0.040223 0.581446
0.000000 0.040219 0.581444
0.041438 0.039597 0.581148
0.196930 0.033988 0.580660
0.375627 0.018137 0.579270
0.574994 0.000000 0.576546
0.788647 0.000000 0.577049
0.981015 0.000000 0.567715
1.000000 0.000000 0.559770
0.000000 0.192400 0.581325
0.000000 0.192398 0.581323
0.030651 0.192204 0.581037
0.194657 0.191262 0.579500
0.374076 0.187509 0.578262
0.573524 0.180095 0.575846
0.786386 0.122995 0.575977
0.978432 0.000000 0.566201
1.000000 0.000000 0.558042
0.000000 0.367623 0.581109
0.000000 0.367622 0.581107
0.000000 0.367480 0.580864
0.187498 0.366760 0.579536
0.371138 0.365496 0.576322
0.570232 0.363233 0.574766
0.780477 0.346866 0.573830
0.971308 0.301514 0.562632
1.000000 0.271080 0.553861
0.000000 0.563304 0.581096
0.000000 0.563303 0.581095
0.000000 0.563155 0.580936
0.172031 0.562372 0.580084
0.366781 0.560648 0.578155
0.567588 0.559399 0.576508
0.771663 0.555915 0.573856
0.958538 0.539416 0.559313
1.000000 0.528437 0.549337
0.000000 0.766773 0.579401
0.000000 0.766771 0.579400
0.000000 0.766524 0.579329
0.049521 0.765174 0.578989
0.342271 0.761785 0.578574
0.563349 0.757249 0.579866
0.767131 0.755650 0.578149
0.948839 0.750375 0.553890
1.000000 0.745028 0.538316
0.000000 0.946123 0.559310
0.000000 0.946121 0.559309
0.000000 0.945864 0.559279
0.000000 0.944424 0.559159
0.256724 0.939581 0.560878
0.540519 0.931049 0.568015
0.759010 0.927514 0.562288
0.939605 0.923936 0.549194
1.000000 0.922088 0.526950
0.000000 1.000000 0.540472
0.000000 1.000000 0.540472
0.000000 1.000000 0.540480
0.000000 1.000000 0.540582
0.151769 1.000000 0.541397
0.515009 1.000000 0.550438
0.748214 1.000000 0.542631
0.934981 1.000000 0.528486
1.000000 0.999941 0.520314
0.000000 0.000000 0.799483
0.000000 0.000000 0.799483
0.000000 0.000000 0.799366
0.184894 0.000000 0.798702
0.374765 0.000000 0.796790
0.579993 0.000000 0.792954
0.785551 0.000000 0.787185
0.979111 0.000000 0.792214
1.000000 0.000000 0.791076
0.000000 0.000000 0.799483
0.000000 0.000000 0.799480
0.000000 0.000000 0.799363
0.184888 0.000000 0.798699
0.374762 0.000000 0.796788
0.579991 0.000000 0.792951
0.785548 0.000000 0.787183
0.979108 0.000000 0.792212
1.000000 0.000000 0.791074
0.000000 0.000000 0.799373
0.000000 0.000000 0.799370
0.000000 0.000000 0.798968
0.184011 0.000000 0.798309
0.374285 0.000000 0.796414
0.579605 0.000000 0.792612
0.785170 0.000000 0.786899
0.978659 0.000000 0.791895
1.000000 0.000000 0.790735
0.000000 0.177661 0.798771
0.000000 0.177659 0.798769
0.000000 0.177304 0.798365
0.179350 0.175453 0.796152
0.371735 0.166825 0.794351
0.577513 0.148310 0.790746
0.783089 0.116319 0.785355
0.976142 0.000000 0.790142
1.000000 0.000000 0.788861
0.000000 0.363587 0.797233
0.000000 0.363586 0.797231
0.000000 0.363375 0.796848
0.162382 0.362271 0.794700
0.365982 0.359968 0.789005
0.572426 0.353949 0.786000
0.777766 0.345183 0.781572
0.969217 0.292165 0.785577
1.000000 0.258399 0.783937
0.000000 0.564295 0.794801
0.000000 0.564294 0.794799
0.000000 0.564093 0.794456
0.117832 0.563016 0.792545
0.353886 0.560505 0.787450
0.566554 0.558018 0.779593
0.770255 0.555278 0.777133
0.955529 0.537451 0.778371
1.000000 0.523948 0.776347
0.000000 0.766316 0.791014
0.000000 0.766314 0.791012
0.000000 0.766117 0.790802
0.000000 0.765027 0.789635
0.329954 0.761731 0.785990
0.560574 0.757159 0.780664
0.766463 0.755251 0.777967
0.941794 0.751673 0.775676
1.000000 0.746918 0.771907
0.000000 0.943722 0.785747
0.000000 0.943721 0.785746
0.000000 0.943477 0.785587
0.000000 0.942114 0.784710
0.238101 0.938378 0.782471
0.532793 0.931106 0.779626
0.761877 0.923901 0.779738
0.936981 0.921979 0.776596
1.000000 0.920672 0.770130
0.000000 1.000000 0.778384
0.000000 1.000000 0.778383
0.000000 1.000000 0.778246
0.000000 1.000000 0.777501
0.126679 1.000000 0.775650
0.504612 1.000000 0.773351
0.753546 1.000000 0.775455
0.934212 0.998467 0.771288
1.000000 0.997147 0.768299
0.000000 0.000000 0.996771
0.000000 0.000000 0.996770
0.000000 0.000000 0.996646
0.151842 0.000000 0.995942
0.367100 0.000000 0.993896
0.582617 0.000000 0.989698
0.795220 0.000000 0.983119
0.974147 0.000000 0.975558
1.000000 0.000000 0.980392
0.000000 0.000000 0.996770
0.000000 0.000000 0.996767
0.000000 0.000000 0.996643
0.151831 0.000000 0.995939
0.367095 0.000000 0.993893
0.582613 0.000000 0.989695
0.795217 0.000000 0.983116
0.974144 0.000000 0.975555
1.000000 0.000000 0.980389
0.000000 0.000000 0.996651
0.000000 0.000000 0.996648
0.000000 0.000000 0.996143
0.150141 0.000000 0.995441
0.366381 0.000000 0.993400
0.582096 0.000000 0.989213
0.794737 0.000000 0.982657
0.973642 0.000000 0.975129
1.000000 0.000000 0.980015
0.000000 0.139635 0.996009
0.000000 0.139630 0.996005
0.000000 0.138965 0.995489
0.140699 0.135353 0.992628
0.362476 0.115329 0.990618
0.579250 0.058594 0.986505
0.792069 0.000000 0.980086
0.970840 0.000000 0.972755
1.000000 0.000000 0.977927
0.000000 0.351626 0.994433
0.000000 0.351624 0.994429
0.000000 0.351323 0.993910
0.098505 0.349724 0.990959
0.352799 0.346133 0.982829
0.571942 0.334240 0.978985
0.784976 0.315124 0.973052
0.963238 0.292339 0.966381
1.000000 0.242639 0.972239
0.000000 0.561612 0.990127
0.000000 0.561611 0.990124
0.000000 0.561362 0.989745
0.000000 0.559993 0.987603
0.327615 0.556567 0.980399
0.561854 0.552743 0.965695
0.773810 0.545784 0.961074
0.950792 0.537946 0.956387
1.000000 0.521910 0.960784
0.000000 0.768428 0.982695
0.000000 0.768427 0.982693
0.000000 0.768195 0.982372
0.000000 0.766908 0.980566
0.279104 0.763474 0.975517
0.545692 0.757658 0.964192
0.765654 0.753938 0.951437
0.940559 0.750717 0.949900
1.000000 0.745980 0.951170
0.000000 0.942235 0.973689
0.000000 0.942233 0.973687
0.000000 0.941998 0.973436
0.000000 0.940680 0.972028
0.206928 0.937081 0.968154
0.521618 0.930795 0.961243
0.758709 0.923800 0.952906
0.935903 0.921434 0.949263
1.000000 0.920648 0.949079
0.000000 1.000000 0.970611
0.000000 1.000000 0.970609
0.000000 1.000000 0.970384
0.000000 1.000000 0.969121
0.089318 1.000000 0.965671
0.499198 1.000000 0.959653
0.750433 1.000000 0.953175
0.934902 0.996129 0.950806
1.000000 0.995666 0.950468
0.000000 0.000000 1.000000
0.000000 0.000000 1.000000
0.000000 0.000000 1.000000
0.126337 0.000000 1.000000
0.361177 0.000000 1.000000
0.582717 0.000000 1.000000
0.799281 0.000000 1.000000
0.981307 0.000000 1.000000
1.000000 0.000000 1.000000
0.000000 0.000000 1.000000
0.000000 0.000000 1.000000
0.000000 0.000000 1.000000
0.126321 0.000000 1.000000
0.361171 0.000000 1.000000
0.582713 0.000000 1.000000
0.799278 0.000000 1.000000
0.981304 0.000000 1.000000
1.000000 0.000000 1.000000
0.000000 0.000000 1.000000
0.000000 0.000000 1.000000
0.000000 0.000000 1.000000
0.123944 0.000000 1.000000
0.360335 0.000000 1.000000
0.582131 0.000000 1.000000
0.798747 0.000000 1.000000
0.980751 0.000000 1.000000
1.000000 0.000000 1.000000
0.000000 0.110124 1.000000
0.000000 0.110117 1.000000
0.000000 0.108977 1.000000
0.110224 0.103195 1.000000
0.355733 0.069035 1.000000
0.578916 0.000000 1.000000
0.795790 0.000000 1.000000
0.977652 0.000000 1.000000
1.000000 0.000000 1.000000
0.000000 0.343991 1.000000
0.000000 0.343988 1.000000
0.000000 0.343604 1.000000
0.034175 0.341495 1.000000
0.344037 0.336975 1.000000
0.570532 0.321616 1.000000
0.787835 0.295766 1.000000
0.969159 0.262567 1.000000
1.000000 0.246308 1.000000
0.000000 0.559192 1.000000
0.000000 0.559190 1.000000
0.000000 0.558918 1.000000
0.000000 0.557416 1.000000
0.312587 0.553514 1.000000
0.558437 0.549013 1.000000
0.774938 0.539706 1.000000
0.954984 0.528546 1.000000
1.000000 0.522723 1.000000
0.000000 0.768504 1.000000
0.000000 0.768502 1.000000
0.000000 0.768257 1.000000
0.000000 0.766892 1.000000
0.254846 0.763230 1.000000
0.537025 0.757139 1.000000
0.764667 0.752673 1.000000
0.942187 0.747986 1.000000
1.000000 0.745653 1.000000
0.000000 0.943595 1.000000
0.000000 0.943593 1.000000
0.000000 0.943349 1.000000
0.000000 0.941979 1.000000
0.158641 0.938225 1.000000
0.510626 0.931613 1.000000
0.755020 0.924162 1.000000
0.935858 0.921104 1.000000
1.000000 0.920459 1.000000
0.000000 1.000000 1.000000
0.000000 1.000000 1.000000
0.000000 1.000000 1.000000
0.000000 1.000000 1.000000
0.061725 1.000000 1.000000
0.496238 1.000000 1.000000
0.749001 1.000000 1.000000
0.934652 0.996037 1.000000
1.000000 0.995588 1.000000
