app/src/main/assets/luts/night_city.cube
# V-Cam procedural LUT — night_city
# Generated by LutBaker. Do not edit by hand.
TITLE "V-Cam night_city"
LUT_3D_SIZE 5
DOMAIN_MIN 0.0 0.0 0.0
DOMAIN_MAX 1.0 1.0 1.0
0.000000 0.000000 0.000000
0.013378 0.000000 0.000000
0.331795 0.000000 0.000000
0.739822 0.000000 0.000000
1.000000 0.000000 0.000000
0.000000 0.013738 0.000000
0.013378 0.013737 0.000000
0.331789 0.011954 0.000000
0.739808 0.000000 0.000000
1.000000 0.000000 0.000000
0.000000 0.334235 0.000000
0.009867 0.334232 0.000000
0.331289 0.333987 0.000000
0.738651 0.328104 0.000000
1.000000 0.305160 0.000000
0.000000 0.741294 0.000000
0.000000 0.741288 0.000000
0.320797 0.740802 0.000000
0.733783 0.738775 0.000000
1.000000 0.734477 0.000000
0.000000 1.000000 0.000000
0.000000 1.000000 0.000000
0.267619 1.000000 0.000000
0.723458 1.000000 0.000000
0.998267 1.000000 0.000000
0.000000 0.000000 0.014523
0.013378 0.000000 0.014523
0.331794 0.000000 0.012776
0.739818 0.000000 0.000000
1.000000 0.000000 0.000000
0.000000 0.013737 0.014522
0.013377 0.013737 0.014522
0.331781 0.011967 0.012756
0.739790 0.000000 0.000000
1.000000 0.000000 0.000000
0.000000 0.334234 0.011028
0.009899 0.334227 0.011049
0.331287 0.333985 0.009473
0.738634 0.328112 0.000000
1.000000 0.305179 0.000000
0.000000 0.741294 0.000000
0.000000 0.741278 0.000000
0.320821 0.740792 0.000000
0.733779 0.738770 0.000000
1.000000 0.734476 0.000000
0.000000 1.000000 0.000000
0.000000 1.000000 0.000000
0.267720 1.000000 0.000000
0.723467 1.000000 0.000000
0.998260 1.000000 0.000000
0.000000 0.000000 0.342206
0.012636 0.000000 0.342203
0.331717 0.000000 0.341928
0.739490 0.000000 0.338132
1.000000 0.000000 0.318761
0.000000 0.012975 0.342200
0.012599 0.012961 0.342187
0.331705 0.011126 0.341915
0.739462 0.000000 0.338108
1.000000 0.000000 0.318717
0.000000 0.334146 0.341668
0.009014 0.334140 0.341662
0.331204 0.333891 0.341382
0.737335 0.328846 0.336643
1.000000 0.306790 0.315493
0.000000 0.741229 0.331795
0.000000 0.741213 0.331811
0.322723 0.740034 0.333405
0.733469 0.738436 0.330857
1.000000 0.734423 0.289643
0.000000 1.000000 0.283405
0.000000 1.000000 0.283432
0.275180 1.000000 0.288391
0.724245 1.000000 0.274270
0.997709 1.000000 0.254355
0.000000 0.000000 0.761601
0.000000 0.000000 0.761594
0.331357 0.000000 0.760953
0.738296 0.000000 0.758208
1.000000 0.000000 0.759013
0.000000 0.000000 0.761587
0.000000 0.000000 0.761560
0.331323 0.000000 0.760920
0.738270 0.000000 0.758182
1.000000 0.000000 0.758982
0.000000 0.332697 0.760425
0.000000 0.332683 0.760400
0.329037 0.331808 0.758403
0.736338 0.327288 0.756196
1.000000 0.301525 0.756595
0.000000 0.740965 0.756011
0.000000 0.740952 0.755998
0.318051 0.739844 0.754816
0.733012 0.737906 0.752585
0.999688 0.735134 0.750288
0.000000 1.000000 0.747941
0.000000 1.000000 0.747934
0.266550 1.000000 0.747415
0.727704 1.000000 0.747962
0.996004 1.000000 0.745247
0.000000 0.000000 1.000000
0.000000 0.000000 1.000000
0.325640 0.000000 1.000000
0.742226 0.000000 1.000000
1.000000 0.000000 1.000000
0.000000 0.000000 1.000000
0.000000 0.000000 1.000000
0.325578 0.000000 1.000000
0.742189 0.000000 1.000000
1.000000 0.000000 1.000000
0.000000 0.325625 1.000000
0.000000 0.325599 1.000000
0.320965 0.323901 1.000000
0.739266 0.311998 1.000000
1.000000 0.297249 1.000000
0.000000 0.741596 1.000000
0.000000 0.741580 1.000000
0.294823 0.740311 1.000000
0.732101 0.737108 1.000000
0.998504 0.734659 1.000000
0.000000 1.000000 1.000000
0.000000 1.000000 1.000000
0.259591 1.000000 1.000000
0.725920 1.000000 1.000000
0.995435 0.999921 1.000000
