app/src/main/assets/luts/night_moody_blue.cube
# V-Cam procedural LUT — night_moody_blue
# Generated by LutBaker. Do not edit by hand.
TITLE "V-Cam night_moody_blue"
LUT_3D_SIZE 5
DOMAIN_MIN 0.0 0.0 0.0
DOMAIN_MAX 1.0 1.0 1.0
0.000000 0.000000 0.000000
0.056030 0.000000 0.000000
0.328146 0.000000 0.000000
0.600262 0.000000 0.000000
0.872378 0.000000 0.000000
0.000000 0.119730 0.000000
0.064659 0.123103 0.000000
0.336775 0.127319 0.000000
0.608891 0.131535 0.000000
0.881007 0.135751 0.000000
0.000000 0.407659 0.000000
0.073288 0.411032 0.000000
0.345404 0.415248 0.000000
0.617520 0.419464 0.000000
0.889636 0.423680 0.000000
0.000000 0.695588 0.000000
0.081917 0.698961 0.000000
0.354033 0.703177 0.000000
0.626149 0.707393 0.000000
0.898265 0.711609 0.000000
0.000000 0.983517 0.000000
0.090546 0.986890 0.000000
0.362662 0.991106 0.000000
0.634777 0.995322 0.000000
0.906893 0.999537 0.000000
0.000000 0.000000 0.190274
0.057911 0.000000 0.193647
0.330027 0.000000 0.197863
0.602143 0.000000 0.202079
0.874259 0.000000 0.206295
0.000000 0.121611 0.198903
0.066540 0.124984 0.202276
0.338656 0.129200 0.206492
0.610772 0.133416 0.210708
0.882888 0.137632 0.214924
0.000000 0.409540 0.207532
0.075169 0.412913 0.210905
0.347285 0.417129 0.215121
0.619401 0.421345 0.219337
0.891517 0.425561 0.223553
0.000000 0.697469 0.216161
0.083798 0.700842 0.219534
0.355914 0.705058 0.223750
0.628030 0.709274 0.227966
0.900146 0.713490 0.232182
0.000000 0.985398 0.224790
0.092427 0.988771 0.228163
0.364543 0.992987 0.232379
0.636658 0.997203 0.236594
0.908774 1.000000 0.240810
0.000000 0.000000 0.505655
0.059792 0.000000 0.509028
0.331908 0.000000 0.513244
0.604024 0.000000 0.517460
0.876140 0.000000 0.521676
0.000000 0.123492 0.514284
0.068421 0.126865 0.517657
0.340537 0.131081 0.521873
0.612653 0.135297 0.526089
0.884769 0.139513 0.530305
0.000000 0.411421 0.522913
0.077050 0.414794 0.526286
0.349166 0.419010 0.530502
0.621282 0.423226 0.534718
0.893398 0.427442 0.538934
0.000000 0.699350 0.531542
0.085679 0.702723 0.534915
0.357795 0.706939 0.539131
0.629911 0.711155 0.543347
0.902027 0.715371 0.547563
0.000000 0.987279 0.540171
0.094308 0.990652 0.543544
0.366424 0.994868 0.547760
0.638539 0.999084 0.551976
0.910655 1.000000 0.556191
0.000000 0.000000 0.821036
0.061673 0.000000 0.824409
0.333789 0.000000 0.828625
0.605905 0.000000 0.832841
0.878021 0.000000 0.837057
0.000000 0.125373 0.829665
0.070302 0.128746 0.833038
0.342418 0.132962 0.837254
0.614534 0.137178 0.841470
0.886650 0.141394 0.845686
0.000000 0.413302 0.838294
0.078931 0.416675 0.841667
0.351047 0.420891 0.845883
0.623163 0.425107 0.850099
0.895279 0.429323 0.854315
0.000000 0.701231 0.846923
0.087560 0.704604 0.850296
0.359676 0.708820 0.854512
0.631792 0.713036 0.858728
0.903908 0.717252 0.862944
0.000000 0.989160 0.855552
0.096189 0.992533 0.858925
0.368305 0.996749 0.863141
0.640420 1.000000 0.867357
0.912536 1.000000 0.871572
0.000000 0.000000 1.000000
0.063554 0.000000 1.000000
0.335670 0.000000 1.000000
0.607786 0.000000 1.000000
0.879902 0.000000 1.000000
0.000000 0.127254 1.000000
0.072183 0.130627 1.000000
0.344299 0.134843 1.000000
0.616415 0.139059 1.000000
0.888531 0.143275 1.000000
0.000000 0.415183 1.000000
0.080812 0.418556 1.000000
0.352928 0.422772 1.000000
0.625044 0.426988 1.000000
0.897160 0.431204 1.000000
0.000000 0.703112 1.000000
0.089441 0.706485 1.000000
0.361557 0.710701 1.000000
0.633673 0.714917 1.000000
0.905788 0.719133 1.000000
0.000000 0.991041 1.000000
0.098070 0.994414 1.000000
0.370186 0.998630 1.000000
0.642301 1.000000 1.000000
0.914417 1.000000 1.000000
