app/src/main/assets/luts/night_low_light_warm.cube
# V-Cam procedural LUT — night_low_light_warm
# Generated by LutBaker. Do not edit by hand.
TITLE "V-Cam night_low_light_warm"
LUT_3D_SIZE 33
DOMAIN_MIN 0.0 0.0 0.0
DOMAIN_MAX 1.0 1.0 1.0
0.101748 0.079433 0.067935
0.106897 0.079433 0.067935
0.112674 0.079432 0.067934
0.120868 0.079431 0.067932
0.131719 0.079430 0.067930
0.145322 0.079427 0.067926
0.161721 0.079422 0.067920
0.180918 0.079414 0.067909
0.202879 0.079399 0.067891
0.227543 0.079375 0.067862
0.254824 0.079336 0.067815
0.284615 0.079273 0.067741
0.316790 0.079176 0.067627
0.351206 0.079028 0.067454
0.387698 0.078807 0.067198
0.426084 0.078483 0.066824
0.466160 0.078019 0.066289
0.507698 0.077363 0.065533
0.550443 0.076452 0.064482
0.594111 0.075200 0.063037
0.638384 0.073497 0.061065
0.682904 0.071200 0.058390
0.727269 0.068116 0.054768
0.770969 0.064293 0.050225
0.813458 0.059656 0.044618
0.854120 0.053997 0.037609
0.892217 0.047240 0.029664
0.926870 0.039384 0.021322
0.957027 0.031195 0.013110
0.981400 0.023876 0.005773
0.998382 0.018383 0.000267
1.000000 0.015841 0.000000
1.000000 0.015788 0.000000
0.101748 0.084800 0.067935
0.106897 0.084800 0.067934
0.112673 0.084799 0.067933
0.120868 0.084799 0.067932
0.131719 0.084797 0.067930
0.145321 0.084795 0.067925
0.161720 0.084790 0.067919
0.180917 0.084783 0.067907
0.202879 0.084769 0.067889
0.227543 0.084747 0.067859
0.254823 0.084710 0.067811
0.284614 0.084651 0.067737
0.316789 0.084560 0.067622
0.351204 0.084421 0.067448
0.387697 0.084213 0.067190
0.426083 0.083908 0.066814
0.466158 0.083470 0.066276
0.507696 0.082852 0.065519
0.550441 0.081994 0.064465
0.594108 0.080815 0.063016
0.638381 0.079215 0.061039
0.682902 0.077059 0.058358
0.727266 0.074173 0.054729
0.770966 0.070609 0.050175
0.813455 0.066313 0.044557
0.854117 0.061112 0.037536
0.892213 0.054972 0.029584
0.926867 0.047957 0.021234
0.957023 0.040325 0.013016
0.981397 0.033010 0.005672
0.998378 0.027520 0.000163
1.000000 0.024980 0.000000
1.000000 0.024927 0.000000
0.101748 0.090813 0.067934
0.106896 0.090813 0.067934
0.112673 0.090813 0.067933
0.120868 0.090812 0.067931
0.131718 0.090811 0.067929
0.145321 0.090809 0.067924
0.161720 0.090805 0.067917
0.180916 0.090797 0.067906
0.202878 0.090785 0.067887
0.227542 0.090764 0.067856
0.254822 0.090730 0.067808
0.284613 0.090676 0.067732
0.316788 0.090590 0.067615
0.351203 0.090460 0.067440
0.387695 0.090265 0.067180
0.426081 0.089979 0.066803
0.466156 0.089569 0.066262
0.507694 0.088989 0.065501
0.550438 0.088184 0.064444
0.594106 0.087079 0.062990
0.638378 0.085581 0.061009
0.682898 0.083566 0.058321
0.727262 0.080877 0.054683
0.770963 0.077566 0.050115
0.813451 0.073599 0.044485
0.854114 0.068829 0.037449
0.892210 0.063254 0.029488
0.926863 0.056970 0.021129
0.957019 0.050260 0.012904
0.981393 0.043708 0.005554
0.998374 0.038357 0.000040
1.000000 0.035818 0.000000
1.000000 0.035765 0.000000
0.101747 0.099330 0.067934
0.106896 0.099330 0.067933
0.112672 0.099329 0.067932
0.120867 0.099329 0.067930
0.131717 0.099328 0.067927
0.145320 0.099326 0.067923
0.161719 0.099323 0.067915
0.180915 0.099316 0.067903
0.202876 0.099305 0.067883
0.227540 0.099287 0.067851
0.254820 0.099256 0.067802
0.284611 0.099207 0.067724
0.316786 0.099129 0.067606
0.351200 0.099010 0.067428
0.387692 0.098832 0.067166
0.426078 0.098570 0.066785
0.466153 0.098193 0.066241
0.507690 0.097662 0.065475
0.550434 0.096923 0.064412
0.594101 0.095911 0.062952
0.638374 0.094539 0.060963
0.682894 0.092699 0.058265
0.727257 0.090249 0.054613
0.770958 0.087244 0.050026
0.813446 0.083667 0.044375
0.854108 0.079400 0.037318
0.892204 0.074464 0.029343
0.926857 0.068977 0.020971
0.957013 0.063221 0.012733
0.981386 0.057720 0.005374
0.998368 0.053331 0.000000
1.000000 0.051213 0.000000
1.000000 0.051168 0.000000
0.101747 0.110584 0.067932
0.106895 0.110584 0.067931
0.112672 0.110584 0.067931
0.120866 0.110583 0.067929
0.131716 0.110583 0.067926
0.145319 0.110581 0.067920
0.161717 0.110578 0.067912
0.180914 0.110573 0.067899
0.202874 0.110564 0.067878
0.227538 0.110548 0.067845
0.254818 0.110521 0.067793
0.284608 0.110477 0.067713
0.316782 0.110408 0.067592
0.351197 0.110302 0.067411
0.387688 0.110143 0.067145
0.426073 0.109908 0.066759
0.466148 0.109571 0.066209
0.507685 0.109094 0.065437
0.550428 0.108430 0.064367
0.594095 0.107522 0.062898
0.638367 0.106292 0.060896
0.682886 0.104645 0.058184
0.727249 0.102459 0.054513
0.770951 0.099786 0.049896
0.813439 0.096625 0.044217
0.854100 0.092883 0.037127
0.892195 0.088597 0.029133
0.926848 0.083891 0.020742
0.957004 0.079028 0.012487
0.981377 0.074461 0.005113
0.998358 0.070879 0.000000
1.000000 0.069171 0.000000
1.000000 0.069135 0.000000
0.101745 0.124662 0.067927
0.106894 0.124662 0.067927
0.112670 0.124662 0.067926
0.120865 0.124661 0.067926
0.131715 0.124661 0.067923
0.145317 0.124660 0.067917
0.161715 0.124658 0.067908
0.180911 0.124654 0.067893
0.202872 0.124646 0.067871
0.227535 0.124633 0.067835
0.254814 0.124610 0.067781
0.284604 0.124572 0.067698
0.316778 0.124513 0.067573
0.351192 0.124420 0.067387
0.387683 0.124281 0.067115
0.426067 0.124075 0.066723
0.466142 0.123778 0.066166
0.507677 0.123358 0.065385
0.550420 0.122773 0.064304
0.594086 0.121971 0.062822
0.638358 0.120887 0.060804
0.682876 0.119438 0.058071
0.727239 0.117519 0.054372
0.770941 0.115176 0.049714
0.813428 0.112425 0.043996
0.854089 0.109189 0.036863
0.892184 0.105513 0.028841
0.926836 0.101518 0.020424
0.956992 0.097438 0.012145
0.981365 0.093656 0.004751
0.998346 0.090727 0.000000
1.000000 0.089342 0.000000
1.000000 0.089313 0.000000
0.101741 0.141597 0.067919
0.106890 0.141596 0.067919
0.112667 0.141596 0.067918
0.120863 0.141596 0.067917
0.131713 0.141595 0.067916
0.145315 0.141594 0.067913
0.161712 0.141593 0.067902
0.180908 0.141590 0.067886
0.202868 0.141584 0.067861
0.227531 0.141573 0.067823
0.254810 0.141554 0.067765
0.284599 0.141523 0.067678
0.316772 0.141472 0.067548
0.351185 0.141394 0.067356
0.387675 0.141274 0.067076
0.426059 0.141096 0.066675
0.466133 0.140839 0.066107
0.507668 0.140474 0.065314
0.550410 0.139966 0.064218
0.594075 0.139269 0.062718
0.638345 0.138327 0.060679
0.682863 0.137067 0.057918
0.727224 0.135403 0.054182
0.770927 0.133371 0.049467
0.813414 0.131001 0.043694
0.854074 0.128227 0.036503
0.892168 0.125097 0.028444
0.926820 0.121721 0.019992
0.956975 0.118305 0.011681
0.981348 0.115168 0.004260
0.998328 0.112759 0.000000
1.000000 0.111627 0.000000
1.000000 0.111603 0.000000
0.101733 0.161376 0.067905
0.106883 0.161376 0.067904
0.112661 0.161375 0.067903
0.120857 0.161375 0.067902
0.131708 0.161374 0.067900
0.145311 0.161373 0.067898
0.161709 0.161371 0.067894
0.180904 0.161369 0.067876
0.202863 0.161365 0.067848
0.227525 0.161357 0.067806
0.254804 0.161342 0.067744
0.284592 0.161317 0.067651
0.316764 0.161275 0.067514
0.351177 0.161209 0.067313
0.387666 0.161108 0.067024
0.426048 0.160957 0.066611
0.466121 0.160738 0.066030
0.507654 0.160425 0.065220
0.550395 0.159989 0.064105
0.594059 0.159390 0.062582
0.638328 0.158578 0.060513
0.682845 0.157494 0.057715
0.727205 0.156062 0.053929
0.770909 0.154312 0.049137
0.813394 0.152282 0.043291
0.854054 0.149917 0.036025
0.892147 0.147260 0.027916
0.926798 0.144411 0.019417
0.956953 0.141547 0.011063
0.981325 0.138935 0.003606
0.998305 0.136941 0.000000
1.000000 0.136008 0.000000
1.000000 0.135989 0.000000
0.101719 0.183956 0.067879
0.106870 0.183956 0.067878
0.112649 0.183955 0.067877
0.120846 0.183955 0.067876
0.131699 0.183954 0.067873
0.145304 0.183952 0.067870
0.161704 0.183950 0.067865
0.180899 0.183948 0.067860
0.202857 0.183945 0.067831
0.227518 0.183940 0.067784
0.254796 0.183929 0.067716
0.284583 0.183909 0.067616
0.316754 0.183875 0.067469
0.351165 0.183821 0.067258
0.387653 0.183737 0.066956
0.426034 0.183611 0.066528
0.466105 0.183426 0.065929
0.507637 0.183161 0.065098
0.550377 0.182790 0.063958
0.594039 0.182279 0.062404
0.638306 0.181586 0.060297
0.682821 0.180658 0.057449
0.727180 0.179434 0.053599
0.770885 0.177932 0.048704
0.813369 0.176200 0.042760
0.854028 0.174186 0.035399
0.892120 0.171933 0.027226
0.926770 0.169527 0.018665
0.956924 0.167119 0.010254
0.981295 0.164934 0.002750
0.998275 0.163272 0.000000
1.000000 0.162497 0.000000
1.000000 0.162481 0.000000
0.101692 0.209266 0.067836
0.106845 0.209265 0.067835
0.112626 0.209265 0.067834
0.120826 0.209264 0.067831
0.131681 0.209263 0.067828
0.145289 0.209261 0.067824
0.161692 0.209259 0.067818
0.180890 0.209256 0.067810
0.202850 0.209253 0.067800
0.227509 0.209249 0.067757
0.254785 0.209241 0.067680
0.284571 0.209227 0.067571
0.316741 0.209201 0.067413
0.351151 0.209157 0.067188
0.387637 0.209089 0.066869
0.426016 0.208985 0.066422
0.466085 0.208831 0.065800
0.507615 0.208609 0.064942
0.550353 0.208296 0.063769
0.594013 0.207863 0.062175
0.638278 0.207274 0.060019
0.682791 0.206485 0.057108
0.727147 0.205442 0.053173
0.770854 0.204154 0.048141
0.813337 0.202678 0.042069
0.853994 0.200965 0.034593
0.892085 0.199052 0.026336
0.926733 0.197016 0.017695
0.956886 0.194984 0.009211
0.981256 0.193146 0.001646
0.998236 0.191753 0.000000
1.000000 0.191104 0.000000
1.000000 0.191091 0.000000
0.101647 0.237212 0.067765
0.106802 0.237211 0.067763
0.112585 0.237210 0.067761
0.120789 0.237209 0.067758
0.131649 0.237208 0.067754
0.145262 0.237206 0.067748
0.161669 0.237204 0.067740
0.180873 0.237201 0.067730
0.202837 0.237197 0.067717
0.227498 0.237192 0.067701
0.254772 0.237186 0.067636
0.284557 0.237176 0.067514
0.316725 0.237157 0.067342
0.351132 0.237123 0.067100
0.387616 0.237069 0.066761
0.425994 0.236985 0.066289
0.466060 0.236858 0.065638
0.507588 0.236674 0.064746
0.550322 0.236412 0.063532
0.593980 0.236047 0.061888
0.638242 0.235550 0.059669
0.682752 0.234881 0.056677
0.727106 0.233994 0.052634
0.770815 0.232890 0.047419
0.813296 0.231632 0.041181
0.853951 0.230174 0.033567
0.892040 0.228548 0.025205
0.926687 0.226820 0.016462
0.956838 0.225099 0.007887
0.981207 0.223546 0.000244
0.998186 0.222370 0.000000
1.000000 0.221823 0.000000
1.000000 0.221812 0.000000
0.101571 0.267681 0.067648
0.106730 0.267680 0.067646
0.112518 0.267680 0.067644
0.120727 0.267679 0.067640
0.131594 0.267677 0.067635
0.145214 0.267675 0.067627
0.161629 0.267672 0.067617
0.180840 0.267669 0.067604
0.202811 0.267664 0.067588
0.227480 0.267659 0.067567
0.254757 0.267651 0.067540
0.284539 0.267644 0.067445
0.316705 0.267631 0.067255
0.351110 0.267606 0.066992
0.387591 0.267564 0.066627
0.425965 0.267497 0.066125
0.466029 0.267394 0.065438
0.507553 0.267243 0.064503
0.550284 0.267026 0.063238
0.593938 0.266721 0.061531
0.638197 0.266303 0.059234
0.682703 0.265738 0.056140
0.727054 0.264987 0.051960
0.770766 0.264038 0.046504
0.813245 0.262967 0.040046
0.853897 0.261724 0.032282
0.891984 0.260338 0.023787
0.926629 0.258867 0.014917
0.956778 0.257404 0.006225
0.981146 0.256085 0.000000
0.998123 0.255087 0.000000
1.000000 0.254624 0.000000
1.000000 0.254614 0.000000
0.101449 0.300544 0.067465
0.106615 0.300543 0.067462
0.112409 0.300542 0.067459
0.120627 0.300541 0.067454
0.131504 0.300540 0.067448
0.145135 0.300537 0.067438
0.161562 0.300534 0.067426
0.180784 0.300530 0.067409
0.202766 0.300525 0.067388
0.227444 0.300519 0.067362
0.254731 0.300510 0.067328
0.284518 0.300500 0.067287
0.316680 0.300490 0.067150
0.351082 0.300473 0.066861
0.387560 0.300442 0.066465
0.425931 0.300391 0.065926
0.465991 0.300309 0.065195
0.507511 0.300187 0.064209
0.550238 0.300009 0.062881
0.593887 0.299756 0.061097
0.638142 0.299407 0.058703
0.682643 0.298932 0.055482
0.726989 0.298297 0.051130
0.770706 0.297481 0.045355
0.813181 0.296568 0.038621
0.853830 0.295507 0.030692
0.891914 0.294324 0.022032
0.926557 0.293068 0.013005
0.956704 0.291819 0.004171
0.981070 0.290694 0.000000
0.998046 0.289844 0.000000
1.000000 0.289449 0.000000
1.000000 0.289441 0.000000
0.101258 0.335652 0.067183
0.106434 0.335651 0.067180
0.112239 0.335650 0.067176
0.120470 0.335649 0.067170
0.131362 0.335647 0.067161
0.145009 0.335645 0.067150
0.161453 0.335641 0.067134
0.180692 0.335637 0.067114
0.202689 0.335631 0.067087
0.227382 0.335624 0.067054
0.254683 0.335615 0.067012
0.284482 0.335604 0.066961
0.316652 0.335590 0.066899
0.351049 0.335576 0.066705
0.387523 0.335555 0.066273
0.425890 0.335517 0.065690
0.465945 0.335454 0.064908
0.507461 0.335357 0.063859
0.550182 0.335213 0.062455
0.593826 0.335007 0.060578
0.638074 0.334717 0.058066
0.682570 0.334319 0.054690
0.726910 0.333785 0.050126
0.770632 0.333082 0.043928
0.813103 0.332304 0.036882
0.853749 0.331398 0.028751
0.891830 0.330386 0.019891
0.926469 0.329310 0.010672
0.956614 0.328241 0.001662
0.980977 0.327278 0.000000
0.997952 0.326550 0.000000
1.000000 0.326212 0.000000
1.000000 0.326205 0.000000
0.100970 0.372839 0.066760
0.106161 0.372838 0.066756
0.111980 0.372837 0.066751
0.120230 0.372836 0.066744
0.131145 0.372834 0.066733
0.144816 0.372831 0.066719
0.161285 0.372827 0.066700
0.180547 0.372822 0.066674
0.202568 0.372816 0.066642
0.227282 0.372808 0.066601
0.254602 0.372798 0.066550
0.284419 0.372786 0.066487
0.316605 0.372771 0.066410
0.351012 0.372753 0.066319
0.387480 0.372734 0.066050
0.425842 0.372708 0.065417
0.465891 0.372662 0.064573
0.507401 0.372588 0.063451
0.550116 0.372474 0.061958
0.593753 0.372307 0.059971
0.637994 0.372069 0.057316
0.682482 0.371739 0.053753
0.726815 0.371292 0.048930
0.770532 0.370696 0.042315
0.813010 0.370023 0.034786
0.853651 0.369249 0.026411
0.891728 0.368382 0.017310
0.926363 0.367460 0.007859
0.956505 0.366542 0.000000
0.980866 0.365714 0.000000
0.997839 0.365089 0.000000
1.000000 0.364799 0.000000
1.000000 0.364793 0.000000
0.100546 0.411919 0.066140
0.105757 0.411918 0.066135
0.111598 0.411917 0.066129
0.119876 0.411916 0.066120
0.130823 0.411913 0.066107
0.144529 0.411910 0.066090
0.161033 0.411906 0.066067
0.180330 0.411901 0.066036
0.202384 0.411894 0.065997
0.227128 0.411885 0.065947
0.254475 0.411874 0.065885
0.284316 0.411860 0.065808
0.316524 0.411844 0.065716
0.350952 0.411824 0.065604
0.387433 0.411801 0.065473
0.425786 0.411777 0.065107
0.465829 0.411746 0.064194
0.507331 0.411691 0.062988
0.550038 0.411604 0.061393
0.593667 0.411472 0.059276
0.637899 0.411280 0.056455
0.682378 0.411009 0.052669
0.726701 0.410638 0.047534
0.770410 0.410139 0.040455
0.812898 0.409553 0.032291
0.853534 0.408891 0.023627
0.891606 0.408149 0.014238
0.926237 0.407356 0.004511
0.956375 0.406567 0.000000
0.980733 0.405854 0.000000
0.997704 0.405315 0.000000
1.000000 0.405065 0.000000
1.000000 0.405060 0.000000
0.099937 0.452685 0.065252
0.105177 0.452684 0.065246
0.111049 0.452683 0.065238
0.119366 0.452681 0.065228
0.130359 0.452679 0.065212
0.144115 0.452676 0.065191
0.160668 0.452671 0.065164
0.180014 0.452665 0.065127
0.202113 0.452658 0.065080
0.226899 0.452648 0.065020
0.254284 0.452636 0.064946
0.284159 0.452621 0.064854
0.316397 0.452603 0.064742
0.350852 0.452581 0.064609
0.387357 0.452556 0.064452
0.425727 0.452526 0.064269
0.465759 0.452496 0.063778
0.507253 0.452459 0.062478
0.549950 0.452395 0.060766
0.593569 0.452294 0.058503
0.637790 0.452143 0.055490
0.682258 0.451925 0.051443
0.726569 0.451620 0.045938
0.770266 0.451206 0.038297
0.812767 0.450696 0.029359
0.853397 0.450131 0.020355
0.891463 0.449495 0.010628
0.926089 0.448814 0.000577
0.956222 0.448134 0.000000
0.980577 0.447519 0.000000
0.997545 0.447054 0.000000
1.000000 0.446838 0.000000
1.000000 0.446833 0.000000
0.099081 0.494906 0.064003
0.104363 0.494905 0.063996
0.110278 0.494904 0.063987
0.118650 0.494902 0.063975
0.129707 0.494899 0.063957
0.143531 0.494895 0.063932
0.160153 0.494891 0.063899
0.179566 0.494884 0.063855
0.201727 0.494876 0.063799
0.226570 0.494865 0.063729
0.254006 0.494852 0.063640
0.283928 0.494836 0.063531
0.316207 0.494817 0.063399
0.350697 0.494793 0.063240
0.387235 0.494766 0.063053
0.425633 0.494733 0.062836
0.465685 0.494696 0.062587
0.507166 0.494659 0.061937
0.549852 0.494616 0.060098
0.593458 0.494542 0.057672
0.637666 0.494427 0.054444
0.682120 0.494255 0.050101
0.726417 0.494010 0.044165
0.770098 0.493670 0.035932
0.812615 0.493229 0.025956
0.853238 0.492748 0.016557
0.891297 0.492204 0.006437
0.925917 0.491619 0.000000
0.956045 0.491033 0.000000
0.980395 0.490502 0.000000
0.997361 0.490100 0.000000
1.000000 0.489913 0.000000
1.000000 0.489909 0.000000
0.097906 0.538323 0.062279
0.103245 0.538322 0.062271
0.109219 0.538320 0.062261
0.117666 0.538318 0.062246
0.128810 0.538316 0.062224
0.142728 0.538312 0.062195
0.159444 0.538306 0.062156
0.178947 0.538299 0.062105
0.201192 0.538291 0.062039
0.226112 0.538279 0.061955
0.253617 0.538265 0.061851
0.283600 0.538248 0.061722
0.315933 0.538227 0.061566
0.350472 0.538201 0.061379
0.387052 0.538171 0.061158
0.425488 0.538136 0.060901
0.465573 0.538096 0.060606
0.507077 0.538051 0.060275
0.549746 0.538006 0.059420
0.593338 0.537956 0.056821
0.637530 0.537873 0.053359
0.681966 0.537743 0.048686
0.726245 0.537551 0.042260
0.769908 0.537278 0.033429
0.812429 0.536905 0.022336
0.853055 0.536493 0.012204
0.891107 0.536028 0.001634
0.925720 0.535526 0.000000
0.955842 0.535021 0.000000
0.980187 0.534563 0.000000
0.997149 0.534215 0.000000
1.000000 0.534053 0.000000
1.000000 0.534049 0.000000
0.096318 0.582648 0.059930
0.101736 0.582647 0.059920
0.107790 0.582645 0.059908
0.116340 0.582643 0.059890
0.127602 0.582640 0.059865
0.141645 0.582636 0.059831
0.158488 0.582630 0.059785
0.178111 0.582623 0.059725
0.200469 0.582613 0.059647
0.225490 0.582601 0.059548
0.253087 0.582586 0.059426
0.283150 0.582567 0.059274
0.315554 0.582544 0.059089
0.350155 0.582517 0.058868
0.386790 0.582485 0.058607
0.425275 0.582447 0.058303
0.465403 0.582404 0.057955
0.506945 0.582355 0.057562
0.549640 0.582300 0.057126
0.593210 0.582246 0.056005
0.637383 0.582192 0.052301
0.681799 0.582099 0.047277
0.726056 0.581954 0.040310
0.769696 0.581742 0.030895
0.812194 0.581443 0.019131
0.852848 0.581082 0.007277
0.890891 0.580687 0.000000
0.925497 0.580258 0.000000
0.955612 0.579824 0.000000
0.979952 0.579428 0.000000
0.996910 0.579127 0.000000
1.000000 0.578987 0.000000
1.000000 0.578984 0.000000
0.094203 0.627558 0.056755
0.099728 0.627556 0.056743
0.105891 0.627555 0.056729
0.114579 0.627552 0.056708
0.126000 0.627549 0.056679
0.140211 0.627545 0.056638
0.157221 0.627538 0.056584
0.177004 0.627531 0.056512
0.199509 0.627520 0.056421
0.224663 0.627507 0.056304
0.252378 0.627491 0.056158
0.282546 0.627471 0.055979
0.315042 0.627447 0.055760
0.349723 0.627417 0.055498
0.386429 0.627383 0.055187
0.424976 0.627342 0.054825
0.465159 0.627296 0.054410
0.506749 0.627243 0.053940
0.549488 0.627184 0.053417
0.593087 0.627119 0.052846
0.637231 0.627056 0.051364
0.681623 0.626996 0.045986
0.725853 0.626895 0.038455
0.769466 0.626737 0.028482
0.811934 0.626506 0.015999
0.852617 0.626197 0.001775
0.890651 0.625864 0.000000
0.925247 0.625498 0.000000
0.955355 0.625126 0.000000
0.979689 0.624785 0.000000
0.996643 0.624525 0.000000
1.000000 0.624403 0.000000
1.000000 0.624400 0.000000
0.091415 0.672688 0.052475
0.097084 0.672687 0.052461
0.103395 0.672685 0.052444
0.112269 0.672683 0.052419
0.123903 0.672679 0.052384
0.138336 0.672674 0.052335
0.155567 0.672668 0.052269
0.175558 0.672659 0.052184
0.198255 0.672648 0.052074
0.223582 0.672635 0.051934
0.251449 0.672617 0.051759
0.281751 0.672596 0.051543
0.314364 0.672570 0.051280
0.349149 0.672538 0.050963
0.385944 0.672501 0.050588
0.424569 0.672458 0.050150
0.464822 0.672408 0.049645
0.506473 0.672351 0.049072
0.549266 0.672287 0.048432
0.592913 0.672217 0.047729
0.637090 0.672141 0.046971
0.681443 0.672069 0.044974
0.725643 0.672006 0.036933
0.769222 0.671897 0.026395
0.811656 0.671728 0.013163
0.852334 0.671484 0.000000
0.890385 0.671198 0.000000
0.924972 0.670888 0.000000
0.955072 0.670570 0.000000
0.979399 0.670277 0.000000
0.996348 0.670053 0.000000
1.000000 0.669948 0.000000
1.000000 0.669946 0.000000
0.087758 0.717629 0.046669
0.093627 0.717628 0.046652
0.100139 0.717626 0.046632
0.109265 0.717623 0.046601
0.121182 0.717619 0.046557
0.135911 0.717614 0.046497
0.153431 0.717607 0.046417
0.173694 0.717598 0.046312
0.196639 0.717587 0.046176
0.222187 0.717572 0.046004
0.250250 0.717554 0.045787
0.280723 0.717531 0.045520
0.313485 0.717503 0.045194
0.348399 0.717470 0.044801
0.385307 0.717430 0.044333
0.424031 0.717384 0.043786
0.464370 0.717330 0.043151
0.506097 0.717269 0.042429
0.548957 0.717201 0.041617
0.592664 0.717125 0.040719
0.636895 0.717043 0.039733
0.681284 0.716955 0.038690
0.725434 0.716873 0.035967
0.768974 0.716809 0.024882
0.811367 0.716695 0.010901
0.852003 0.716519 0.000000
0.890097 0.716281 0.000000
0.924674 0.716020 0.000000
0.954764 0.715750 0.000000
0.979084 0.715499 0.000000
0.996028 0.715306 0.000000
1.000000 0.715216 0.000000
1.000000 0.715214 0.000000
0.082972 0.761914 0.038649
0.089119 0.761913 0.038627
0.095908 0.761911 0.038602
0.105377 0.761908 0.038563
0.117676 0.761904 0.038507
0.132798 0.761899 0.038430
0.150698 0.761891 0.038329
0.171315 0.761882 0.038195
0.194579 0.761869 0.038024
0.220411 0.761854 0.037805
0.248722 0.761834 0.037532
0.279410 0.761810 0.037195
0.312360 0.761781 0.036785
0.347435 0.761745 0.036293
0.384484 0.761703 0.035711
0.423331 0.761653 0.035031
0.463777 0.761596 0.034250
0.505599 0.761531 0.033364
0.548542 0.761457 0.032377
0.592323 0.761376 0.031293
0.636619 0.761287 0.030123
0.681068 0.761192 0.028883
0.725258 0.761091 0.027595
0.768733 0.760999 0.024229
0.811081 0.760937 0.009352
0.851677 0.760824 0.000000
0.889774 0.760646 0.000000
0.924356 0.760429 0.000000
0.954436 0.760200 0.000000
0.978748 0.759987 0.000000
0.995687 0.759822 0.000000
1.000000 0.759744 0.000000
1.000000 0.759742 0.000000
0.076700 0.805010 0.028228
0.083243 0.805008 0.028203
0.090423 0.805006 0.028173
0.100366 0.805003 0.028128
0.113186 0.804999 0.028063
0.128832 0.804994 0.027974
0.147233 0.804986 0.027857
0.168309 0.804976 0.027702
0.191984 0.804963 0.027503
0.218176 0.804946 0.027250
0.246800 0.804926 0.026933
0.277759 0.804900 0.026541
0.310941 0.804869 0.026064
0.346219 0.804831 0.025490
0.383441 0.804786 0.024810
0.422439 0.804733 0.024014
0.463017 0.804672 0.023095
0.504954 0.804603 0.022052
0.548000 0.804524 0.020882
0.591871 0.804436 0.019591
0.636247 0.804341 0.018190
0.680768 0.804238 0.016696
0.725021 0.804131 0.014866
0.768545 0.804028 0.011708
0.810825 0.803931 0.005970
0.851368 0.803868 0.000000
0.889408 0.803749 0.000000
0.924022 0.803579 0.000000
0.954092 0.803388 0.000000
0.978396 0.803207 0.000000
0.995329 0.803066 0.000000
1.000000 0.802999 0.000000
1.000000 0.802998 0.000000
0.068449 0.846299 0.015547
0.075579 0.846298 0.015517
0.083324 0.846296 0.015482
0.093939 0.846293 0.015430
0.107477 0.846288 0.015354
0.123831 0.846282 0.015251
0.142892 0.846274 0.015112
0.164563 0.846263 0.014932
0.188761 0.846250 0.014698
0.215407 0.846232 0.014401
0.244422 0.846210 0.014030
0.275717 0.846183 0.013569
0.309187 0.846150 0.013008
0.344710 0.846110 0.012331
0.382146 0.846063 0.011528
0.421327 0.846007 0.010585
0.462065 0.845942 0.009495
0.504141 0.845867 0.008250
0.547309 0.845783 0.006850
0.591289 0.845690 0.005296
0.635750 0.845596 0.002933
0.680347 0.845500 0.000000
0.724680 0.845393 0.000000
0.768282 0.845277 0.000000
0.810615 0.845154 0.000000
0.851075 0.845038 0.000000
0.889063 0.844967 0.000000
0.923665 0.844850 0.000000
0.953740 0.844694 0.000000
0.978035 0.844542 0.000000
0.994963 0.844422 0.000000
1.000000 0.844365 0.000000
1.000000 0.844364 0.000000
0.057526 0.885060 0.000507
0.065578 0.885058 0.000472
0.074175 0.885056 0.000431
0.085768 0.885053 0.000369
0.100311 0.885048 0.000280
0.117624 0.885042 0.000158
0.137554 0.885033 0.000000
0.159989 0.885022 0.000000
0.184847 0.885007 0.000000
0.212058 0.884989 0.000000
0.241553 0.884966 0.000000
0.273255 0.884938 0.000000
0.307072 0.884903 0.000000
0.342891 0.884860 0.000000
0.380580 0.884810 0.000000
0.419980 0.884751 0.000000
0.460906 0.884682 0.000000
0.503121 0.884614 0.000000
0.546410 0.884537 0.000000
0.590502 0.884450 0.000000
0.635082 0.884352 0.000000
0.679793 0.884243 0.000000
0.724226 0.884124 0.000000
