app/src/main/assets/luts/night_neon_soft.cube
# V-Cam procedural LUT — night_neon_soft
# Generated by LutBaker. Do not edit by hand.
TITLE "V-Cam night_neon_soft"
LUT_3D_SIZE 33
DOMAIN_MIN 0.0 0.0 0.0
DOMAIN_MAX 1.0 1.0 1.0
0.000000 0.000000 0.000000
0.000000 0.000000 0.000000
0.000000 0.000000 0.000000
0.000000 0.000000 0.000000
0.000404 0.000000 0.000000
0.004001 0.000000 0.000000
0.013473 0.000000 0.000000
0.032028 0.000000 0.000000
0.060272 0.000000 0.000000
0.091428 0.000000 0.000000
0.125056 0.000000 0.000000
0.161111 0.000000 0.000000
0.199524 0.000000 0.000000
0.240206 0.000000 0.000000
0.283052 0.000000 0.000000
0.327940 0.000000 0.000000
0.374727 0.000000 0.000000
0.423252 0.000000 0.000000
0.473330 0.000000 0.000000
0.524750 0.000000 0.000000
0.577277 0.000000 0.000000
0.630648 0.000000 0.000000
0.684569 0.000000 0.000000
0.738709 0.000000 0.000000
0.792199 0.000000 0.000000
0.844281 0.000000 0.000000
0.894316 0.000000 0.000000
0.941297 0.000000 0.000000
0.983980 0.000000 0.000000
1.000000 0.000000 0.000000
1.000000 0.000000 0.000000
1.000000 0.000000 0.000000
1.000000 0.000000 0.000000
0.000000 0.000000 0.000000
0.000000 0.000000 0.000000
0.000000 0.000000 0.000000
0.000000 0.000000 0.000000
0.000404 0.000000 0.000000
0.004001 0.000000 0.000000
0.013473 0.000000 0.000000
0.032028 0.000000 0.000000
0.060272 0.000000 0.000000
0.091428 0.000000 0.000000
0.125056 0.000000 0.000000
0.161111 0.000000 0.000000
0.199524 0.000000 0.000000
0.240206 0.000000 0.000000
0.283052 0.000000 0.000000
0.327940 0.000000 0.000000
0.374727 0.000000 0.000000
0.423252 0.000000 0.000000
0.473330 0.000000 0.000000
0.524750 0.000000 0.000000
0.577277 0.000000 0.000000
0.630648 0.000000 0.000000
0.684569 0.000000 0.000000
0.738709 0.000000 0.000000
0.792199 0.000000 0.000000
0.844281 0.000000 0.000000
0.894316 0.000000 0.000000
0.941297 0.000000 0.000000
0.983980 0.000000 0.000000
1.000000 0.000000 0.000000
1.000000 0.000000 0.000000
1.000000 0.000000 0.000000
1.000000 0.000000 0.000000
0.000000 0.000000 0.000000
0.000000 0.000000 0.000000
0.000000 0.000000 0.000000
0.000000 0.000000 0.000000
0.000404 0.000000 0.000000
0.004001 0.000000 0.000000
0.013473 0.000000 0.000000
0.032028 0.000000 0.000000
0.060272 0.000000 0.000000
0.091428 0.000000 0.000000
0.125056 0.000000 0.000000
0.161111 0.000000 0.000000
0.199524 0.000000 0.000000
0.240206 0.000000 0.000000
0.283052 0.000000 0.000000
0.327940 0.000000 0.000000
0.374727 0.000000 0.000000
0.423252 0.000000 0.000000
0.473330 0.000000 0.000000
0.524750 0.000000 0.000000
0.577277 0.000000 0.000000
0.630648 0.000000 0.000000
0.684569 0.000000 0.000000
0.738709 0.000000 0.000000
0.792199 0.000000 0.000000
0.844281 0.000000 0.000000
0.894316 0.000000 0.000000
0.941297 0.000000 0.000000
0.983980 0.000000 0.000000
1.000000 0.000000 0.000000
1.000000 0.000000 0.000000
1.000000 0.000000 0.000000
1.000000 0.000000 0.000000
0.000000 0.000000 0.000000
0.000000 0.000000 0.000000
0.000000 0.000000 0.000000
0.000000 0.000000 0.000000
0.000404 0.000000 0.000000
0.004001 0.000000 0.000000
0.013473 0.000000 0.000000
0.032028 0.000000 0.000000
0.060272 0.000000 0.000000
0.091428 0.000000 0.000000
0.125056 0.000000 0.000000
0.161111 0.000000 0.000000
0.199524 0.000000 0.000000
0.240206 0.000000 0.000000
0.283052 0.000000 0.000000
0.327940 0.000000 0.000000
0.374727 0.000000 0.000000
0.423252 0.000000 0.000000
0.473330 0.000000 0.000000
0.524750 0.000000 0.000000
0.577277 0.000000 0.000000
0.630648 0.000000 0.000000
0.684569 0.000000 0.000000
0.738709 0.000000 0.000000
0.792199 0.000000 0.000000
0.844281 0.000000 0.000000
0.894316 0.000000 0.000000
0.941297 0.000000 0.000000
0.983980 0.000000 0.000000
1.000000 0.000000 0.000000
1.000000 0.000000 0.000000
1.000000 0.000000 0.000000
1.000000 0.000000 0.000000
0.000000 0.000405 0.000012
0.000000 0.000405 0.000012
0.000000 0.000405 0.000012
0.000000 0.000405 0.000012
0.000404 0.000405 0.000012
0.004001 0.000405 0.000012
0.013473 0.000404 0.000011
0.032028 0.000400 0.000007
0.060272 0.000386 0.000000
0.091427 0.000346 0.000000
0.125056 0.000247 0.000000
0.161111 0.000028 0.000000
0.199523 0.000000 0.000000
0.240205 0.000000 0.000000
0.283051 0.000000 0.000000
0.327939 0.000000 0.000000
0.374726 0.000000 0.000000
0.423251 0.000000 0.000000
0.473329 0.000000 0.000000
0.524749 0.000000 0.000000
0.577276 0.000000 0.000000
0.630647 0.000000 0.000000
0.684568 0.000000 0.000000
0.738708 0.000000 0.000000
0.792198 0.000000 0.000000
0.844280 0.000000 0.000000
0.894315 0.000000 0.000000
0.941296 0.000000 0.000000
0.983978 0.000000 0.000000
1.000000 0.000000 0.000000
1.000000 0.000000 0.000000
1.000000 0.000000 0.000000
1.000000 0.000000 0.000000
0.000000 0.003920 0.000119
0.000000 0.003920 0.000119
0.000000 0.003920 0.000119
0.000000 0.003920 0.000119
0.000404 0.003920 0.000119
0.004001 0.003920 0.000119
0.013473 0.003919 0.000117
0.032027 0.003916 0.000113
0.060270 0.003903 0.000098
0.091425 0.003864 0.000056
0.125053 0.003767 0.000000
0.161108 0.003550 0.000000
0.199520 0.003108 0.000000
0.240201 0.002273 0.000000
0.283047 0.000787 0.000000
0.327934 0.000000 0.000000
0.374720 0.000000 0.000000
0.423244 0.000000 0.000000
0.473321 0.000000 0.000000
0.524741 0.000000 0.000000
0.577267 0.000000 0.000000
0.630637 0.000000 0.000000
0.684557 0.000000 0.000000
0.738697 0.000000 0.000000
0.792187 0.000000 0.000000
0.844268 0.000000 0.000000
0.894303 0.000000 0.000000
0.941283 0.000000 0.000000
0.983966 0.000000 0.000000
1.000000 0.000000 0.000000
1.000000 0.000000 0.000000
1.000000 0.000000 0.000000
1.000000 0.000000 0.000000
0.000000 0.013138 0.000397
0.000000 0.013138 0.000397
0.000000 0.013138 0.000397
0.000000 0.013138 0.000397
0.000403 0.013138 0.000397
0.004000 0.013138 0.000396
0.013472 0.013137 0.000396
0.032024 0.013135 0.000390
0.060266 0.013123 0.000372
0.091420 0.013088 0.000327
0.125047 0.012995 0.000220
0.161100 0.012784 0.000000
0.199511 0.012351 0.000000
0.240190 0.011526 0.000000
0.283034 0.010054 0.000000
0.327919 0.007560 0.000000
0.374704 0.003528 0.000000
0.423227 0.000000 0.000000
0.473301 0.000000 0.000000
0.524718 0.000000 0.000000
0.577243 0.000000 0.000000
0.630610 0.000000 0.000000
0.684529 0.000000 0.000000
0.738667 0.000000 0.000000
0.792158 0.000000 0.000000
0.844238 0.000000 0.000000
0.894272 0.000000 0.000000
0.941251 0.000000 0.000000
0.983932 0.000000 0.000000
1.000000 0.000000 0.000000
1.000000 0.000000 0.000000
1.000000 0.000000 0.000000
1.000000 0.000000 0.000000
0.000000 0.031166 0.000936
0.000000 0.031166 0.000936
0.000000 0.031166 0.000936
0.000000 0.031166 0.000936
0.000396 0.031165 0.000936
0.003994 0.031165 0.000936
0.013467 0.031164 0.000934
0.032019 0.031161 0.000931
0.060258 0.031153 0.000909
0.091410 0.031123 0.000856
0.125034 0.031039 0.000738
0.161085 0.030840 0.000492
0.199492 0.030423 0.000012
0.240169 0.029620 0.000000
0.283010 0.028174 0.000000
0.327892 0.025715 0.000000
0.374673 0.021725 0.000000
0.423191 0.015511 0.000000
0.473262 0.006168 0.000000
0.524675 0.000000 0.000000
0.577195 0.000000 0.000000
0.630559 0.000000 0.000000
0.684474 0.000000 0.000000
0.738608 0.000000 0.000000
0.792102 0.000000 0.000000
0.844179 0.000000 0.000000
0.894210 0.000000 0.000000
0.941187 0.000000 0.000000
0.983866 0.000000 0.000000
1.000000 0.000000 0.000000
1.000000 0.000000 0.000000
1.000000 0.000000 0.000000
1.000000 0.000000 0.000000
0.000000 0.058910 0.001840
0.000000 0.058910 0.001840
0.000000 0.058910 0.001840
0.000000 0.058910 0.001840
0.000370 0.058910 0.001840
0.003970 0.058909 0.001840
0.013446 0.058907 0.001837
0.032004 0.058903 0.001832
0.060245 0.058896 0.001822
0.091392 0.058880 0.001756
0.125013 0.058827 0.001620
0.161059 0.058689 0.001348
0.199462 0.058388 0.000834
0.240133 0.057794 0.000000
0.282968 0.056697 0.000000
0.327844 0.054780 0.000000
0.374620 0.051546 0.000000
0.423132 0.046194 0.000000
0.473196 0.037301 0.000000
0.524602 0.023800 0.000000
0.577115 0.004586 0.000000
0.630472 0.000000 0.000000
0.684380 0.000000 0.000000
0.738508 0.000000 0.000000
0.792007 0.000000 0.000000
0.844079 0.000000 0.000000
0.894106 0.000000 0.000000
0.941078 0.000000 0.000000
0.983754 0.000000 0.000000
1.000000 0.000000 0.000000
1.000000 0.000000 0.000000
1.000000 0.000000 0.000000
1.000000 0.000000 0.000000
0.000000 0.089642 0.003218
0.000000 0.089642 0.003218
0.000000 0.089642 0.003218
0.000000 0.089642 0.003218
0.000296 0.089642 0.003218
0.003900 0.089640 0.003219
0.013381 0.089637 0.003215
0.031948 0.089632 0.003206
0.060214 0.089624 0.003190
0.091366 0.089611 0.003162
0.124980 0.089584 0.002997
0.161019 0.089503 0.002685
0.199414 0.089312 0.002117
0.240078 0.088919 0.001119
0.282904 0.088183 0.000000
0.327771 0.086887 0.000000
0.374537 0.084715 0.000000
0.423039 0.081197 0.000000
0.473093 0.075612 0.000000
0.524488 0.066759 0.000000
0.576990 0.052295 0.000000
0.630337 0.027080 0.000000
0.684234 0.000000 0.000000
0.738353 0.000000 0.000000
0.791859 0.000000 0.000000
0.843924 0.000000 0.000000
0.893943 0.000000 0.000000
0.940909 0.000000 0.000000
0.983579 0.000000 0.000000
1.000000 0.000000 0.000000
1.000000 0.000000 0.000000
1.000000 0.000000 0.000000
1.000000 0.000000 0.000000
0.000000 0.122800 0.005171
0.000000 0.122800 0.005171
0.000000 0.122800 0.005171
0.000000 0.122800 0.005171
0.000113 0.122800 0.005171
0.003722 0.122797 0.005174
0.013213 0.122793 0.005169
0.031793 0.122787 0.005154
0.060115 0.122777 0.005129
0.091314 0.122760 0.005090
0.124933 0.122737 0.005021
0.160961 0.122695 0.004651
0.199345 0.122578 0.004006
0.239997 0.122318 0.002907
0.282811 0.121812 0.001090
0.327665 0.120905 0.000000
0.374416 0.119374 0.000000
0.422904 0.116899 0.000000
0.472942 0.113024 0.000000
0.524321 0.107071 0.000000
0.576808 0.097969 0.000000
0.630138 0.083797 0.000000
0.684020 0.060232 0.000000
0.738124 0.015411 0.000000
0.791641 0.000000 0.000000
0.843695 0.000000 0.000000
0.893704 0.000000 0.000000
0.940660 0.000000 0.000000
0.983322 0.000000 0.000000
1.000000 0.000000 0.000000
1.000000 0.000000 0.000000
1.000000 0.000000 0.000000
1.000000 0.000000 0.000000
0.000000 0.158330 0.007770
0.000000 0.158330 0.007770
0.000000 0.158330 0.007770
0.000000 0.158330 0.007770
0.000000 0.158329 0.007771
0.003326 0.158326 0.007775
0.012834 0.158320 0.007774
0.031434 0.158312 0.007752
0.059867 0.158300 0.007713
0.091164 0.158280 0.007654
0.124849 0.158252 0.007567
0.160882 0.158213 0.007415
0.199251 0.158150 0.006661
0.239886 0.157985 0.005423
0.282682 0.157641 0.003430
0.327517 0.157001 0.000300
0.374249 0.155898 0.000000
0.422715 0.154099 0.000000
0.472732 0.151282 0.000000
0.524089 0.146994 0.000000
0.576552 0.140583 0.000000
0.629859 0.131043 0.000000
0.683719 0.116681 0.000000
0.737802 0.094108 0.000000
0.791336 0.056356 0.000000
0.843374 0.000000 0.000000
0.893368 0.000000 0.000000
0.940312 0.000000 0.000000
0.982962 0.000000 0.000000
1.000000 0.000000 0.000000
1.000000 0.000000 0.000000
1.000000 0.000000 0.000000
1.000000 0.000000 0.000000
0.000000 0.196150 0.011029
0.000000 0.196150 0.011029
0.000000 0.196150 0.011029
0.000000 0.196150 0.011029
0.000000 0.196150 0.011030
0.002520 0.196146 0.011036
0.012062 0.196136 0.011049
0.030687 0.196127 0.011017
0.059331 0.196113 0.010961
0.090819 0.196090 0.010874
0.124631 0.196057 0.010747
0.160755 0.196010 0.010571
0.199126 0.195949 0.010266
0.239739 0.195857 0.008841
0.282511 0.195633 0.006615
0.327320 0.195188 0.003199
0.374025 0.194393 0.000000
0.422463 0.193069 0.000000
0.472450 0.190976 0.000000
0.523776 0.187782 0.000000
0.576208 0.183034 0.000000
0.629484 0.176086 0.000000
0.683313 0.165971 0.000000
0.737367 0.151129 0.000000
0.790923 0.129897 0.000000
0.842940 0.100026 0.000000
0.892915 0.049453 0.000000
0.939841 0.000000 0.000000
0.982475 0.000000 0.000000
1.000000 0.000000 0.000000
1.000000 0.000000 0.000000
1.000000 0.000000 0.000000
1.000000 0.000000 0.000000
0.000000 0.236161 0.014869
0.000000 0.236161 0.014869
0.000000 0.236161 0.014869
0.000000 0.236161 0.014869
0.000000 0.236161 0.014870
0.001005 0.236156 0.014879
0.010582 0.236144 0.014902
0.029261 0.236131 0.014878
0.058279 0.236114 0.014800
0.090120 0.236088 0.014679
0.124162 0.236049 0.014501
0.160449 0.235995 0.014254
0.198940 0.235923 0.013921
0.239552 0.235832 0.013353
0.282292 0.235702 0.010827
0.327068 0.235407 0.007042
0.373737 0.234844 0.001461
0.422137 0.233874 0.000000
0.472085 0.232308 0.000000
0.523370 0.229892 0.000000
0.575760 0.226289 0.000000
0.628993 0.221034 0.000000
0.682780 0.213478 0.000000
0.736795 0.202675 0.000000
0.790382 0.187811 0.000000
0.842371 0.168959 0.000000
0.892321 0.143711 0.000000
0.939223 0.108876 0.000000
0.981837 0.054567 0.000000
1.000000 0.000000 0.000000
1.000000 0.000000 0.000000
1.000000 0.000000 0.000000
1.000000 0.000000 0.000000
0.000000 0.278240 0.019075
0.000000 0.278240 0.019075
0.000000 0.278240 0.019075
0.000000 0.278240 0.019075
0.000000 0.278239 0.019077
0.000000 0.278234 0.019089
0.007947 0.278220 0.019121
0.026724 0.278200 0.019134
0.056347 0.278180 0.019030
0.088823 0.278150 0.018866
0.123265 0.278106 0.018627
0.159828 0.278045 0.018293
0.198524 0.277962 0.017844
0.239289 0.277855 0.017261
0.282022 0.277724 0.016267
0.326754 0.277549 0.012024
0.373378 0.277169 0.005892
0.421730 0.276473 0.000000
0.471626 0.275310 0.000000
0.522858 0.273480 0.000000
0.575193 0.270717 0.000000
0.628370 0.266669 0.000000
0.682101 0.260858 0.000000
0.736062 0.252627 0.000000
0.789691 0.241370 0.000000
0.841645 0.227733 0.000000
0.891561 0.210522 0.000000
0.938433 0.189252 0.000000
0.981021 0.163566 0.000000
1.000000 0.133498 0.000000
1.000000 0.100296 0.000000
1.000000 0.086456 0.000000
1.000000 0.086456 0.000000
0.000000 0.322243 0.023261
0.000000 0.322243 0.023261
0.000000 0.322243 0.023261
0.000000 0.322243 0.023261
0.000000 0.322242 0.023263
0.000000 0.322236 0.023279
0.003526 0.322221 0.023323
0.022450 0.322190 0.023410
0.052966 0.322168 0.023282
0.086561 0.322134 0.023068
0.121680 0.322085 0.022755
0.158699 0.322015 0.022318
0.197723 0.321923 0.021732
0.238739 0.321802 0.020970
0.281664 0.321649 0.020008
0.326378 0.321468 0.018362
0.372944 0.321237 0.011565
0.421235 0.320761 0.002034
0.471066 0.319918 0.000000
0.522230 0.318545 0.000000
0.574493 0.316429 0.000000
0.627598 0.313292 0.000000
0.681256 0.308761 0.000000
0.735145 0.302345 0.000000
0.788829 0.293470 0.000000
0.840738 0.283021 0.000000
0.890612 0.270154 0.000000
0.937447 0.254850 0.000000
0.980002 0.237427 0.000000
1.000000 0.218813 0.000000
1.000000 0.200977 0.000000
1.000000 0.194514 0.000000
1.000000 0.194514 0.000000
0.000000 0.368003 0.026826
0.000000 0.368003 0.026826
0.000000 0.368003 0.026826
0.000000 0.368003 0.026826
0.000000 0.368003 0.026828
0.000000 0.367996 0.026850
0.000000 0.367979 0.026908
0.015510 0.367945 0.027023
0.047201 0.367909 0.026983
0.082785 0.367871 0.026711
0.119035 0.367816 0.026314
0.156788 0.367739 0.025759
0.196330 0.367636 0.025015
0.237733 0.367501 0.024047
0.280959 0.367330 0.022825
0.325906 0.367120 0.021321
0.372436 0.366878 0.018724
0.420652 0.366583 0.008272
0.470402 0.366000 0.000000
0.521481 0.364996 0.000000
0.573654 0.363398 0.000000
0.626665 0.360976 0.000000
0.680229 0.357435 0.000000
0.734024 0.352384 0.000000
0.787676 0.345328 0.000000
0.839628 0.336973 0.000000
0.889451 0.326923 0.000000
0.936240 0.315172 0.000000
0.978754 0.302115 0.000000
1.000000 0.288608 0.000000
1.000000 0.276157 0.000000
1.000000 0.271777 0.000000
1.000000 0.271777 0.000000
0.000000 0.415329 0.028926
0.000000 0.415329 0.028926
0.000000 0.415329 0.028926
0.000000 0.415329 0.028926
0.000000 0.415328 0.028930
0.000000 0.415321 0.028958
0.000000 0.415302 0.029034
0.004864 0.415264 0.029185
0.037370 0.415210 0.029328
0.076658 0.415169 0.028992
0.114803 0.415108 0.028501
0.153724 0.415023 0.027814
0.194065 0.414909 0.026893
0.236050 0.414760 0.025695
0.279722 0.414571 0.024183
0.325024 0.414339 0.022322
0.371830 0.414059 0.020088
0.419986 0.413744 0.016159
0.469638 0.413378 0.000629
0.520611 0.412679 0.000000
0.572672 0.411504 0.000000
0.625565 0.409664 0.000000
0.679008 0.406915 0.000000
0.732682 0.402941 0.000000
0.786216 0.397343 0.000000
0.838295 0.390472 0.000000
0.888057 0.382431 0.000000
0.934789 0.373098 0.000000
0.977254 0.362846 0.000000
1.000000 0.352396 0.000000
1.000000 0.342922 0.000000
1.000000 0.339629 0.000000
1.000000 0.339629 0.000000
0.000000 0.463998 0.028456
0.000000 0.463998 0.028456
0.000000 0.463998 0.028456
0.000000 0.463998 0.028456
0.000000 0.463997 0.028461
0.000000 0.463989 0.028498
0.000000 0.463968 0.028597
0.000000 0.463927 0.028793
0.022085 0.463858 0.029133
0.066789 0.463804 0.028858
0.108217 0.463737 0.028264
0.149001 0.463644 0.027434
0.190560 0.463519 0.026319
0.233409 0.463356 0.024871
0.277730 0.463149 0.023042
0.323538 0.462894 0.020792
0.370753 0.462587 0.018091
0.419227 0.462224 0.014922
0.468787 0.461828 0.009192
0.519632 0.461385 0.000000
0.571555 0.460563 0.000000
0.624303 0.459208 0.000000
0.677593 0.457112 0.000000
0.731111 0.454015 0.000000
0.784490 0.449589 0.000000
0.836722 0.443875 0.000000
0.886411 0.437353 0.000000
0.933077 0.429799 0.000000
0.975483 0.421538 0.000000
1.000000 0.413175 0.000000
1.000000 0.405655 0.000000
1.000000 0.403056 0.000000
1.000000 0.403056 0.000000
0.000000 0.513756 0.024029
0.000000 0.513756 0.024029
0.000000 0.513756 0.024029
0.000000 0.513756 0.024029
0.000000 0.513755 0.024034
0.000000 0.513746 0.024083
0.000000 0.513723 0.024212
0.000000 0.513678 0.024467
0.000102 0.513603 0.024906
0.050400 0.513520 0.024996
0.098083 0.513448 0.024292
0.141913 0.513347 0.023308
0.185332 0.513211 0.021987
0.229453 0.513033 0.020271
0.274704 0.512809 0.018103
0.321225 0.512531 0.015436
0.369007 0.512196 0.012234
0.417944 0.511800 0.008477
0.467861 0.511343 0.004168
0.518568 0.510857 0.000000
0.570325 0.510335 0.000000
0.622894 0.509388 0.000000
0.675994 0.507844 0.000000
0.729315 0.505482 0.000000
0.782496 0.502025 0.000000
0.834897 0.497270 0.000000
0.884500 0.491946 0.000000
0.931088 0.485763 0.000000
0.973427 0.479006 0.000000
1.000000 0.472182 0.000000
1.000000 0.466067 0.000000
1.000000 0.463959 0.000000
1.000000 0.463959 0.000000
0.000000 0.564315 0.013952
0.000000 0.564315 0.013952
0.000000 0.564315 0.013952
0.000000 0.564315 0.013952
0.000000 0.564314 0.013959
0.000000 0.564304 0.014023
0.000000 0.564279 0.014191
0.000000 0.564229 0.014522
0.000000 0.564146 0.015091
0.021949 0.564027 0.015819
0.082266 0.563949 0.014998
0.131409 0.563839 0.013851
0.177728 0.563692 0.012311
0.223722 0.563501 0.010310
0.270297 0.563258 0.007782
0.317811 0.562957 0.004671
0.366369 0.562595 0.000934
0.415930 0.562166 0.000000
0.466362 0.561669 0.000000
0.517462 0.561106 0.000000
0.569021 0.560524 0.000000
0.621374 0.559926 0.000000
0.674241 0.558854 0.000000
0.727318 0.557119 0.000000
0.780247 0.554486 0.000000
0.832585 0.550684 0.000000
0.882317 0.546225 0.000000
0.928816 0.541140 0.000000
0.971075 0.535566 0.000000
1.000000 0.529932 0.000000
1.000000 0.524886 0.000000
1.000000 0.523149 0.000000
1.000000 0.523149 0.000000
0.000000 0.615345 0.000000
0.000000 0.615345 0.000000
0.000000 0.615345 0.000000
0.000000 0.615345 0.000000
0.000000 0.615344 0.000000
0.000000 0.615334 0.000000
0.000000 0.615306 0.000000
0.000000 0.615252 0.000000
0.000000 0.615160 0.000000
0.000000 0.615019 0.000000
0.055726 0.614908 0.000000
0.115740 0.614791 0.000000
0.166807 0.614633 0.000000
0.215606 0.614427 0.000000
0.264071 0.614166 0.000000
0.312961 0.613842 0.000000
0.362570 0.613452 0.000000
0.412966 0.612989 0.000000
0.464079 0.612453 0.000000
0.515746 0.611843 0.000000
0.567728 0.611164 0.000000
0.619799 0.610483 0.000000
0.672388 0.609817 0.000000
0.725165 0.608625 0.000000
0.777782 0.606704 0.000000
0.829803 0.603819 0.000000
0.879864 0.600056 0.000000
0.926260 0.595871 0.000000
0.968431 0.591255 0.000000
1.000000 0.586574 0.000000
1.000000 0.582375 0.000000
1.000000 0.580928 0.000000
1.000000 0.580928 0.000000
0.000000 0.666478 0.000000
0.000000 0.666478 0.000000
0.000000 0.666478 0.000000
0.000000 0.666478 0.000000
0.000000 0.666477 0.000000
0.000000 0.666465 0.000000
0.000000 0.666435 0.000000
0.000000 0.666375 0.000000
0.000000 0.666274 0.000000
0.000000 0.666118 0.000000
0.006491 0.665951 0.000000
0.091331 0.665826 0.000000
0.151071 0.665657 0.000000
0.204243 0.665437 0.000000
0.255449 0.665157 0.000000
0.306251 0.664811 0.000000
0.357284 0.664392 0.000000
0.408789 0.663895 0.000000
0.460794 0.663317 0.000000
0.513195 0.662660 0.000000
0.565795 0.661926 0.000000
0.618316 0.661123 0.000000
0.670514 0.660344 0.000000
0.722933 0.659624 0.000000
0.775169 0.658325 0.000000
0.826798 0.656240 0.000000
0.877151 0.653183 0.000000
0.923434 0.649751 0.000000
0.965505 0.645929 0.000000
1.000000 0.642029 0.000000
1.000000 0.638517 0.000000
1.000000 0.637306 0.000000
1.000000 0.637306 0.000000
0.000000 0.717296 0.000000
0.000000 0.717296 0.000000
0.000000 0.717296 0.000000
0.000000 0.717296 0.000000
0.000000 0.717294 0.000000
0.000000 0.717281 0.000000
0.000000 0.717247 0.000000
0.000000 0.717181 0.000000
0.000000 0.717069 0.000000
0.000000 0.716895 0.000000
0.000000 0.716654 0.000000
0.046998 0.716521 0.000000
0.127737 0.716341 0.000000
0.188309 0.716106 0.000000
0.243627 0.715808 0.000000
0.297127 0.715439 0.000000
0.350098 0.714991 0.000000
0.403075 0.714459 0.000000
0.456245 0.713840 0.000000
0.509595 0.713133 0.000000
0.562984 0.712342 0.000000
0.616173 0.711473 0.000000
0.668839 0.710538 0.000000
0.720728 0.709666 0.000000
0.772511 0.708912 0.000000
0.823666 0.707532 0.000000
0.873637 0.705331 0.000000
0.920362 0.702459 0.000000
0.962322 0.699304 0.000000
0.998569 0.696056 0.000000
1.000000 0.693115 0.000000
1.000000 0.692097 0.000000
1.000000 0.692097 0.000000
0.000000 0.767322 0.000000
0.000000 0.767322 0.000000
0.000000 0.767322 0.000000
0.000000 0.767322 0.000000
0.000000 0.767320 0.000000
0.000000 0.767306 0.000000
0.000000 0.767268 0.000000
0.000000 0.767193 0.000000
0.000000 0.767067 0.000000
0.000000 0.766872 0.000000
0.000000 0.766589 0.000000
0.000000 0.766391 0.000000
0.090006 0.766200 0.000000
0.165526 0.765951 0.000000
0.227418 0.765634 0.000000
0.284839 0.765241 0.000000
0.340482 0.764764 0.000000
0.395425 0.764197 0.000000
0.450116 0.763535 0.000000
0.504686 0.762778 0.000000
0.559079 0.761927 0.000000
0.613113 0.760989 0.000000
0.666500 0.759975 0.000000
0.718863 0.758902 0.000000
0.769943 0.757948 0.000000
0.820546 0.757190 0.000000
0.870048 0.755773 0.000000
0.917084 0.753567 0.000000
0.958926 0.750978 0.000000
0.995074 0.748280 0.000000
1.000000 0.745818 0.000000
1.000000 0.744962 0.000000
1.000000 0.744962 0.000000
0.000000 0.816002 0.000000
0.000000 0.816002 0.000000
0.000000 0.816002 0.000000
0.000000 0.816002 0.000000
0.000000 0.816000 0.000000
0.000000 0.815984 0.000000
0.000000 0.815941 0.000000
0.000000 0.815857 0.000000
0.000000 0.815715 0.000000
0.000000 0.815495 0.000000
0.000000 0.815175 0.000000
0.000000 0.814875 0.000000
0.007845 0.814673 0.000000
0.131172 0.814409 0.000000
0.204943 0.814074 0.000000
0.268347 0.813657 0.000000
0.327758 0.813151 0.000000
0.385352 0.812547 0.000000
0.442035 0.811842 0.000000
0.498172 0.811032 0.000000
0.553838 0.810120 0.000000
0.608931 0.809110 0.000000
0.663216 0.808014 0.000000
0.716352 0.806847 0.000000
0.767936 0.805755 0.000000
0.817819 0.804789 0.000000
0.866685 0.803988 0.000000
0.913274 0.802503 0.000000
0.955377 0.800431 0.000000
0.991420 0.798201 0.000000
1.000000 0.796143 0.000000
1.000000 0.795425 0.000000
1.000000 0.795425 0.000000
0.000000 0.862671 0.000000
0.000000 0.862671 0.000000
0.000000 0.862671 0.000000
0.000000 0.862671 0.000000
0.000000 0.862669 0.000000
0.000000 0.862651 0.000000
0.000000 0.862602 0.000000
0.000000 0.862507 0.000000
0.000000 0.862347 0.000000
0.000000 0.862098 0.000000
0.000000 0.861736 0.000000
0.000000 0.861299 0.000000
0.000000 0.861087 0.000000
0.070016 0.860809 0.000000
0.172867 0.860455 0.000000
0.246196 0.860014 0.000000
0.311103 0.859478 0.000000
0.372316 0.858838 0.000000
0.431615 0.858088 0.000000
0.489755 0.857225 0.000000
0.547020 0.856250 0.000000
0.603355 0.855216 0.000000
0.658582 0.854207 0.000000
0.712662 0.853081 0.000000
