app/src/main/assets/luts/night_moody_blue.cube
# V-Cam procedural LUT — night_moody_blue
# Generated by LutBaker. Do not edit by hand.
TITLE "V-Cam night_moody_blue"
LUT_3D_SIZE 9
DOMAIN_MIN 0.0 0.0 0.0
DOMAIN_MAX 1.0 1.0 1.0
0.000000 0.000000 0.000000
0.000000 0.000000 0.000000
0.056030 0.000000 0.000000
0.192088 0.000000 0.000000
0.328146 0.000000 0.000000
0.464204 0.000000 0.000000
0.600262 0.000000 0.000000
0.736320 0.000000 0.000000
0.872378 0.000000 0.000000
0.000000 0.000000 0.000000
0.000000 0.000000 0.000000
0.060345 0.000000 0.000000
0.196402 0.000000 0.000000
0.332460 0.000000 0.000000
0.468518 0.000000 0.000000
0.604576 0.000000 0.000000
0.740634 0.000000 0.000000
0.876692 0.000000 0.000000
0.000000 0.119730 0.000000
0.000000 0.120995 0.000000
0.064659 0.123103 0.000000
0.200717 0.125211 0.000000
0.336775 0.127319 0.000000
0.472833 0.129427 0.000000
0.608891 0.131535 0.000000
0.744949 0.133643 0.000000
0.881007 0.135751 0.000000
0.000000 0.263695 0.000000
0.000000 0.264960 0.000000
0.068973 0.267067 0.000000
0.205031 0.269175 0.000000
0.341089 0.271283 0.000000
0.477147 0.273391 0.000000
0.613205 0.275499 0.000000
0.749263 0.277607 0.000000
0.885321 0.279715 0.000000
0.000000 0.407659 0.000000
0.000000 0.408924 0.000000
0.073288 0.411032 0.000000
0.209346 0.413140 0.000000
0.345404 0.415248 0.000000
0.481462 0.417356 0.000000
0.617520 0.419464 0.000000
0.753578 0.421572 0.000000
0.889636 0.423680 0.000000
0.000000 0.551624 0.000000
0.000000 0.552889 0.000000
0.077602 0.554996 0.000000
0.213660 0.557104 0.000000
0.349718 0.559212 0.000000
0.485776 0.561320 0.000000
0.621834 0.563428 0.000000
0.757892 0.565536 0.000000
0.893950 0.567644 0.000000
0.000000 0.695588 0.000000
0.000000 0.696853 0.000000
0.081917 0.698961 0.000000
0.217975 0.701069 0.000000
0.354033 0.703177 0.000000
0.490091 0.705285 0.000000
0.626149 0.707393 0.000000
0.762207 0.709501 0.000000
0.898265 0.711609 0.000000
0.000000 0.839553 0.000000
0.000000 0.840817 0.000000
0.086231 0.842925 0.000000
0.222289 0.845033 0.000000
0.358347 0.847141 0.000000
0.494405 0.849249 0.000000
0.630463 0.851357 0.000000
0.766521 0.853465 0.000000
0.902579 0.855573 0.000000
0.000000 0.983517 0.000000
0.000000 0.984782 0.000000
0.090546 0.986890 0.000000
0.226604 0.988998 0.000000
0.362662 0.991106 0.000000
0.498720 0.993214 0.000000
0.634777 0.995322 0.000000
0.770835 0.997429 0.000000
0.906893 0.999537 0.000000
0.000000 0.000000 0.032584
0.000000 0.000000 0.033849
0.056971 0.000000 0.035957
0.193029 0.000000 0.038065
0.329086 0.000000 0.040173
0.465144 0.000000 0.042280
0.601202 0.000000 0.044388
0.737260 0.000000 0.046496
0.873318 0.000000 0.048604
0.000000 0.000000 0.036898
0.000000 0.000000 0.038163
0.061285 0.000000 0.040271
0.197343 0.000000 0.042379
0.333401 0.000000 0.044487
0.469459 0.000000 0.046595
0.605517 0.000000 0.048703
0.741575 0.000000 0.050811
0.877633 0.000000 0.052919
0.000000 0.120671 0.041213
0.000000 0.121936 0.042478
0.065599 0.124044 0.044586
0.201657 0.126151 0.046693
0.337715 0.128259 0.048801
0.473773 0.130367 0.050909
0.609831 0.132475 0.053017
0.745889 0.134583 0.055125
0.881947 0.136691 0.057233
0.000000 0.264635 0.045527
0.000000 0.265900 0.046792
0.069914 0.268008 0.048900
0.205972 0.270116 0.051008
0.342030 0.272224 0.053116
0.478088 0.274332 0.055224
0.614146 0.276440 0.057332
0.750204 0.278548 0.059440
0.886262 0.280656 0.061548
0.000000 0.408600 0.049842
0.000000 0.409864 0.051106
0.074228 0.411972 0.053214
0.210286 0.414080 0.055322
0.346344 0.416188 0.057430
0.482402 0.418296 0.059538
0.618460 0.420404 0.061646
0.754518 0.422512 0.063754
0.890576 0.424620 0.065862
0.000000 0.552564 0.054156
0.000000 0.553829 0.055421
0.078543 0.555937 0.057529
0.214601 0.558045 0.059637
0.350659 0.560153 0.061745
0.486717 0.562261 0.063853
0.622775 0.564369 0.065961
0.758833 0.566477 0.068069
0.894891 0.568585 0.070177
0.000000 0.696529 0.058471
0.000000 0.697793 0.059735
0.082857 0.699901 0.061843
0.218915 0.702009 0.063951
0.354973 0.704117 0.066059
0.491031 0.706225 0.068167
0.627089 0.708333 0.070275
0.763147 0.710441 0.072383
0.899205 0.712549 0.074491
0.000000 0.840493 0.062785
0.000000 0.841758 0.064050
0.087172 0.843866 0.066158
0.223230 0.845974 0.068266
0.359288 0.848082 0.070374
0.495346 0.850190 0.072482
0.631404 0.852298 0.074590
0.767461 0.854406 0.076698
0.903519 0.856514 0.078805
0.000000 0.984457 0.067099
0.000000 0.985722 0.068364
0.091486 0.987830 0.070472
0.227544 0.989938 0.072580
0.363602 0.992046 0.074688
0.499660 0.994154 0.076796
0.635718 0.996262 0.078904
0.771776 0.998370 0.081012
0.907834 1.000000 0.083120
0.000000 0.000000 0.190274
0.000000 0.000000 0.191539
0.057911 0.000000 0.193647
0.193969 0.000000 0.195755
0.330027 0.000000 0.197863
0.466085 0.000000 0.199971
0.602143 0.000000 0.202079
0.738201 0.000000 0.204187
0.874259 0.000000 0.206295
0.000000 0.000000 0.194589
0.000000 0.000000 0.195854
0.062226 0.000000 0.197962
0.198283 0.000000 0.200070
0.334341 0.000000 0.202177
0.470399 0.000000 0.204285
0.606457 0.000000 0.206393
0.742515 0.000000 0.208501
0.878573 0.000000 0.210609
0.000000 0.121611 0.198903
0.000000 0.122876 0.200168
0.066540 0.124984 0.202276
0.202598 0.127092 0.204384
0.338656 0.129200 0.206492
0.474714 0.131308 0.208600
0.610772 0.133416 0.210708
0.746830 0.135524 0.212816
0.882888 0.137632 0.214924
0.000000 0.265576 0.203218
0.000000 0.266841 0.204483
0.070854 0.268948 0.206590
0.206912 0.271056 0.208698
0.342970 0.273164 0.210806
0.479028 0.275272 0.212914
0.615086 0.277380 0.215022
0.751144 0.279488 0.217130
0.887202 0.281596 0.219238
0.000000 0.409540 0.207532
0.000000 0.410805 0.208797
0.075169 0.412913 0.210905
0.211227 0.415021 0.213013
0.347285 0.417129 0.215121
0.483343 0.419237 0.217229
0.619401 0.421345 0.219337
0.755459 0.423453 0.221445
0.891517 0.425561 0.223553
0.000000 0.553505 0.211847
0.000000 0.554769 0.213111
0.079483 0.556877 0.215219
0.215541 0.558985 0.217327
0.351599 0.561093 0.219435
0.487657 0.563201 0.221543
0.623715 0.565309 0.223651
0.759773 0.567417 0.225759
0.895831 0.569525 0.227867
0.000000 0.697469 0.216161
0.000000 0.698734 0.217426
0.083798 0.700842 0.219534
0.219856 0.702950 0.221642
0.355914 0.705058 0.223750
0.491972 0.707166 0.225858
0.628030 0.709274 0.227966
0.764087 0.711382 0.230074
0.900146 0.713490 0.232182
0.000000 0.841434 0.220476
0.000000 0.842698 0.221740
0.088112 0.844806 0.223848
0.224170 0.846914 0.225956
0.360228 0.849022 0.228064
0.496286 0.851130 0.230172
0.632344 0.853238 0.232280
0.768402 0.855346 0.234388
0.904460 0.857454 0.236496
0.000000 0.985398 0.224790
0.000000 0.986663 0.226055
0.092427 0.988771 0.228163
0.228485 0.990879 0.230271
0.364543 0.992987 0.232379
0.500601 0.995095 0.234487
0.636658 0.997203 0.236594
0.772716 0.999310 0.238702
0.908774 1.000000 0.240810
0.000000 0.000000 0.347965
0.000000 0.000000 0.349230
0.058852 0.000000 0.351338
0.194910 0.000000 0.353446
0.330967 0.000000 0.355554
0.467025 0.000000 0.357661
0.603083 0.000000 0.359769
0.739141 0.000000 0.361877
0.875199 0.000000 0.363985
0.000000 0.000000 0.352279
0.000000 0.000000 0.353544
0.063166 0.000000 0.355652
0.199224 0.000000 0.357760
0.335282 0.000000 0.359868
0.471340 0.000000 0.361976
0.607398 0.000000 0.364084
0.743456 0.000000 0.366192
0.879514 0.000000 0.368300
0.000000 0.122552 0.356594
0.000000 0.123817 0.357859
0.067480 0.125925 0.359967
0.203538 0.128032 0.362074
0.339596 0.130140 0.364182
0.475654 0.132248 0.366290
0.611712 0.134356 0.368398
0.747770 0.136464 0.370506
0.883828 0.138572 0.372614
0.000000 0.266516 0.360908
0.000000 0.267781 0.362173
0.071795 0.269889 0.364281
0.207853 0.271997 0.366389
0.343911 0.274105 0.368497
0.479969 0.276213 0.370605
0.616027 0.278321 0.372713
0.752085 0.280429 0.374821
0.888143 0.282537 0.376929
0.000000 0.410481 0.365223
0.000000 0.411745 0.366487
0.076109 0.413853 0.368595
0.212167 0.415961 0.370703
0.348225 0.418069 0.372811
0.484283 0.420177 0.374919
0.620341 0.422285 0.377027
0.756399 0.424393 0.379135
0.892457 0.426501 0.381243
0.000000 0.554445 0.369537
0.000000 0.555710 0.370802
0.080424 0.557818 0.372910
0.216482 0.559926 0.375018
0.352540 0.562034 0.377126
0.488598 0.564142 0.379234
0.624656 0.566250 0.381342
0.760714 0.568358 0.383450
0.896772 0.570466 0.385558
0.000000 0.698410 0.373852
0.000000 0.699674 0.375116
0.084738 0.701782 0.377224
0.220796 0.703890 0.379332
0.356854 0.705998 0.381440
0.492912 0.708106 0.383548
0.628970 0.710214 0.385656
0.765028 0.712322 0.387764
0.901086 0.714430 0.389872
0.000000 0.842374 0.378166
0.000000 0.843639 0.379431
0.089053 0.845747 0.381539
0.225111 0.847855 0.383647
0.361169 0.849963 0.385755
0.497227 0.852071 0.387863
0.633285 0.854179 0.389971
0.769342 0.856287 0.392079
0.905400 0.858395 0.394186
0.000000 0.986338 0.382481
0.000000 0.987603 0.383745
0.093367 0.989711 0.385853
0.229425 0.991819 0.387961
0.365483 0.993927 0.390069
0.501541 0.996035 0.392177
0.637599 0.998143 0.394285
0.773657 1.000000 0.396393
0.909715 1.000000 0.398501
0.000000 0.000000 0.505655
0.000000 0.000000 0.506920
0.059792 0.000000 0.509028
0.195850 0.000000 0.511136
0.331908 0.000000 0.513244
0.467966 0.000000 0.515352
0.604024 0.000000 0.517460
0.740082 0.000000 0.519568
0.876140 0.000000 0.521676
0.000000 0.000000 0.509970
0.000000 0.000000 0.511235
0.064107 0.000000 0.513343
0.200164 0.000000 0.515451
0.336222 0.000000 0.517558
0.472280 0.000000 0.519666
0.608338 0.000000 0.521774
0.744396 0.000000 0.523882
0.880454 0.000000 0.525990
0.000000 0.123492 0.514284
0.000000 0.124757 0.515549
0.068421 0.126865 0.517657
0.204479 0.128973 0.519765
0.340537 0.131081 0.521873
0.476595 0.133189 0.523981
0.612653 0.135297 0.526089
0.748711 0.137405 0.528197
0.884769 0.139513 0.530305
0.000000 0.267457 0.518599
0.000000 0.268722 0.519864
0.072735 0.270829 0.521971
0.208793 0.272937 0.524079
0.344851 0.275045 0.526187
0.480909 0.277153 0.528295
0.616967 0.279261 0.530403
0.753025 0.281369 0.532511
0.889083 0.283477 0.534619
0.000000 0.411421 0.522913
0.000000 0.412686 0.524178
0.077050 0.414794 0.526286
0.213108 0.416902 0.528394
0.349166 0.419010 0.530502
0.485224 0.421118 0.532610
0.621282 0.423226 0.534718
0.757340 0.425334 0.536826
0.893398 0.427442 0.538934
0.000000 0.555386 0.527228
0.000000 0.556650 0.528492
0.081364 0.558758 0.530600
0.217422 0.560866 0.532708
0.353480 0.562974 0.534816
0.489538 0.565082 0.536924
0.625596 0.567190 0.539032
0.761654 0.569298 0.541140
0.897712 0.571406 0.543248
0.000000 0.699350 0.531542
0.000000 0.700615 0.532807
0.085679 0.702723 0.534915
0.221737 0.704831 0.537023
0.357795 0.706939 0.539131
0.493853 0.709047 0.541239
0.629911 0.711155 0.543347
0.765969 0.713263 0.545455
0.902027 0.715371 0.547563
0.000000 0.843315 0.535857
0.000000 0.844579 0.537121
0.089993 0.846687 0.539229
0.226051 0.848795 0.541337
0.362109 0.850903 0.543445
0.498167 0.853011 0.545553
0.634225 0.855119 0.547661
0.770283 0.857227 0.549769
0.906341 0.859335 0.551877
0.000000 0.987279 0.540171
0.000000 0.988544 0.541436
0.094308 0.990652 0.543544
0.230366 0.992760 0.545652
0.366424 0.994868 0.547760
0.502482 0.996976 0.549868
0.638539 0.999084 0.551976
0.774597 1.000000 0.554083
0.910655 1.000000 0.556191
0.000000 0.000000 0.663346
0.000000 0.000000 0.664611
0.060733 0.000000 0.666719
0.196791 0.000000 0.668827
0.332848 0.000000 0.670935
0.468906 0.000000 0.673043
0.604964 0.000000 0.675150
0.741022 0.000000 0.677258
0.877080 0.000000 0.679366
0.000000 0.000000 0.667660
0.000000 0.000000 0.668925
0.065047 0.000000 0.671033
0.201105 0.000000 0.673141
0.337163 0.000000 0.675249
0.473221 0.000000 0.677357
0.609279 0.000000 0.679465
0.745337 0.000000 0.681573
0.881395 0.000000 0.683681
0.000000 0.124433 0.671975
0.000000 0.125698 0.673240
0.069361 0.127806 0.675348
0.205419 0.129913 0.677456
0.341477 0.132021 0.679563
0.477535 0.134129 0.681671
0.613593 0.136237 0.683779
0.749651 0.138345 0.685887
0.885709 0.140453 0.687995
0.000000 0.268397 0.676289
0.000000 0.269662 0.677554
0.073676 0.271770 0.679662
0.209734 0.273878 0.681770
0.345792 0.275986 0.683878
0.481850 0.278094 0.685986
0.617908 0.280202 0.688094
0.753966 0.282310 0.690202
0.890024 0.284418 0.692310
0.000000 0.412362 0.680604
0.000000 0.413626 0.681869
0.077990 0.415734 0.683976
0.214048 0.417842 0.686084
0.350106 0.419950 0.688192
0.486164 0.422058 0.690300
0.622222 0.424166 0.692408
0.758280 0.426274 0.694516
0.894338 0.428382 0.696624
0.000000 0.556326 0.684918
0.000000 0.557591 0.686183
0.082305 0.559699 0.688291
0.218363 0.561807 0.690399
0.354421 0.563915 0.692507
0.490479 0.566023 0.694615
0.626537 0.568131 0.696723
0.762595 0.570239 0.698831
0.898653 0.572347 0.700939
0.000000 0.700291 0.689233
0.000000 0.701555 0.690497
0.086619 0.703663 0.692605
0.222677 0.705771 0.694713
0.358735 0.707879 0.696821
0.494793 0.709987 0.698929
0.630851 0.712095 0.701037
0.766909 0.714203 0.703145
0.902967 0.716311 0.705253
0.000000 0.844255 0.693547
0.000000 0.845520 0.694812
0.090934 0.847628 0.696920
0.226992 0.849736 0.699028
0.363050 0.851844 0.701136
0.499108 0.853952 0.703244
0.635166 0.856060 0.705352
0.771223 0.858168 0.707460
0.907281 0.860276 0.709568
0.000000 0.988219 0.697862
0.000000 0.989484 0.699126
0.095248 0.991592 0.701234
0.231306 0.993700 0.703342
0.367364 0.995808 0.705450
0.503422 0.997916 0.707558
0.639480 1.000000 0.709666
0.775538 1.000000 0.711774
0.911596 1.000000 0.713882
0.000000 0.000000 0.821036
0.000000 0.000000 0.822301
0.061673 0.000000 0.824409
0.197731 0.000000 0.826517
0.333789 0.000000 0.828625
0.469847 0.000000 0.830733
0.605905 0.000000 0.832841
0.741963 0.000000 0.834949
0.878021 0.000000 0.837057
0.000000 0.000000 0.825351
0.000000 0.000000 0.826616
0.065988 0.000000 0.828724
0.202046 0.000000 0.830832
0.338103 0.000000 0.832940
0.474161 0.000000 0.835047
0.610219 0.000000 0.837155
0.746277 0.000000 0.839263
0.882335 0.000000 0.841371
0.000000 0.125373 0.829665
0.000000 0.126638 0.830930
0.070302 0.128746 0.833038
0.206360 0.130854 0.835146
0.342418 0.132962 0.837254
0.478476 0.135070 0.839362
0.614534 0.137178 0.841470
0.750592 0.139286 0.843578
0.886650 0.141394 0.845686
0.000000 0.269338 0.833980
0.000000 0.270603 0.835245
0.074616 0.272711 0.837352
0.210674 0.274818 0.839460
0.346732 0.276926 0.841568
0.482790 0.279034 0.843676
0.618848 0.281142 0.845784
0.754906 0.283250 0.847892
0.890964 0.285358 0.850000
0.000000 0.413302 0.838294
0.000000 0.414567 0.839559
0.078931 0.416675 0.841667
0.214989 0.418783 0.843775
0.351047 0.420891 0.845883
0.487105 0.422999 0.847991
0.623163 0.425107 0.850099
0.759221 0.427215 0.852207
0.895279 0.429323 0.854315
0.000000 0.557267 0.842609
0.000000 0.558531 0.843873
0.083245 0.560639 0.845981
0.219303 0.562747 0.848089
0.355361 0.564855 0.850197
0.491419 0.566963 0.852305
0.627477 0.569071 0.854413
0.763535 0.571179 0.856521
0.899593 0.573287 0.858629
0.000000 0.701231 0.846923
0.000000 0.702496 0.848188
0.087560 0.704604 0.850296
0.223618 0.706712 0.852404
0.359676 0.708820 0.854512
0.495734 0.710928 0.856620
0.631792 0.713036 0.858728
0.767850 0.715144 0.860836
0.903908 0.717252 0.862944
0.000000 0.845196 0.851238
0.000000 0.846460 0.852502
0.091874 0.848568 0.854610
0.227932 0.850676 0.856718
0.363990 0.852784 0.858826
0.500048 0.854892 0.860934
0.636106 0.857000 0.863042
0.772164 0.859108 0.865150
0.908222 0.861216 0.867258
0.000000 0.989160 0.855552
0.000000 0.990425 0.856817
0.096189 0.992533 0.858925
0.232247 0.994641 0.861033
0.368305 0.996749 0.863141
0.504363 0.998857 0.865249
0.640420 1.000000 0.867357
0.776478 1.000000 0.869465
0.912536 1.000000 0.871572
0.000000 0.000000 0.978727
0.000000 0.000000 0.979992
0.062614 0.000000 0.982100
0.198672 0.000000 0.984208
0.334729 0.000000 0.986316
0.470787 0.000000 0.988423
0.606845 0.000000 0.990531
0.742903 0.000000 0.992639
0.878961 0.000000 0.994747
0.000000 0.000000 0.983041
0.000000 0.000000 0.984306
0.066928 0.000000 0.986414
0.202986 0.000000 0.988522
0.339044 0.000000 0.990630
0.475102 0.000000 0.992738
0.611160 0.000000 0.994846
0.747218 0.000000 0.996954
0.883276 0.000000 0.999062
0.000000 0.126314 0.987356
0.000000 0.127579 0.988621
0.071242 0.129687 0.990729
0.207300 0.131794 0.992836
0.343358 0.133902 0.994944
0.479416 0.136010 0.997052
0.615474 0.138118 0.999160
0.751532 0.140226 1.000000
0.887590 0.142334 1.000000
0.000000 0.270278 0.991670
0.000000 0.271543 0.992935
0.075557 0.273651 0.995043
0.211615 0.275759 0.997151
0.347673 0.277867 0.999259
0.483731 0.279975 1.000000
0.619789 0.282083 1.000000
0.755847 0.284191 1.000000
0.891905 0.286299 1.000000
0.000000 0.414243 0.995985
0.000000 0.415507 0.997249
0.079871 0.417615 0.999357
0.215929 0.419723 1.000000
0.351987 0.421831 1.000000
0.488045 0.423939 1.000000
0.624103 0.426047 1.000000
0.760161 0.428155 1.000000
0.896219 0.430263 1.000000
0.000000 0.558207 1.000000
0.000000 0.559472 1.000000
0.084186 0.561580 1.000000
0.220244 0.563688 1.000000
0.356302 0.565796 1.000000
0.492360 0.567904 1.000000
0.628418 0.570012 1.000000
0.764476 0.572120 1.000000
0.900534 0.574228 1.000000
0.000000 0.702172 1.000000
0.000000 0.703436 1.000000
0.088500 0.705544 1.000000
0.224558 0.707652 1.000000
0.360616 0.709760 1.000000
0.496674 0.711868 1.000000
0.632732 0.713976 1.000000
0.768790 0.716084 1.000000
0.904848 0.718192 1.000000
0.000000 0.846136 1.000000
0.000000 0.847401 1.000000
0.092815 0.849509 1.000000
0.228873 0.851617 1.000000
0.364931 0.853725 1.000000
0.500989 0.855833 1.000000
0.637047 0.857941 1.000000
0.773104 0.860049 1.000000
0.909162 0.862157 1.000000
0.000000 0.990101 1.000000
0.000000 0.991365 1.000000
0.097129 0.993473 1.000000
0.233187 0.995581 1.000000
0.369245 0.997689 1.000000
0.505303 0.999797 1.000000
0.641361 1.000000 1.000000
0.777419 1.000000 1.000000
0.913477 1.000000 1.000000
0.000000 0.000000 1.000000
0.000000 0.000000 1.000000
0.063554 0.000000 1.000000
0.199612 0.000000 1.000000
0.335670 0.000000 1.000000
0.471728 0.000000 1.000000
0.607786 0.000000 1.000000
0.743844 0.000000 1.000000
0.879902 0.000000 1.000000
0.000000 0.000000 1.000000
0.000000 0.000000 1.000000
0.067869 0.000000 1.000000
0.203926 0.000000 1.000000
0.339984 0.000000 1.000000
0.476042 0.000000 1.000000
0.612100 0.000000 1.000000
0.748158 0.000000 1.000000
0.884216 0.000000 1.000000
0.000000 0.127254 1.000000
0.000000 0.128519 1.000000
0.072183 0.130627 1.000000
0.208241 0.132735 1.000000
0.344299 0.134843 1.000000
0.480357 0.136951 1.000000
0.616415 0.139059 1.000000
0.752473 0.141167 1.000000
0.888531 0.143275 1.000000
0.000000 0.271219 1.000000
0.000000 0.272484 1.000000
0.076497 0.274592 1.000000
0.212555 0.276699 1.000000
0.348613 0.278807 1.000000
0.484671 0.280915 1.000000
0.620729 0.283023 1.000000
0.756787 0.285131 1.000000
0.892845 0.287239 1.000000
0.000000 0.415183 1.000000
0.000000 0.416448 1.000000
0.080812 0.418556 1.000000
0.216870 0.420664 1.000000
0.352928 0.422772 1.000000
0.488986 0.424880 1.000000
0.625044 0.426988 1.000000
0.761102 0.429096 1.000000
0.897160 0.431204 1.000000
0.000000 0.559148 1.000000
0.000000 0.560412 1.000000
0.085126 0.562520 1.000000
0.221184 0.564628 1.000000
0.357242 0.566736 1.000000
0.493300 0.568844 1.000000
0.629358 0.570952 1.000000
0.765416 0.573060 1.000000
0.901474 0.575168 1.000000
0.000000 0.703112 1.000000
0.000000 0.704377 1.000000
0.089441 0.706485 1.000000
0.225499 0.708593 1.000000
0.361557 0.710701 1.000000
0.497615 0.712809 1.000000
0.633673 0.714917 1.000000
0.769731 0.717025 1.000000
0.905788 0.719133 1.000000
0.000000 0.847077 1.000000
0.000000 0.848341 1.000000
0.093755 0.850449 1.000000
0.229813 0.852557 1.000000
0.365871 0.854665 1.000000
0.501929 0.856773 1.000000
0.637987 0.858881 1.000000
0.774045 0.860989 1.000000
0.910103 0.863097 1.000000
0.000000 0.991041 1.000000
0.000000 0.992306 1.000000
0.098070 0.994414 1.000000
0.234128 0.996522 1.000000
0.370186 0.998630 1.000000
0.506244 1.000000 1.000000
0.642301 1.000000 1.000000
0.778359 1.000000 1.000000
0.914417 1.000000 1.000000
