app/src/main/assets/luts/night_city.cube
# V-Cam procedural LUT — night_city
# Generated by LutBaker. Do not edit by hand.
TITLE "V-Cam night_city"
LUT_3D_SIZE 33
DOMAIN_MIN 0.0 0.0 0.0
DOMAIN_MAX 1.0 1.0 1.0
0.000000 0.000000 0.000000
0.000000 0.000000 0.000000
0.000000 0.000000 0.000000
0.000000 0.000000 0.000000
0.000000 0.000000 0.000000
0.000000 0.000000 0.000000
0.000000 0.000000 0.000000
0.001821 0.000000 0.000000
0.013378 0.000000 0.000000
0.039680 0.000000 0.000000
0.075751 0.000000 0.000000
0.113685 0.000000 0.000000
0.153579 0.000000 0.000000
0.195424 0.000000 0.000000
0.239152 0.000000 0.000000
0.284657 0.000000 0.000000
0.331795 0.000000 0.000000
0.380394 0.000000 0.000000
0.430250 0.000000 0.000000
0.481124 0.000000 0.000000
0.532746 0.000000 0.000000
0.584804 0.000000 0.000000
0.636947 0.000000 0.000000
0.688774 0.000000 0.000000
0.739822 0.000000 0.000000
0.789310 0.000000 0.000000
0.836639 0.000000 0.000000
0.880983 0.000000 0.000000
0.921340 0.000000 0.000000
0.956486 0.000000 0.000000
0.984913 0.000000 0.000000
1.000000 0.000000 0.000000
1.000000 0.000000 0.000000
0.000000 0.000000 0.000000
0.000000 0.000000 0.000000
0.000000 0.000000 0.000000
0.000000 0.000000 0.000000
0.000000 0.000000 0.000000
0.000000 0.000000 0.000000
0.000000 0.000000 0.000000
0.001821 0.000000 0.000000
0.013378 0.000000 0.000000
0.039680 0.000000 0.000000
0.075751 0.000000 0.000000
0.113685 0.000000 0.000000
0.153579 0.000000 0.000000
0.195424 0.000000 0.000000
0.239152 0.000000 0.000000
0.284657 0.000000 0.000000
0.331795 0.000000 0.000000
0.380394 0.000000 0.000000
0.430250 0.000000 0.000000
0.481124 0.000000 0.000000
0.532746 0.000000 0.000000
0.584804 0.000000 0.000000
0.636947 0.000000 0.000000
0.688774 0.000000 0.000000
0.739822 0.000000 0.000000
0.789310 0.000000 0.000000
0.836639 0.000000 0.000000
0.880983 0.000000 0.000000
0.921340 0.000000 0.000000
0.956486 0.000000 0.000000
0.984913 0.000000 0.000000
1.000000 0.000000 0.000000
1.000000 0.000000 0.000000
0.000000 0.000000 0.000000
0.000000 0.000000 0.000000
0.000000 0.000000 0.000000
0.000000 0.000000 0.000000
0.000000 0.000000 0.000000
0.000000 0.000000 0.000000
0.000000 0.000000 0.000000
0.001821 0.000000 0.000000
0.013378 0.000000 0.000000
0.039680 0.000000 0.000000
0.075751 0.000000 0.000000
0.113685 0.000000 0.000000
0.153579 0.000000 0.000000
0.195424 0.000000 0.000000
0.239152 0.000000 0.000000
0.284657 0.000000 0.000000
0.331795 0.000000 0.000000
0.380394 0.000000 0.000000
0.430250 0.000000 0.000000
0.481124 0.000000 0.000000
0.532746 0.000000 0.000000
0.584804 0.000000 0.000000
0.636947 0.000000 0.000000
0.688774 0.000000 0.000000
0.739822 0.000000 0.000000
0.789310 0.000000 0.000000
0.836639 0.000000 0.000000
0.880983 0.000000 0.000000
0.921340 0.000000 0.000000
0.956486 0.000000 0.000000
0.984913 0.000000 0.000000
1.000000 0.000000 0.000000
1.000000 0.000000 0.000000
0.000000 0.000000 0.000000
0.000000 0.000000 0.000000
0.000000 0.000000 0.000000
0.000000 0.000000 0.000000
0.000000 0.000000 0.000000
0.000000 0.000000 0.000000
0.000000 0.000000 0.000000
0.001821 0.000000 0.000000
0.013378 0.000000 0.000000
0.039680 0.000000 0.000000
0.075751 0.000000 0.000000
0.113685 0.000000 0.000000
0.153579 0.000000 0.000000
0.195424 0.000000 0.000000
0.239152 0.000000 0.000000
0.284657 0.000000 0.000000
0.331795 0.000000 0.000000
0.380394 0.000000 0.000000
0.430250 0.000000 0.000000
0.481124 0.000000 0.000000
0.532746 0.000000 0.000000
0.584804 0.000000 0.000000
0.636947 0.000000 0.000000
0.688774 0.000000 0.000000
0.739822 0.000000 0.000000
0.789310 0.000000 0.000000
0.836639 0.000000 0.000000
0.880983 0.000000 0.000000
0.921340 0.000000 0.000000
0.956486 0.000000 0.000000
0.984913 0.000000 0.000000
1.000000 0.000000 0.000000
1.000000 0.000000 0.000000
0.000000 0.000000 0.000000
0.000000 0.000000 0.000000
0.000000 0.000000 0.000000
0.000000 0.000000 0.000000
0.000000 0.000000 0.000000
0.000000 0.000000 0.000000
0.000000 0.000000 0.000000
0.001821 0.000000 0.000000
0.013378 0.000000 0.000000
0.039680 0.000000 0.000000
0.075751 0.000000 0.000000
0.113685 0.000000 0.000000
0.153579 0.000000 0.000000
0.195424 0.000000 0.000000
0.239152 0.000000 0.000000
0.284657 0.000000 0.000000
0.331795 0.000000 0.000000
0.380394 0.000000 0.000000
0.430250 0.000000 0.000000
0.481124 0.000000 0.000000
0.532746 0.000000 0.000000
0.584804 0.000000 0.000000
0.636947 0.000000 0.000000
0.688774 0.000000 0.000000
0.739822 0.000000 0.000000
0.789310 0.000000 0.000000
0.836639 0.000000 0.000000
0.880983 0.000000 0.000000
0.921340 0.000000 0.000000
0.956486 0.000000 0.000000
0.984913 0.000000 0.000000
1.000000 0.000000 0.000000
1.000000 0.000000 0.000000
0.000000 0.000000 0.000000
0.000000 0.000000 0.000000
0.000000 0.000000 0.000000
0.000000 0.000000 0.000000
0.000000 0.000000 0.000000
0.000000 0.000000 0.000000
0.000000 0.000000 0.000000
0.001821 0.000000 0.000000
0.013378 0.000000 0.000000
0.039680 0.000000 0.000000
0.075751 0.000000 0.000000
0.113685 0.000000 0.000000
0.153579 0.000000 0.000000
0.195424 0.000000 0.000000
0.239152 0.000000 0.000000
0.284657 0.000000 0.000000
0.331795 0.000000 0.000000
0.380394 0.000000 0.000000
0.430250 0.000000 0.000000
0.481124 0.000000 0.000000
0.532746 0.000000 0.000000
0.584804 0.000000 0.000000
0.636947 0.000000 0.000000
0.688774 0.000000 0.000000
0.739822 0.000000 0.000000
0.789310 0.000000 0.000000
0.836639 0.000000 0.000000
0.880983 0.000000 0.000000
0.921340 0.000000 0.000000
0.956486 0.000000 0.000000
0.984913 0.000000 0.000000
1.000000 0.000000 0.000000
1.000000 0.000000 0.000000
0.000000 0.000000 0.000000
0.000000 0.000000 0.000000
0.000000 0.000000 0.000000
0.000000 0.000000 0.000000
0.000000 0.000000 0.000000
0.000000 0.000000 0.000000
0.000000 0.000000 0.000000
0.001821 0.000000 0.000000
0.013378 0.000000 0.000000
0.039680 0.000000 0.000000
0.075751 0.000000 0.000000
0.113685 0.000000 0.000000
0.153579 0.000000 0.000000
0.195424 0.000000 0.000000
0.239152 0.000000 0.000000
0.284657 0.000000 0.000000
0.331795 0.000000 0.000000
0.380394 0.000000 0.000000
0.430250 0.000000 0.000000
0.481124 0.000000 0.000000
0.532746 0.000000 0.000000
0.584804 0.000000 0.000000
0.636947 0.000000 0.000000
0.688774 0.000000 0.000000
0.739822 0.000000 0.000000
0.789310 0.000000 0.000000
0.836639 0.000000 0.000000
0.880983 0.000000 0.000000
0.921340 0.000000 0.000000
0.956486 0.000000 0.000000
0.984913 0.000000 0.000000
1.000000 0.000000 0.000000
1.000000 0.000000 0.000000
0.000000 0.001904 0.000000
0.000000 0.001904 0.000000
0.000000 0.001904 0.000000
0.000000 0.001904 0.000000
0.000000 0.001904 0.000000
0.000000 0.001904 0.000000
0.000000 0.001904 0.000000
0.001821 0.001904 0.000000
0.013378 0.001903 0.000000
0.039680 0.001902 0.000000
0.075751 0.001894 0.000000
0.113684 0.001869 0.000000
0.153578 0.001809 0.000000
0.195423 0.001675 0.000000
0.239152 0.001411 0.000000
0.284656 0.000927 0.000000
0.331794 0.000094 0.000000
0.380393 0.000000 0.000000
0.430249 0.000000 0.000000
0.481123 0.000000 0.000000
0.532744 0.000000 0.000000
0.584803 0.000000 0.000000
0.636946 0.000000 0.000000
0.688772 0.000000 0.000000
0.739820 0.000000 0.000000
0.789308 0.000000 0.000000
0.836637 0.000000 0.000000
0.880981 0.000000 0.000000
0.921338 0.000000 0.000000
0.956484 0.000000 0.000000
0.984911 0.000000 0.000000
1.000000 0.000000 0.000000
1.000000 0.000000 0.000000
0.000000 0.013738 0.000000
0.000000 0.013738 0.000000
0.000000 0.013738 0.000000
0.000000 0.013738 0.000000
0.000000 0.013738 0.000000
0.000000 0.013738 0.000000
0.000000 0.013738 0.000000
0.001820 0.013737 0.000000
0.013378 0.013737 0.000000
0.039679 0.013736 0.000000
0.075749 0.013729 0.000000
0.113682 0.013707 0.000000
0.153576 0.013648 0.000000
0.195420 0.013518 0.000000
0.239148 0.013258 0.000000
0.284651 0.012780 0.000000
0.331789 0.011954 0.000000
0.380387 0.010605 0.000000
0.430242 0.008497 0.000000
0.481115 0.005330 0.000000
0.532736 0.000724 0.000000
0.584793 0.000000 0.000000
0.636935 0.000000 0.000000
0.688761 0.000000 0.000000
0.739808 0.000000 0.000000
0.789297 0.000000 0.000000
0.836625 0.000000 0.000000
0.880969 0.000000 0.000000
0.921325 0.000000 0.000000
0.956471 0.000000 0.000000
0.984897 0.000000 0.000000
1.000000 0.000000 0.000000
1.000000 0.000000 0.000000
0.000000 0.040561 0.000000
0.000000 0.040561 0.000000
0.000000 0.040561 0.000000
0.000000 0.040561 0.000000
0.000000 0.040561 0.000000
0.000000 0.040561 0.000000
0.000000 0.040561 0.000000
0.001816 0.040561 0.000000
0.013375 0.040560 0.000000
0.039676 0.040558 0.000000
0.075745 0.040554 0.000000
0.113677 0.040536 0.000000
0.153569 0.040483 0.000000
0.195412 0.040362 0.000000
0.239139 0.040112 0.000000
0.284641 0.039646 0.000000
0.331777 0.038837 0.000000
0.380373 0.037507 0.000000
0.430226 0.035424 0.000000
0.481098 0.032285 0.000000
0.532716 0.027714 0.000000
0.584772 0.021238 0.000000
0.636913 0.012283 0.000000
0.688736 0.000152 0.000000
0.739782 0.000000 0.000000
0.789272 0.000000 0.000000
0.836599 0.000000 0.000000
0.880941 0.000000 0.000000
0.921296 0.000000 0.000000
0.956441 0.000000 0.000000
0.984867 0.000000 0.000000
1.000000 0.000000 0.000000
1.000000 0.000000 0.000000
0.000000 0.076840 0.000000
0.000000 0.076840 0.000000
0.000000 0.076840 0.000000
0.000000 0.076840 0.000000
0.000000 0.076840 0.000000
0.000000 0.076840 0.000000
0.000000 0.076840 0.000000
0.001800 0.076840 0.000000
0.013360 0.076839 0.000000
0.039665 0.076837 0.000000
0.075738 0.076834 0.000000
0.113668 0.076826 0.000000
0.153558 0.076799 0.000000
0.195399 0.076730 0.000000
0.239123 0.076585 0.000000
0.284622 0.076307 0.000000
0.331755 0.075814 0.000000
0.380349 0.074992 0.000000
0.430199 0.073680 0.000000
0.481067 0.071660 0.000000
0.532683 0.068623 0.000000
0.584735 0.064124 0.000000
0.636872 0.057464 0.000000
0.688693 0.047432 0.000000
0.739736 0.031897 0.000000
0.789228 0.013183 0.000000
0.836552 0.000000 0.000000
0.880892 0.000000 0.000000
0.921245 0.000000 0.000000
0.956389 0.000000 0.000000
0.984813 0.000000 0.000000
1.000000 0.000000 0.000000
1.000000 0.000000 0.000000
0.000000 0.115002 0.000000
0.000000 0.115002 0.000000
0.000000 0.115002 0.000000
0.000000 0.115002 0.000000
0.000000 0.115002 0.000000
0.000000 0.115002 0.000000
0.000000 0.115002 0.000000
0.001751 0.115002 0.000000
0.013314 0.115001 0.000000
0.039625 0.114999 0.000000
0.075719 0.114994 0.000000
0.113654 0.114987 0.000000
0.153541 0.114974 0.000000
0.195378 0.114935 0.000000
0.239098 0.114845 0.000000
0.284593 0.114666 0.000000
0.331722 0.114342 0.000000
0.380311 0.113795 0.000000
0.430156 0.112918 0.000000
0.481020 0.111569 0.000000
0.532630 0.109559 0.000000
0.584677 0.106633 0.000000
0.636809 0.102438 0.000000
0.688625 0.096469 0.000000
0.739663 0.087961 0.000000
0.789159 0.076967 0.000000
0.836479 0.062238 0.000000
0.880816 0.041629 0.000000
0.921166 0.015287 0.000000
0.956307 0.000000 0.000000
0.984729 0.000000 0.000000
1.000000 0.000000 0.000000
1.000000 0.000000 0.000000
0.000000 0.155131 0.000000
0.000000 0.155131 0.000000
0.000000 0.155131 0.000000
0.000000 0.155131 0.000000
0.000000 0.155131 0.000000
0.000000 0.155131 0.000000
0.000000 0.155131 0.000000
0.001628 0.155131 0.000000
0.013195 0.155130 0.000000
0.039516 0.155127 0.000000
0.075660 0.155121 0.000000
0.113623 0.155112 0.000000
0.153516 0.155100 0.000000
0.195347 0.155080 0.000000
0.239062 0.155026 0.000000
0.284552 0.154910 0.000000
0.331674 0.154690 0.000000
0.380257 0.154310 0.000000
0.430095 0.153694 0.000000
0.480951 0.152739 0.000000
0.532554 0.151314 0.000000
0.584593 0.149246 0.000000
0.636718 0.146308 0.000000
0.688526 0.142198 0.000000
0.739558 0.136509 0.000000
0.789058 0.129458 0.000000
0.836374 0.120745 0.000000
0.880706 0.110095 0.000000
0.921051 0.097477 0.000000
0.956188 0.083168 0.000000
0.984607 0.068128 0.000000
1.000000 0.054751 0.000000
1.000000 0.047720 0.000000
0.000000 0.197212 0.000000
0.000000 0.197212 0.000000
0.000000 0.197212 0.000000
0.000000 0.197212 0.000000
0.000000 0.197212 0.000000
0.000000 0.197212 0.000000
0.000000 0.197212 0.000000
0.001361 0.197212 0.000000
0.012933 0.197210 0.000000
0.039266 0.197207 0.000000
0.075516 0.197200 0.000000
0.113538 0.197190 0.000000
0.153468 0.197174 0.000000
0.195307 0.197154 0.000000
0.239013 0.197125 0.000000
0.284495 0.197052 0.000000
0.331609 0.196905 0.000000
0.380183 0.196638 0.000000
0.430011 0.196196 0.000000
0.480857 0.195500 0.000000
0.532449 0.194452 0.000000
0.584478 0.192927 0.000000
0.636592 0.190759 0.000000
0.688390 0.187741 0.000000
0.739412 0.183604 0.000000
0.788920 0.178521 0.000000
0.836228 0.172434 0.000000
0.880553 0.165248 0.000000
0.920893 0.157142 0.000000
0.956025 0.148553 0.000000
0.984439 0.140306 0.000000
1.000000 0.133719 0.000000
1.000000 0.130562 0.000000
0.000000 0.241173 0.000000
0.000000 0.241173 0.000000
0.000000 0.241173 0.000000
0.000000 0.241173 0.000000
0.000000 0.241173 0.000000
0.000000 0.241173 0.000000
0.000000 0.241173 0.000000
0.000836 0.241172 0.000000
0.012415 0.241171 0.000000
0.038764 0.241166 0.000000
0.075215 0.241158 0.000000
0.113347 0.241146 0.000000
0.153348 0.241128 0.000000
0.195236 0.241104 0.000000
0.238951 0.241072 0.000000
0.284421 0.241032 0.000000
0.331524 0.240937 0.000000
0.380085 0.240753 0.000000
0.429901 0.240435 0.000000
0.480733 0.239923 0.000000
0.532311 0.239140 0.000000
0.584326 0.237988 0.000000
0.636425 0.236344 0.000000
0.688209 0.234048 0.000000
0.739217 0.230908 0.000000
0.788737 0.227028 0.000000
0.836035 0.222469 0.000000
0.880351 0.217161 0.000000
0.920683 0.211282 0.000000
0.955808 0.205191 0.000000
0.984217 0.199488 0.000000
1.000000 0.195043 0.000000
1.000000 0.192950 0.000000
0.000000 0.286897 0.000000
0.000000 0.286897 0.000000
0.000000 0.286897 0.000000
0.000000 0.286897 0.000000
0.000000 0.286897 0.000000
0.000000 0.286897 0.000000
0.000000 0.286897 0.000000
0.000000 0.286897 0.000000
0.011472 0.286895 0.000000
0.037842 0.286890 0.000000
0.074649 0.286881 0.000000
0.112978 0.286867 0.000000
0.153101 0.286846 0.000000
0.195074 0.286818 0.000000
0.238851 0.286782 0.000000
0.284330 0.286736 0.000000
0.331417 0.286680 0.000000
0.379963 0.286560 0.000000
0.429762 0.286336 0.000000
0.480577 0.285961 0.000000
0.532137 0.285374 0.000000
0.584132 0.284497 0.000000
0.636212 0.283231 0.000000
0.687976 0.281452 0.000000
0.738966 0.279010 0.000000
0.788501 0.275944 0.000000
0.835787 0.272398 0.000000
0.880092 0.268293 0.000000
0.920413 0.263783 0.000000
0.955529 0.259155 0.000000
0.983931 0.254867 0.000000
1.000000 0.251558 0.000000
1.000000 0.250010 0.000000
0.000000 0.334235 0.000000
0.000000 0.334235 0.000000
0.000000 0.334235 0.000000
0.000000 0.334235 0.000000
0.000000 0.334235 0.000000
0.000000 0.334235 0.000000
0.000000 0.334235 0.000000
0.000000 0.334235 0.000000
0.009867 0.334232 0.000000
0.036262 0.334226 0.000000
0.073660 0.334216 0.000000
0.112323 0.334200 0.000000
0.152650 0.334177 0.000000
0.194760 0.334146 0.000000
0.238638 0.334104 0.000000
0.284194 0.334052 0.000000
0.331289 0.333987 0.000000
0.379814 0.333915 0.000000
0.429592 0.333765 0.000000
0.480385 0.333498 0.000000
0.531921 0.333063 0.000000
0.583892 0.332396 0.000000
0.635947 0.331418 0.000000
0.687686 0.330028 0.000000
0.738651 0.328104 0.000000
0.788206 0.325628 0.000000
0.835476 0.322806 0.000000
0.879767 0.319543 0.000000
0.920075 0.315969 0.000000
0.955180 0.312318 0.000000
0.983573 0.308951 0.000000
1.000000 0.306366 0.000000
1.000000 0.305160 0.000000
0.000000 0.383003 0.000000
0.000000 0.383003 0.000000
0.000000 0.383003 0.000000
0.000000 0.383003 0.000000
0.000000 0.383003 0.000000
0.000000 0.383003 0.000000
0.000000 0.383003 0.000000
0.000000 0.383002 0.000000
0.007286 0.382999 0.000000
0.033712 0.382993 0.000000
0.072030 0.382981 0.000000
0.111237 0.382964 0.000000
0.151889 0.382938 0.000000
0.194216 0.382903 0.000000
0.238249 0.382856 0.000000
0.283922 0.382797 0.000000
0.331110 0.382725 0.000000
0.379641 0.382637 0.000000
0.429392 0.382545 0.000000
0.480157 0.382365 0.000000
0.531664 0.382051 0.000000
0.583604 0.381552 0.000000
0.635626 0.380802 0.000000
0.687332 0.379716 0.000000
0.738265 0.378195 0.000000
0.787845 0.376167 0.000000
0.835096 0.373889 0.000000
0.879369 0.371252 0.000000
0.919662 0.368363 0.000000
0.954753 0.365414 0.000000
0.983135 0.362701 0.000000
1.000000 0.360621 0.000000
1.000000 0.359653 0.000000
0.000000 0.432982 0.000000
0.000000 0.432982 0.000000
0.000000 0.432982 0.000000
0.000000 0.432982 0.000000
0.000000 0.432982 0.000000
0.000000 0.432982 0.000000
0.000000 0.432982 0.000000
0.000000 0.432982 0.000000
0.003338 0.432979 0.000000
0.029799 0.432971 0.000000
0.069457 0.432959 0.000000
0.109529 0.432939 0.000000
0.150683 0.432910 0.000000
0.193338 0.432871 0.000000
0.237603 0.432820 0.000000
0.283450 0.432755 0.000000
0.330773 0.432674 0.000000
0.379413 0.432577 0.000000
0.429165 0.432463 0.000000
0.479895 0.432350 0.000000
0.531365 0.432136 0.000000
0.583266 0.431775 0.000000
0.635248 0.431209 0.000000
0.686912 0.430370 0.000000
0.737802 0.429173 0.000000
0.787387 0.427521 0.000000
0.834641 0.425649 0.000000
0.878892 0.423495 0.000000
0.919166 0.421129 0.000000
0.954240 0.418713 0.000000
0.982609 0.416489 0.000000
1.000000 0.414785 0.000000
1.000000 0.413992 0.000000
0.000000 0.483922 0.000000
0.000000 0.483922 0.000000
0.000000 0.483922 0.000000
0.000000 0.483922 0.000000
0.000000 0.483922 0.000000
0.000000 0.483922 0.000000
0.000000 0.483922 0.000000
0.000000 0.483921 0.000000
0.000000 0.483918 0.000000
0.024050 0.483910 0.000000
0.065522 0.483896 0.000000
0.106949 0.483874 0.000000
0.148861 0.483843 0.000000
0.192000 0.483800 0.000000
0.236603 0.483744 0.000000
0.282698 0.483672 0.000000
0.330213 0.483583 0.000000
0.379005 0.483477 0.000000
0.428882 0.483351 0.000000
0.479607 0.483207 0.000000
0.531030 0.483072 0.000000
0.582884 0.482825 0.000000
0.634814 0.482414 0.000000
0.686425 0.481780 0.000000
0.737261 0.480851 0.000000
0.786792 0.479544 0.000000
0.834104 0.477966 0.000000
0.878331 0.476197 0.000000
0.918582 0.474245 0.000000
0.953637 0.472246 0.000000
0.981990 0.470403 0.000000
1.000000 0.468990 0.000000
1.000000 0.468332 0.000000
0.000000 0.535531 0.000000
0.000000 0.535531 0.000000
0.000000 0.535531 0.000000
0.000000 0.535531 0.000000
0.000000 0.535531 0.000000
0.000000 0.535531 0.000000
0.000000 0.535531 0.000000
0.000000 0.535530 0.000000
0.000000 0.535527 0.000000
0.015913 0.535518 0.000000
0.059607 0.535503 0.000000
0.103171 0.535479 0.000000
0.146207 0.535445 0.000000
0.190047 0.535399 0.000000
0.235127 0.535337 0.000000
0.281571 0.535259 0.000000
0.329351 0.535162 0.000000
0.378353 0.535045 0.000000
0.428400 0.534908 0.000000
0.479265 0.534751 0.000000
0.530673 0.534573 0.000000
0.582464 0.534416 0.000000
0.634333 0.534136 0.000000
0.685878 0.533677 0.000000
0.736645 0.532975 0.000000
0.786106 0.531959 0.000000
0.833484 0.530634 0.000000
0.877682 0.529178 0.000000
0.917906 0.527562 0.000000
0.952940 0.525899 0.000000
0.981275 0.524362 0.000000
1.000000 0.523181 0.000000
1.000000 0.522630 0.000000
0.000000 0.587478 0.000000
0.000000 0.587478 0.000000
0.000000 0.587478 0.000000
0.000000 0.587478 0.000000
0.000000 0.587478 0.000000
0.000000 0.587478 0.000000
0.000000 0.587478 0.000000
0.000000 0.587478 0.000000
0.000000 0.587473 0.000000
0.004752 0.587464 0.000000
0.050705 0.587448 0.000000
0.097746 0.587422 0.000000
0.142451 0.587386 0.000000
0.187288 0.587335 0.000000
0.233035 0.587268 0.000000
0.279957 0.587184 0.000000
0.328097 0.587079 0.000000
0.377380 0.586952 0.000000
0.427654 0.586803 0.000000
0.478706 0.586631 0.000000
0.530270 0.586438 0.000000
0.582031 0.586225 0.000000
0.633817 0.586048 0.000000
0.685281 0.585738 0.000000
0.735963 0.585232 0.000000
0.785336 0.584467 0.000000
0.832772 0.583378 0.000000
0.876943 0.582181 0.000000
0.917139 0.580842 0.000000
0.952146 0.579455 0.000000
0.980461 0.578168 0.000000
1.000000 0.577176 0.000000
1.000000 0.576713 0.000000
0.000000 0.639385 0.000000
0.000000 0.639385 0.000000
0.000000 0.639385 0.000000
0.000000 0.639385 0.000000
0.000000 0.639385 0.000000
0.000000 0.639385 0.000000
0.000000 0.639385 0.000000
0.000000 0.639385 0.000000
0.000000 0.639380 0.000000
0.000000 0.639370 0.000000
0.036866 0.639353 0.000000
0.090018 0.639325 0.000000
0.137233 0.639286 0.000000
0.183486 0.639231 0.000000
0.230153 0.639160 0.000000
0.277722 0.639068 0.000000
0.326344 0.638955 0.000000
0.376000 0.638818 0.000000
0.426571 0.638657 0.000000
0.477866 0.638471 0.000000
0.529633 0.638261 0.000000
0.581565 0.638029 0.000000
0.633300 0.637777 0.000000
0.684657 0.637585 0.000000
0.735234 0.637249 0.000000
0.784499 0.636704 0.000000
0.831824 0.635890 0.000000
0.876118 0.634872 0.000000
0.916280 0.633766 0.000000
0.951259 0.632610 0.000000
0.979552 0.631531 0.000000
0.999263 0.630696 0.000000
1.000000 0.630306 0.000000
0.000000 0.690822 0.000000
0.000000 0.690822 0.000000
0.000000 0.690822 0.000000
0.000000 0.690822 0.000000
0.000000 0.690822 0.000000
0.000000 0.690822 0.000000
0.000000 0.690822 0.000000
0.000000 0.690821 0.000000
0.000000 0.690816 0.000000
0.000000 0.690805 0.000000
0.017469 0.690787 0.000000
0.078907 0.690757 0.000000
0.130051 0.690715 0.000000
0.178334 0.690657 0.000000
0.226265 0.690580 0.000000
0.274704 0.690482 0.000000
0.323962 0.690360 0.000000
0.374106 0.690213 0.000000
0.425063 0.690040 0.000000
0.476672 0.689839 0.000000
0.528699 0.689612 0.000000
0.580851 0.689359 0.000000
0.632773 0.689085 0.000000
0.684049 0.688794 0.000000
0.734488 0.688592 0.000000
0.783620 0.688240 0.000000
0.830810 0.687668 0.000000
0.875211 0.686849 0.000000
0.915337 0.685940 0.000000
0.950285 0.684980 0.000000
0.978553 0.684076 0.000000
0.998246 0.683374 0.000000
1.000000 0.683045 0.000000
0.000000 0.741294 0.000000
0.000000 0.741294 0.000000
0.000000 0.741294 0.000000
0.000000 0.741294 0.000000
0.000000 0.741294 0.000000
0.000000 0.741294 0.000000
0.000000 0.741294 0.000000
0.000000 0.741294 0.000000
0.000000 0.741288 0.000000
0.000000 0.741277 0.000000
0.000000 0.741257 0.000000
0.062340 0.741226 0.000000
0.120158 0.741181 0.000000
0.171416 0.741119 0.000000
0.221096 0.741037 0.000000
0.270701 0.740932 0.000000
0.320797 0.740802 0.000000
0.371573 0.740644 0.000000
0.423027 0.740458 0.000000
0.475036 0.740242 0.000000
0.527394 0.739997 0.000000
0.579823 0.739724 0.000000
0.631982 0.739426 0.000000
0.683462 0.739107 0.000000
0.733783 0.738775 0.000000
0.782741 0.738571 0.000000
0.829768 0.738215 0.000000
0.874096 0.737639 0.000000
0.914321 0.736892 0.000000
0.949235 0.736099 0.000000
0.977475 0.735345 0.000000
0.997151 0.734754 0.000000
1.000000 0.734477 0.000000
0.000000 0.790236 0.000000
0.000000 0.790236 0.000000
0.000000 0.790236 0.000000
0.000000 0.790236 0.000000
0.000000 0.790236 0.000000
0.000000 0.790236 0.000000
0.000000 0.790236 0.000000
0.000000 0.790235 0.000000
0.000000 0.790229 0.000000
0.000000 0.790217 0.000000
0.000000 0.790196 0.000000
0.035019 0.790163 0.000000
0.106349 0.790115 0.000000
0.162165 0.790049 0.000000
0.214298 0.789962 0.000000
0.265470 0.789850 0.000000
0.316665 0.789712 0.000000
0.368258 0.789544 0.000000
0.420345 0.789344 0.000000
0.472861 0.789112 0.000000
0.525634 0.788848 0.000000
0.578411 0.788553 0.000000
0.630866 0.788230 0.000000
0.682600 0.787883 0.000000
0.733142 0.787519 0.000000
0.781950 0.787162 0.000000
0.828807 0.786974 0.000000
0.872944 0.786617 0.000000
0.913247 0.786062 0.000000
0.948126 0.785412 0.000000
0.976338 0.784785 0.000000
0.995993 0.784291 0.000000
1.000000 0.784057 0.000000
0.000000 0.836981 0.000000
0.000000 0.836981 0.000000
0.000000 0.836981 0.000000
0.000000 0.836981 0.000000
0.000000 0.836981 0.000000
0.000000 0.836981 0.000000
0.000000 0.836981 0.000000
0.000000 0.836980 0.000000
0.000000 0.836974 0.000000
0.000000 0.836962 0.000000
0.000000 0.836939 0.000000
0.000000 0.836904 0.000000
0.086437 0.836853 0.000000
0.149801 0.836783 0.000000
0.205451 0.836691 0.000000
0.258740 0.836572 0.000000
0.311371 0.836425 0.000000
0.364010 0.836246 0.000000
0.416897 0.836033 0.000000
0.470046 0.835785 0.000000
0.523335 0.835502 0.000000
0.576541 0.835184 0.000000
0.629359 0.834835 0.000000
0.681376 0.834495 0.000000
