app/src/main/assets/luts/night_low_light_warm.cube
# V-Cam procedural LUT — night_low_light_warm
# Generated by LutBaker. Do not edit by hand.
TITLE "V-Cam night_low_light_warm"
LUT_3D_SIZE 5
DOMAIN_MIN 0.0 0.0 0.0
DOMAIN_MAX 1.0 1.0 1.0
0.101748 0.079433 0.067935
0.202879 0.079399 0.067891
0.466160 0.078019 0.066289
0.813458 0.059656 0.044618
1.000000 0.015788 0.000000
0.101719 0.183956 0.067879
0.202857 0.183945 0.067831
0.466105 0.183426 0.065929
0.813369 0.176200 0.042760
1.000000 0.162481 0.000000
0.099937 0.452685 0.065252
0.202113 0.452658 0.065080
0.465759 0.452496 0.063778
0.812767 0.450696 0.029359
1.000000 0.446833 0.000000
0.076700 0.805010 0.028228
0.191984 0.804963 0.027503
0.463017 0.804672 0.023095
0.810825 0.803931 0.005970
1.000000 0.802998 0.000000
0.000000 1.000000 0.000000
0.163374 1.000000 0.000000
0.454749 1.000000 0.000000
0.808635 1.000000 0.000000
1.000000 1.000000 0.000000
0.101747 0.079425 0.174045
0.202874 0.079391 0.174041
0.466146 0.077974 0.173568
0.813435 0.059432 0.166163
1.000000 0.015314 0.151747
0.101719 0.183951 0.174028
0.202848 0.183943 0.174022
0.466047 0.183462 0.173482
0.813258 0.176356 0.165824
1.000000 0.162762 0.151148
0.099946 0.452670 0.173137
0.202185 0.452623 0.173162
0.465741 0.452482 0.172694
0.812675 0.450719 0.161809
1.000000 0.446891 0.143831
0.076608 0.804992 0.160911
0.192408 0.804888 0.161256
0.463115 0.804609 0.159940
0.810794 0.803902 0.154661
1.000000 0.802983 0.118945
0.000000 1.000000 0.124996
0.164502 1.000000 0.125896
0.455009 1.000000 0.121257
0.808653 1.000000 0.106499
1.000000 1.000000 0.091910
0.101433 0.078966 0.445352
0.202853 0.078797 0.445321
0.466071 0.077595 0.445169
0.813321 0.057464 0.444154
1.000000 0.011193 0.440919
0.101205 0.183834 0.445288
0.202748 0.183782 0.445206
0.465975 0.183325 0.445077
0.813135 0.175689 0.443991
1.000000 0.161572 0.440697
0.099633 0.452614 0.444966
0.202096 0.452565 0.444919
0.465667 0.452437 0.444805
0.811992 0.450999 0.443270
1.000000 0.447366 0.439496
0.073208 0.804990 0.441950
0.191380 0.804855 0.442049
0.463809 0.804214 0.442707
0.810610 0.803736 0.441542
1.000000 0.802909 0.434020
0.000000 1.000000 0.433675
0.163108 1.000000 0.433769
0.456795 1.000000 0.435063
0.808807 1.000000 0.432082
1.000000 1.000000 0.429366
0.096880 0.073032 0.802253
0.201073 0.072373 0.802193
0.466401 0.068213 0.801820
0.812677 0.054805 0.800909
1.000000 0.000000 0.801396
0.095991 0.181537 0.802135
0.200718 0.181353 0.801959
0.466211 0.179708 0.801601
0.812492 0.174852 0.800727
1.000000 0.157632 0.801197
0.089503 0.452433 0.801541
0.197871 0.452341 0.801348
0.465311 0.451974 0.800318
0.811457 0.450877 0.799712
1.000000 0.446383 0.800000
0.063553 0.804822 0.799922
0.187558 0.804724 0.799825
0.462924 0.804139 0.799254
0.810388 0.803555 0.798702
1.000000 0.803052 0.798160
0.000000 1.000000 0.798036
0.159232 1.000000 0.797971
0.455358 1.000000 0.797652
0.809486 1.000000 0.797702
1.000000 1.000000 0.797093
0.086799 0.059625 1.000000
0.196834 0.058232 1.000000
0.465911 0.048829 1.000000
0.814025 0.016041 1.000000
1.000000 0.000000 1.000000
0.085020 0.176447 1.000000
0.196200 0.176118 1.000000
0.465621 0.172917 1.000000
0.813780 0.163227 1.000000
1.000000 0.154417 1.000000
0.071687 0.451326 1.000000
0.190760 0.451185 1.000000
0.464062 0.450566 1.000000
0.812324 0.448166 1.000000
1.000000 0.446155 1.000000
0.014163 0.805118 1.000000
0.173124 0.805001 1.000000
0.458982 0.804349 1.000000
0.810264 0.803391 1.000000
1.000000 0.802941 1.000000
0.000000 1.000000 1.000000
0.155595 1.000000 1.000000
0.454456 1.000000 1.000000
0.809260 1.000000 1.000000
1.000000 1.000000 1.000000
