app/src/main/assets/luts/night_moody_blue.cube
# V-Cam procedural LUT — night_moody_blue
# Generated by LutBaker. Do not edit by hand.
TITLE "V-Cam night_moody_blue"
LUT_3D_SIZE 33
DOMAIN_MIN 0.0 0.0 0.0
DOMAIN_MAX 1.0 1.0 1.0
0.000000 0.000000 0.000000
0.000000 0.000000 0.000000
0.000000 0.000000 0.000000
0.000000 0.000000 0.000000
0.000000 0.000000 0.000000
0.000000 0.000000 0.000000
0.000000 0.000000 0.000000
0.022016 0.000000 0.000000
0.056030 0.000000 0.000000
0.090045 0.000000 0.000000
0.124059 0.000000 0.000000
0.158074 0.000000 0.000000
0.192088 0.000000 0.000000
0.226103 0.000000 0.000000
0.260117 0.000000 0.000000
0.294132 0.000000 0.000000
0.328146 0.000000 0.000000
0.362161 0.000000 0.000000
0.396175 0.000000 0.000000
0.430189 0.000000 0.000000
0.464204 0.000000 0.000000
0.498218 0.000000 0.000000
0.532233 0.000000 0.000000
0.566247 0.000000 0.000000
0.600262 0.000000 0.000000
0.634276 0.000000 0.000000
0.668291 0.000000 0.000000
0.702305 0.000000 0.000000
0.736320 0.000000 0.000000
0.770334 0.000000 0.000000
0.804349 0.000000 0.000000
0.838363 0.000000 0.000000
0.872378 0.000000 0.000000
0.000000 0.000000 0.000000
0.000000 0.000000 0.000000
0.000000 0.000000 0.000000
0.000000 0.000000 0.000000
0.000000 0.000000 0.000000
0.000000 0.000000 0.000000
0.000000 0.000000 0.000000
0.023094 0.000000 0.000000
0.057109 0.000000 0.000000
0.091123 0.000000 0.000000
0.125138 0.000000 0.000000
0.159152 0.000000 0.000000
0.193167 0.000000 0.000000
0.227181 0.000000 0.000000
0.261196 0.000000 0.000000
0.295210 0.000000 0.000000
0.329225 0.000000 0.000000
0.363239 0.000000 0.000000
0.397254 0.000000 0.000000
0.431268 0.000000 0.000000
0.465283 0.000000 0.000000
0.499297 0.000000 0.000000
0.533312 0.000000 0.000000
0.567326 0.000000 0.000000
0.601341 0.000000 0.000000
0.635355 0.000000 0.000000
0.669370 0.000000 0.000000
0.703384 0.000000 0.000000
0.737398 0.000000 0.000000
0.771413 0.000000 0.000000
0.805427 0.000000 0.000000
0.839442 0.000000 0.000000
0.873456 0.000000 0.000000
0.000000 0.000000 0.000000
0.000000 0.000000 0.000000
0.000000 0.000000 0.000000
0.000000 0.000000 0.000000
0.000000 0.000000 0.000000
0.000000 0.000000 0.000000
0.000000 0.000000 0.000000
0.024173 0.000000 0.000000
0.058187 0.000000 0.000000
0.092202 0.000000 0.000000
0.126216 0.000000 0.000000
0.160231 0.000000 0.000000
0.194245 0.000000 0.000000
0.228260 0.000000 0.000000
0.262274 0.000000 0.000000
0.296289 0.000000 0.000000
0.330303 0.000000 0.000000
0.364318 0.000000 0.000000
0.398332 0.000000 0.000000
0.432347 0.000000 0.000000
0.466361 0.000000 0.000000
0.500376 0.000000 0.000000
0.534390 0.000000 0.000000
0.568405 0.000000 0.000000
0.602419 0.000000 0.000000
0.636434 0.000000 0.000000
0.670448 0.000000 0.000000
0.704463 0.000000 0.000000
0.738477 0.000000 0.000000
0.772492 0.000000 0.000000
0.806506 0.000000 0.000000
0.840521 0.000000 0.000000
0.874535 0.000000 0.000000
0.000000 0.000000 0.000000
0.000000 0.000000 0.000000
0.000000 0.000000 0.000000
0.000000 0.000000 0.000000
0.000000 0.000000 0.000000
0.000000 0.000000 0.000000
0.000000 0.000000 0.000000
0.025251 0.000000 0.000000
0.059266 0.000000 0.000000
0.093280 0.000000 0.000000
0.127295 0.000000 0.000000
0.161309 0.000000 0.000000
0.195324 0.000000 0.000000
0.229338 0.000000 0.000000
0.263353 0.000000 0.000000
0.297367 0.000000 0.000000
0.331382 0.000000 0.000000
0.365396 0.000000 0.000000
0.399411 0.000000 0.000000
0.433425 0.000000 0.000000
0.467440 0.000000 0.000000
0.501454 0.000000 0.000000
0.535469 0.000000 0.000000
0.569483 0.000000 0.000000
0.603498 0.000000 0.000000
0.637512 0.000000 0.000000
0.671527 0.000000 0.000000
0.705541 0.000000 0.000000
0.739556 0.000000 0.000000
0.773570 0.000000 0.000000
0.807585 0.000000 0.000000
0.841599 0.000000 0.000000
0.875614 0.000000 0.000000
0.000000 0.000000 0.000000
0.000000 0.000000 0.000000
0.000000 0.000000 0.000000
0.000000 0.000000 0.000000
0.000000 0.000000 0.000000
0.000000 0.000000 0.000000
0.000000 0.000000 0.000000
0.026330 0.000000 0.000000
0.060345 0.000000 0.000000
0.094359 0.000000 0.000000
0.128374 0.000000 0.000000
0.162388 0.000000 0.000000
0.196402 0.000000 0.000000
0.230417 0.000000 0.000000
0.264431 0.000000 0.000000
0.298446 0.000000 0.000000
0.332460 0.000000 0.000000
0.366475 0.000000 0.000000
0.400489 0.000000 0.000000
0.434504 0.000000 0.000000
0.468518 0.000000 0.000000
0.502533 0.000000 0.000000
0.536547 0.000000 0.000000
0.570562 0.000000 0.000000
0.604576 0.000000 0.000000
0.638591 0.000000 0.000000
0.672605 0.000000 0.000000
0.706620 0.000000 0.000000
0.740634 0.000000 0.000000
0.774649 0.000000 0.000000
0.808663 0.000000 0.000000
0.842678 0.000000 0.000000
0.876692 0.000000 0.000000
0.000000 0.011757 0.000000
0.000000 0.011757 0.000000
0.000000 0.011968 0.000000
0.000000 0.012495 0.000000
0.000000 0.013022 0.000000
0.000000 0.013549 0.000000
0.000000 0.014076 0.000000
0.027409 0.014603 0.000000
0.061423 0.015130 0.000000
0.095438 0.015657 0.000000
0.129452 0.016184 0.000000
0.163467 0.016711 0.000000
0.197481 0.017238 0.000000
0.231496 0.017765 0.000000
0.265510 0.018292 0.000000
0.299525 0.018819 0.000000
0.333539 0.019346 0.000000
0.367554 0.019873 0.000000
0.401568 0.020400 0.000000
0.435583 0.020927 0.000000
0.469597 0.021454 0.000000
0.503611 0.021981 0.000000
0.537626 0.022507 0.000000
0.571640 0.023034 0.000000
0.605655 0.023561 0.000000
0.639669 0.024088 0.000000
0.673684 0.024615 0.000000
0.707698 0.025142 0.000000
0.741713 0.025669 0.000000
0.775727 0.026196 0.000000
0.809742 0.026723 0.000000
0.843756 0.027250 0.000000
0.877771 0.027777 0.000000
0.000000 0.047748 0.000000
0.000000 0.047748 0.000000
0.000000 0.047959 0.000000
0.000000 0.048486 0.000000
0.000000 0.049013 0.000000
0.000000 0.049540 0.000000
0.000000 0.050067 0.000000
0.028487 0.050594 0.000000
0.062502 0.051121 0.000000
0.096516 0.051648 0.000000
0.130531 0.052175 0.000000
0.164545 0.052702 0.000000
0.198560 0.053229 0.000000
0.232574 0.053756 0.000000
0.266589 0.054283 0.000000
0.300603 0.054810 0.000000
0.334618 0.055337 0.000000
0.368632 0.055864 0.000000
0.402647 0.056391 0.000000
0.436661 0.056918 0.000000
0.470676 0.057445 0.000000
0.504690 0.057972 0.000000
0.538705 0.058499 0.000000
0.572719 0.059026 0.000000
0.606734 0.059553 0.000000
0.640748 0.060080 0.000000
0.674763 0.060607 0.000000
0.708777 0.061134 0.000000
0.742792 0.061661 0.000000
0.776806 0.062188 0.000000
0.810821 0.062715 0.000000
0.844835 0.063241 0.000000
0.878849 0.063768 0.000000
0.000000 0.083739 0.000000
0.000000 0.083739 0.000000
0.000000 0.083950 0.000000
0.000000 0.084477 0.000000
0.000000 0.085004 0.000000
0.000000 0.085531 0.000000
0.000000 0.086058 0.000000
0.029566 0.086585 0.000000
0.063580 0.087112 0.000000
0.097595 0.087639 0.000000
0.131609 0.088166 0.000000
0.165624 0.088693 0.000000
0.199638 0.089220 0.000000
0.233653 0.089747 0.000000
0.267667 0.090274 0.000000
0.301682 0.090801 0.000000
0.335696 0.091328 0.000000
0.369711 0.091855 0.000000
0.403725 0.092382 0.000000
0.437740 0.092909 0.000000
0.471754 0.093436 0.000000
0.505769 0.093963 0.000000
0.539783 0.094490 0.000000
0.573798 0.095017 0.000000
0.607812 0.095544 0.000000
0.641827 0.096071 0.000000
0.675841 0.096598 0.000000
0.709856 0.097125 0.000000
0.743870 0.097652 0.000000
0.777885 0.098179 0.000000
0.811899 0.098706 0.000000
0.845914 0.099233 0.000000
0.879928 0.099760 0.000000
0.000000 0.119730 0.000000
0.000000 0.119730 0.000000
0.000000 0.119941 0.000000
0.000000 0.120468 0.000000
0.000000 0.120995 0.000000
0.000000 0.121522 0.000000
0.000000 0.122049 0.000000
0.030645 0.122576 0.000000
0.064659 0.123103 0.000000
0.098673 0.123630 0.000000
0.132688 0.124157 0.000000
0.166702 0.124684 0.000000
0.200717 0.125211 0.000000
0.234731 0.125738 0.000000
0.268746 0.126265 0.000000
0.302760 0.126792 0.000000
0.336775 0.127319 0.000000
0.370789 0.127846 0.000000
0.404804 0.128373 0.000000
0.438818 0.128900 0.000000
0.472833 0.129427 0.000000
0.506847 0.129954 0.000000
0.540862 0.130481 0.000000
0.574876 0.131008 0.000000
0.608891 0.131535 0.000000
0.642905 0.132062 0.000000
0.676920 0.132589 0.000000
0.710934 0.133116 0.000000
0.744949 0.133643 0.000000
0.778963 0.134170 0.000000
0.812978 0.134697 0.000000
0.846992 0.135224 0.000000
0.881007 0.135751 0.000000
0.000000 0.155721 0.000000
0.000000 0.155721 0.000000
0.000000 0.155932 0.000000
0.000000 0.156459 0.000000
0.000000 0.156986 0.000000
0.000000 0.157513 0.000000
0.000000 0.158040 0.000000
0.031723 0.158567 0.000000
0.065738 0.159094 0.000000
0.099752 0.159621 0.000000
0.133767 0.160148 0.000000
0.167781 0.160675 0.000000
0.201796 0.161202 0.000000
0.235810 0.161729 0.000000
0.269825 0.162256 0.000000
0.303839 0.162783 0.000000
0.337853 0.163310 0.000000
0.371868 0.163837 0.000000
0.405882 0.164364 0.000000
0.439897 0.164891 0.000000
0.473911 0.165418 0.000000
0.507926 0.165945 0.000000
0.541940 0.166472 0.000000
0.575955 0.166999 0.000000
0.609969 0.167526 0.000000
0.643984 0.168053 0.000000
0.677998 0.168580 0.000000
0.712013 0.169107 0.000000
0.746027 0.169634 0.000000
0.780042 0.170161 0.000000
0.814056 0.170688 0.000000
0.848071 0.171215 0.000000
0.882085 0.171742 0.000000
0.000000 0.191713 0.000000
0.000000 0.191713 0.000000
0.000000 0.191923 0.000000
0.000000 0.192450 0.000000
0.000000 0.192977 0.000000
0.000000 0.193504 0.000000
0.000000 0.194031 0.000000
0.032802 0.194558 0.000000
0.066816 0.195085 0.000000
0.100831 0.195612 0.000000
0.134845 0.196139 0.000000
0.168860 0.196666 0.000000
0.202874 0.197193 0.000000
0.236889 0.197720 0.000000
0.270903 0.198247 0.000000
0.304918 0.198774 0.000000
0.338932 0.199301 0.000000
0.372947 0.199828 0.000000
0.406961 0.200355 0.000000
0.440976 0.200882 0.000000
0.474990 0.201409 0.000000
0.509005 0.201936 0.000000
0.543019 0.202463 0.000000
0.577034 0.202990 0.000000
0.611048 0.203517 0.000000
0.645063 0.204044 0.000000
0.679077 0.204571 0.000000
0.713091 0.205098 0.000000
0.747106 0.205625 0.000000
0.781120 0.206152 0.000000
0.815135 0.206679 0.000000
0.849149 0.207206 0.000000
0.883164 0.207733 0.000000
0.000000 0.227704 0.000000
0.000000 0.227704 0.000000
0.000000 0.227914 0.000000
0.000000 0.228441 0.000000
0.000000 0.228968 0.000000
0.000000 0.229495 0.000000
0.000000 0.230022 0.000000
0.033880 0.230549 0.000000
0.067895 0.231076 0.000000
0.101909 0.231603 0.000000
0.135924 0.232130 0.000000
0.169938 0.232657 0.000000
0.203953 0.233184 0.000000
0.237967 0.233711 0.000000
0.271982 0.234238 0.000000
0.305996 0.234765 0.000000
0.340011 0.235292 0.000000
0.374025 0.235819 0.000000
0.408040 0.236346 0.000000
0.442054 0.236873 0.000000
0.476069 0.237400 0.000000
0.510083 0.237927 0.000000
0.544098 0.238454 0.000000
0.578112 0.238981 0.000000
0.612127 0.239508 0.000000
0.646141 0.240035 0.000000
0.680156 0.240562 0.000000
0.714170 0.241089 0.000000
0.748185 0.241616 0.000000
0.782199 0.242143 0.000000
0.816214 0.242670 0.000000
0.850228 0.243197 0.000000
0.884243 0.243724 0.000000
0.000000 0.263695 0.000000
0.000000 0.263695 0.000000
0.000000 0.263906 0.000000
0.000000 0.264433 0.000000
0.000000 0.264960 0.000000
0.000000 0.265487 0.000000
0.000944 0.266014 0.000000
0.034959 0.266540 0.000000
0.068973 0.267067 0.000000
0.102988 0.267594 0.000000
0.137002 0.268121 0.000000
0.171017 0.268648 0.000000
0.205031 0.269175 0.000000
0.239046 0.269702 0.000000
0.273060 0.270229 0.000000
0.307075 0.270756 0.000000
0.341089 0.271283 0.000000
0.375104 0.271810 0.000000
0.409118 0.272337 0.000000
0.443133 0.272864 0.000000
0.477147 0.273391 0.000000
0.511162 0.273918 0.000000
0.545176 0.274445 0.000000
0.579191 0.274972 0.000000
0.613205 0.275499 0.000000
0.647220 0.276026 0.000000
0.681234 0.276553 0.000000
0.715249 0.277080 0.000000
0.749263 0.277607 0.000000
0.783278 0.278134 0.000000
0.817292 0.278661 0.000000
0.851307 0.279188 0.000000
0.885321 0.279715 0.000000
0.000000 0.299686 0.000000
0.000000 0.299686 0.000000
0.000000 0.299897 0.000000
0.000000 0.300424 0.000000
0.000000 0.300951 0.000000
0.000000 0.301478 0.000000
0.002023 0.302005 0.000000
0.036038 0.302532 0.000000
0.070052 0.303059 0.000000
0.104067 0.303586 0.000000
0.138081 0.304113 0.000000
0.172096 0.304640 0.000000
0.206110 0.305167 0.000000
0.240124 0.305694 0.000000
0.274139 0.306221 0.000000
0.308153 0.306747 0.000000
0.342168 0.307274 0.000000
0.376182 0.307801 0.000000
0.410197 0.308328 0.000000
0.444211 0.308855 0.000000
0.478226 0.309382 0.000000
0.512240 0.309909 0.000000
0.546255 0.310436 0.000000
0.580269 0.310963 0.000000
0.614284 0.311490 0.000000
0.648298 0.312017 0.000000
0.682313 0.312544 0.000000
0.716327 0.313071 0.000000
0.750342 0.313598 0.000000
0.784356 0.314125 0.000000
0.818371 0.314652 0.000000
0.852385 0.315179 0.000000
0.886400 0.315706 0.000000
0.000000 0.335677 0.000000
0.000000 0.335677 0.000000
0.000000 0.335888 0.000000
0.000000 0.336415 0.000000
0.000000 0.336942 0.000000
0.000000 0.337469 0.000000
0.003102 0.337996 0.000000
0.037116 0.338523 0.000000
0.071131 0.339050 0.000000
0.105145 0.339577 0.000000
0.139160 0.340104 0.000000
0.173174 0.340631 0.000000
0.207189 0.341158 0.000000
0.241203 0.341685 0.000000
0.275218 0.342212 0.000000
0.309232 0.342739 0.000000
0.343247 0.343266 0.000000
0.377261 0.343793 0.000000
0.411276 0.344320 0.000000
0.445290 0.344847 0.000000
0.479305 0.345374 0.000000
0.513319 0.345901 0.000000
0.547334 0.346428 0.000000
0.581348 0.346955 0.000000
0.615362 0.347481 0.000000
0.649377 0.348008 0.000000
0.683391 0.348535 0.000000
0.717406 0.349062 0.000000
0.751420 0.349589 0.000000
0.785435 0.350116 0.000000
0.819449 0.350643 0.000000
0.853464 0.351170 0.000000
0.887478 0.351697 0.000000
0.000000 0.371668 0.000000
0.000000 0.371668 0.000000
0.000000 0.371879 0.000000
0.000000 0.372406 0.000000
0.000000 0.372933 0.000000
0.000000 0.373460 0.000000
0.004180 0.373987 0.000000
0.038195 0.374514 0.000000
0.072209 0.375041 0.000000
0.106224 0.375568 0.000000
0.140238 0.376095 0.000000
0.174253 0.376622 0.000000
0.208267 0.377149 0.000000
0.242282 0.377676 0.000000
0.276296 0.378203 0.000000
0.310311 0.378730 0.000000
0.344325 0.379257 0.000000
0.378340 0.379784 0.000000
0.412354 0.380311 0.000000
0.446369 0.380838 0.000000
0.480383 0.381365 0.000000
0.514398 0.381892 0.000000
0.548412 0.382419 0.000000
0.582427 0.382946 0.000000
0.616441 0.383473 0.000000
0.650456 0.384000 0.000000
0.684470 0.384527 0.000000
0.718485 0.385054 0.000000
0.752499 0.385581 0.000000
0.786514 0.386108 0.000000
0.820528 0.386635 0.000000
0.854543 0.387162 0.000000
0.888557 0.387689 0.000000
0.000000 0.407659 0.000000
0.000000 0.407659 0.000000
0.000000 0.407870 0.000000
0.000000 0.408397 0.000000
0.000000 0.408924 0.000000
0.000000 0.409451 0.000000
0.005259 0.409978 0.000000
0.039273 0.410505 0.000000
0.073288 0.411032 0.000000
0.107302 0.411559 0.000000
0.141317 0.412086 0.000000
0.175331 0.412613 0.000000
0.209346 0.413140 0.000000
0.243360 0.413667 0.000000
0.277375 0.414194 0.000000
0.311389 0.414721 0.000000
0.345404 0.415248 0.000000
0.379418 0.415775 0.000000
0.413433 0.416302 0.000000
0.447447 0.416829 0.000000
0.481462 0.417356 0.000000
0.515476 0.417883 0.000000
0.549491 0.418410 0.000000
0.583505 0.418937 0.000000
0.617520 0.419464 0.000000
0.651534 0.419991 0.000000
0.685549 0.420518 0.000000
0.719563 0.421045 0.000000
0.753578 0.421572 0.000000
0.787592 0.422099 0.000000
0.821607 0.422626 0.000000
0.855621 0.423153 0.000000
0.889636 0.423680 0.000000
0.000000 0.443650 0.000000
0.000000 0.443650 0.000000
0.000000 0.443861 0.000000
0.000000 0.444388 0.000000
0.000000 0.444915 0.000000
0.000000 0.445442 0.000000
0.006338 0.445969 0.000000
0.040352 0.446496 0.000000
0.074367 0.447023 0.000000
0.108381 0.447550 0.000000
0.142395 0.448077 0.000000
0.176410 0.448604 0.000000
0.210424 0.449131 0.000000
0.244439 0.449658 0.000000
0.278453 0.450185 0.000000
0.312468 0.450712 0.000000
0.346482 0.451239 0.000000
0.380497 0.451766 0.000000
0.414511 0.452293 0.000000
0.448526 0.452820 0.000000
0.482540 0.453347 0.000000
0.516555 0.453874 0.000000
0.550569 0.454401 0.000000
0.584584 0.454928 0.000000
0.618598 0.455455 0.000000
0.652613 0.455982 0.000000
0.686627 0.456509 0.000000
0.720642 0.457036 0.000000
0.754656 0.457563 0.000000
0.788671 0.458090 0.000000
0.822685 0.458617 0.000000
0.856700 0.459144 0.000000
0.890714 0.459671 0.000000
0.000000 0.479641 0.000000
0.000000 0.479641 0.000000
0.000000 0.479852 0.000000
0.000000 0.480379 0.000000
0.000000 0.480906 0.000000
0.000000 0.481433 0.000000
0.007416 0.481960 0.000000
0.041431 0.482487 0.000000
0.075445 0.483014 0.000000
0.109460 0.483541 0.000000
0.143474 0.484068 0.000000
0.177489 0.484595 0.000000
0.211503 0.485122 0.000000
0.245518 0.485649 0.000000
0.279532 0.486176 0.000000
0.313547 0.486703 0.000000
0.347561 0.487230 0.000000
0.381576 0.487757 0.000000
0.415590 0.488284 0.000000
0.449605 0.488811 0.000000
0.483619 0.489338 0.000000
0.517633 0.489865 0.000000
0.551648 0.490392 0.000000
0.585662 0.490919 0.000000
0.619677 0.491446 0.000000
0.653691 0.491973 0.000000
0.687706 0.492500 0.000000
0.721720 0.493027 0.000000
0.755735 0.493554 0.000000
0.789749 0.494081 0.000000
0.823764 0.494608 0.000000
0.857778 0.495135 0.000000
0.891793 0.495662 0.000000
0.000000 0.515633 0.000000
0.000000 0.515633 0.000000
0.000000 0.515843 0.000000
0.000000 0.516370 0.000000
0.000000 0.516897 0.000000
0.000000 0.517424 0.000000
0.008495 0.517951 0.000000
0.042509 0.518478 0.000000
0.076524 0.519005 0.000000
0.110538 0.519532 0.000000
0.144553 0.520059 0.000000
0.178567 0.520586 0.000000
0.212582 0.521113 0.000000
0.246596 0.521640 0.000000
0.280611 0.522167 0.000000
0.314625 0.522694 0.000000
0.348640 0.523221 0.000000
0.382654 0.523748 0.000000
0.416669 0.524275 0.000000
0.450683 0.524802 0.000000
0.484698 0.525329 0.000000
0.518712 0.525856 0.000000
0.552727 0.526383 0.000000
0.586741 0.526910 0.000000
0.620756 0.527437 0.000000
0.654770 0.527964 0.000000
0.688785 0.528491 0.000000
0.722799 0.529018 0.000000
0.756813 0.529545 0.000000
0.790828 0.530072 0.000000
0.824843 0.530599 0.000000
0.858857 0.531126 0.000000
0.892871 0.531653 0.000000
0.000000 0.551624 0.000000
0.000000 0.551624 0.000000
0.000000 0.551834 0.000000
0.000000 0.552361 0.000000
0.000000 0.552889 0.000000
0.000000 0.553415 0.000000
0.009573 0.553942 0.000000
0.043588 0.554469 0.000000
0.077602 0.554996 0.000000
0.111617 0.555523 0.000000
0.145631 0.556050 0.000000
0.179646 0.556577 0.000000
0.213660 0.557104 0.000000
0.247675 0.557631 0.000000
0.281689 0.558158 0.000000
0.315704 0.558685 0.000000
0.349718 0.559212 0.000000
0.383733 0.559739 0.000000
0.417747 0.560266 0.000000
0.451762 0.560793 0.000000
0.485776 0.561320 0.000000
0.519791 0.561847 0.000000
0.553805 0.562374 0.000000
0.587820 0.562901 0.000000
0.621834 0.563428 0.000000
0.655849 0.563955 0.000000
0.689863 0.564482 0.000000
0.723878 0.565009 0.000000
0.757892 0.565536 0.000000
0.791907 0.566063 0.000000
0.825921 0.566590 0.000000
0.859936 0.567117 0.000000
0.893950 0.567644 0.000000
0.000000 0.587615 0.000000
0.000000 0.587615 0.000000
0.000000 0.587826 0.000000
0.000000 0.588353 0.000000
0.000000 0.588880 0.000000
0.000000 0.589406 0.000000
0.010652 0.589934 0.000000
0.044666 0.590461 0.000000
0.078681 0.590988 0.000000
0.112695 0.591514 0.000000
0.146710 0.592041 0.000000
0.180724 0.592568 0.000000
0.214739 0.593095 0.000000
0.248753 0.593622 0.000000
0.282768 0.594149 0.000000
0.316782 0.594676 0.000000
0.350797 0.595203 0.000000
0.384811 0.595730 0.000000
0.418826 0.596257 0.000000
0.452840 0.596784 0.000000
0.486855 0.597311 0.000000
0.520869 0.597838 0.000000
0.554884 0.598365 0.000000
0.588898 0.598892 0.000000
0.622913 0.599419 0.000000
0.656927 0.599946 0.000000
0.690942 0.600473 0.000000
0.724956 0.601000 0.000000
0.758971 0.601527 0.000000
0.792985 0.602054 0.000000
0.827000 0.602581 0.000000
0.861014 0.603108 0.000000
0.895029 0.603635 0.000000
0.000000 0.623606 0.000000
0.000000 0.623606 0.000000
0.000000 0.623817 0.000000
0.000000 0.624344 0.000000
0.000000 0.624871 0.000000
0.000000 0.625398 0.000000
0.011731 0.625925 0.000000
0.045745 0.626452 0.000000
0.079760 0.626979 0.000000
0.113774 0.627506 0.000000
0.147789 0.628033 0.000000
0.181803 0.628560 0.000000
0.215818 0.629087 0.000000
0.249832 0.629614 0.000000
0.283846 0.630141 0.000000
0.317861 0.630668 0.000000
0.351875 0.631195 0.000000
0.385890 0.631721 0.000000
0.419904 0.632249 0.000000
0.453919 0.632775 0.000000
0.487933 0.633302 0.000000
0.521948 0.633829 0.000000
0.555962 0.634356 0.000000
0.589977 0.634883 0.000000
0.623991 0.635410 0.000000
0.658006 0.635937 0.000000
0.692020 0.636464 0.000000
0.726035 0.636991 0.000000
0.760049 0.637518 0.000000
0.794064 0.638045 0.000000
0.828078 0.638572 0.000000
0.862093 0.639099 0.000000
0.896107 0.639626 0.000000
0.000000 0.659597 0.000000
0.000000 0.659597 0.000000
0.000000 0.659808 0.000000
0.000000 0.660335 0.000000
0.000000 0.660862 0.000000
0.000000 0.661389 0.000000
0.012809 0.661916 0.000000
0.046824 0.662443 0.000000
0.080838 0.662970 0.000000
0.114853 0.663497 0.000000
0.148867 0.664024 0.000000
0.182882 0.664551 0.000000
0.216896 0.665078 0.000000
0.250911 0.665605 0.000000
0.284925 0.666132 0.000000
0.318940 0.666659 0.000000
0.352954 0.667186 0.000000
0.386969 0.667713 0.000000
0.420983 0.668240 0.000000
0.454998 0.668767 0.000000
0.489012 0.669294 0.000000
0.523027 0.669821 0.000000
0.557041 0.670348 0.000000
0.591056 0.670875 0.000000
0.625070 0.671402 0.000000
0.659084 0.671929 0.000000
0.693099 0.672456 0.000000
0.727113 0.672983 0.000000
0.761128 0.673509 0.000000
0.795142 0.674037 0.000000
0.829157 0.674563 0.000000
0.863171 0.675090 0.000000
0.897186 0.675617 0.000000
0.000000 0.695588 0.000000
0.000000 0.695588 0.000000
0.000000 0.695799 0.000000
0.000000 0.696326 0.000000
0.000000 0.696853 0.000000
0.000000 0.697380 0.000000
0.013888 0.697907 0.000000
0.047902 0.698434 0.000000
0.081917 0.698961 0.000000
0.115931 0.699488 0.000000
0.149946 0.700015 0.000000
0.183960 0.700542 0.000000
0.217975 0.701069 0.000000
0.251989 0.701596 0.000000
0.286004 0.702123 0.000000
0.320018 0.702650 0.000000
0.354033 0.703177 0.000000
0.388047 0.703704 0.000000
0.422062 0.704231 0.000000
0.456076 0.704758 0.000000
0.490091 0.705285 0.000000
0.524105 0.705812 0.000000
0.558120 0.706339 0.000000
0.592134 0.706866 0.000000
0.626149 0.707393 0.000000
0.660163 0.707920 0.000000
0.694178 0.708447 0.000000
0.728192 0.708974 0.000000
0.762207 0.709501 0.000000
0.796221 0.710028 0.000000
0.830236 0.710555 0.000000
0.864250 0.711082 0.000000
0.898265 0.711609 0.000000
0.000000 0.731579 0.000000
0.000000 0.731579 0.000000
0.000000 0.731790 0.000000
0.000000 0.732317 0.000000
0.000000 0.732844 0.000000
0.000000 0.733371 0.000000
0.014966 0.733898 0.000000
0.048981 0.734425 0.000000
0.082995 0.734952 0.000000
0.117010 0.735479 0.000000
0.151024 0.736006 0.000000
0.185039 0.736533 0.000000
0.219053 0.737060 0.000000
0.253068 0.737587 0.000000
0.287082 0.738114 0.000000
0.321097 0.738641 0.000000
0.355111 0.739168 0.000000
0.389126 0.739695 0.000000
0.423140 0.740222 0.000000
0.457155 0.740749 0.000000
0.491169 0.741276 0.000000
0.525184 0.741803 0.000000
0.559198 0.742330 0.000000
0.593213 0.742857 0.000000
0.627227 0.743384 0.000000
0.661242 0.743911 0.000000
0.695256 0.744438 0.000000
0.729271 0.744965 0.000000
0.763285 0.745492 0.000000
0.797300 0.746019 0.000000
0.831314 0.746546 0.000000
0.865329 0.747073 0.000000
0.899343 0.747600 0.000000
0.000000 0.767570 0.000000
0.000000 0.767570 0.000000
0.000000 0.767781 0.000000
0.000000 0.768308 0.000000
0.000000 0.768835 0.000000
0.000000 0.769362 0.000000
0.016045 0.769889 0.000000
0.050060 0.770416 0.000000
0.084074 0.770943 0.000000
0.118088 0.771470 0.000000
0.152103 0.771997 0.000000
0.186117 0.772524 0.000000
0.220132 0.773051 0.000000
0.254146 0.773578 0.000000
0.288161 0.774105 0.000000
0.322175 0.774632 0.000000
0.356190 0.775159 0.000000
0.390204 0.775686 0.000000
0.424219 0.776213 0.000000
0.458233 0.776740 0.000000
0.492248 0.777267 0.000000
0.526262 0.777794 0.000000
0.560277 0.778321 0.000000
0.594291 0.778848 0.000000
