app/src/main/assets/luts/night_neon_soft.cube
# V-Cam procedural LUT — night_neon_soft
# Generated by LutBaker. Do not edit by hand.
TITLE "V-Cam night_neon_soft"
LUT_3D_SIZE 5
DOMAIN_MIN 0.0 0.0 0.0
DOMAIN_MAX 1.0 1.0 1.0
0.000000 0.000000 0.000000
0.060272 0.000000 0.000000
0.374727 0.000000 0.000000
0.792199 0.000000 0.000000
1.000000 0.000000 0.000000
0.000000 0.058910 0.001840
0.060245 0.058896 0.001822
0.374620 0.051546 0.000000
0.792007 0.000000 0.000000
1.000000 0.000000 0.000000
0.000000 0.368003 0.026826
0.047201 0.367909 0.026983
0.372436 0.366878 0.018724
0.787676 0.345328 0.000000
1.000000 0.271777 0.000000
0.000000 0.767322 0.000000
0.000000 0.767067 0.000000
0.340482 0.764764 0.000000
0.769943 0.757948 0.000000
1.000000 0.744962 0.000000
0.000000 1.000000 0.000000
0.000000 1.000000 0.000000
0.147181 1.000000 0.000000
0.742272 1.000000 0.000000
1.000000 1.000000 0.000000
0.000000 0.000000 0.060646
0.060267 0.000000 0.060632
0.374706 0.000000 0.053966
0.792162 0.000000 0.000000
1.000000 0.000000 0.000000
0.000000 0.058906 0.062017
0.060239 0.058891 0.062001
0.374492 0.051736 0.055200
0.791759 0.000000 0.000000
1.000000 0.000000 0.000000
0.000000 0.367985 0.079458
0.047288 0.367871 0.079668
0.372399 0.366845 0.075055
0.787421 0.345455 0.000000
1.000000 0.272093 0.000000
0.000000 0.767313 0.000000
0.000000 0.767059 0.000000
0.340822 0.764617 0.000000
0.769868 0.757884 0.000000
1.000000 0.744943 0.000000
0.000000 1.000000 0.000000
0.000000 1.000000 0.000000
0.149827 1.000000 0.000000
0.742367 1.000000 0.000000
1.000000 1.000000 0.000000
0.000000 0.000000 0.376576
0.058088 0.000000 0.376520
0.374249 0.000000 0.375302
0.791249 0.000000 0.362241
1.000000 0.000000 0.304071
0.000000 0.056360 0.376700
0.057569 0.056146 0.376502
0.374059 0.048938 0.375340
0.790827 0.000000 0.362116
1.000000 0.000000 0.303674
0.000000 0.367645 0.379514
0.043199 0.367547 0.379409
0.371987 0.366522 0.378198
0.782319 0.348355 0.361751
1.000000 0.278739 0.297419
0.000000 0.767115 0.370004
0.000000 0.766863 0.370201
0.346763 0.762042 0.375544
0.768462 0.756699 0.366776
1.000000 0.744703 0.234351
0.000000 1.000000 0.260226
0.000000 1.000000 0.260598
0.179701 1.000000 0.278289
0.744552 1.000000 0.234976
1.000000 1.000000 0.144084
0.000000 0.000000 0.799483
0.000000 0.000000 0.799366
0.374765 0.000000 0.796790
0.785551 0.000000 0.787185
1.000000 0.000000 0.791076
0.000000 0.000000 0.799373
0.000000 0.000000 0.798968
0.374285 0.000000 0.796414
0.785170 0.000000 0.786899
1.000000 0.000000 0.790735
0.000000 0.363587 0.797233
0.000000 0.363375 0.796848
0.365982 0.359968 0.789005
0.777766 0.345183 0.781572
1.000000 0.258399 0.783937
0.000000 0.766316 0.791014
0.000000 0.766117 0.790802
0.329954 0.761731 0.785990
0.766463 0.755251 0.777967
1.000000 0.746918 0.771907
0.000000 1.000000 0.778384
0.000000 1.000000 0.778246
0.126679 1.000000 0.775650
0.753546 1.000000 0.775455
1.000000 0.997147 0.768299
0.000000 0.000000 1.000000
0.000000 0.000000 1.000000
0.361177 0.000000 1.000000
0.799281 0.000000 1.000000
1.000000 0.000000 1.000000
0.000000 0.000000 1.000000
0.000000 0.000000 1.000000
0.360335 0.000000 1.000000
0.798747 0.000000 1.000000
1.000000 0.000000 1.000000
0.000000 0.343991 1.000000
0.000000 0.343604 1.000000
0.344037 0.336975 1.000000
0.787835 0.295766 1.000000
1.000000 0.246308 1.000000
0.000000 0.768504 1.000000
0.000000 0.768257 1.000000
0.254846 0.763230 1.000000
0.764667 0.752673 1.000000
1.000000 0.745653 1.000000
0.000000 1.000000 1.000000
0.000000 1.000000 1.000000
0.061725 1.000000 1.000000
0.749001 1.000000 1.000000
1.000000 0.995588 1.000000
