app/src/main/assets/luts/night_low_light_warm.cube
# V-Cam procedural LUT — night_low_light_warm
# Generated by LutBaker. Do not edit by hand.
TITLE "V-Cam night_low_light_warm"
LUT_3D_SIZE 9
DOMAIN_MIN 0.0 0.0 0.0
DOMAIN_MAX 1.0 1.0 1.0
0.101748 0.079433 0.067935
0.131719 0.079430 0.067930
0.202879 0.079399 0.067891
0.316790 0.079176 0.067627
0.466160 0.078019 0.066289
0.638384 0.073497 0.061065
0.813458 0.059656 0.044618
0.957027 0.031195 0.013110
1.000000 0.015788 0.000000
0.101747 0.110584 0.067932
0.131716 0.110583 0.067926
0.202874 0.110564 0.067878
0.316782 0.110408 0.067592
0.466148 0.109571 0.066209
0.638367 0.106292 0.060896
0.813439 0.096625 0.044217
0.957004 0.079028 0.012487
1.000000 0.069135 0.000000
0.101719 0.183956 0.067879
0.131699 0.183954 0.067873
0.202857 0.183945 0.067831
0.316754 0.183875 0.067469
0.466105 0.183426 0.065929
0.638306 0.181586 0.060297
0.813369 0.176200 0.042760
0.956924 0.167119 0.010254
1.000000 0.162481 0.000000
0.101449 0.300544 0.067465
0.131504 0.300540 0.067448
0.202766 0.300525 0.067388
0.316680 0.300490 0.067150
0.465991 0.300309 0.065195
0.638142 0.299407 0.058703
0.813181 0.296568 0.038621
0.956704 0.291819 0.004171
1.000000 0.289441 0.000000
0.099937 0.452685 0.065252
0.130359 0.452679 0.065212
0.202113 0.452658 0.065080
0.316397 0.452603 0.064742
0.465759 0.452496 0.063778
0.637790 0.452143 0.055490
0.812767 0.450696 0.029359
0.956222 0.448134 0.000000
1.000000 0.446833 0.000000
0.094203 0.627558 0.056755
0.126000 0.627549 0.056679
0.199509 0.627520 0.056421
0.315042 0.627447 0.055760
0.465159 0.627296 0.054410
0.637231 0.627056 0.051364
0.811934 0.626506 0.015999
0.955355 0.625126 0.000000
1.000000 0.624400 0.000000
0.076700 0.805010 0.028228
0.113186 0.804999 0.028063
0.191984 0.804963 0.027503
0.310941 0.804869 0.026064
0.463017 0.804672 0.023095
0.636247 0.804341 0.018190
0.810825 0.803931 0.005970
0.954092 0.803388 0.000000
1.000000 0.802998 0.000000
0.023878 0.951403 0.000000
0.080666 0.951391 0.000000
0.174895 0.951351 0.000000
0.301738 0.951247 0.000000
0.457901 0.951022 0.000000
0.633479 0.950620 0.000000
0.809547 0.950030 0.000000
0.952716 0.949401 0.000000
1.000000 0.949224 0.000000
0.000000 1.000000 0.000000
0.053233 1.000000 0.000000
0.163374 1.000000 0.000000
0.295919 1.000000 0.000000
0.454749 1.000000 0.000000
0.631755 1.000000 0.000000
0.808635 1.000000 0.000000
0.952225 1.000000 0.000000
1.000000 1.000000 0.000000
0.101748 0.079433 0.099663
0.131718 0.079430 0.099662
0.202877 0.079399 0.099643
0.316786 0.079176 0.099477
0.466154 0.078018 0.098564
0.638375 0.073498 0.094961
0.813448 0.059648 0.084203
0.957015 0.031178 0.063972
1.000000 0.015770 0.052078
0.101747 0.110583 0.099662
0.131715 0.110583 0.099660
0.202869 0.110565 0.099637
0.316773 0.110414 0.099460
0.466134 0.109586 0.098526
0.638347 0.106327 0.094883
0.813414 0.096688 0.084031
0.956976 0.079136 0.063663
1.000000 0.069271 0.051677
0.101723 0.183953 0.099637
0.131701 0.183951 0.099633
0.202855 0.183944 0.099608
0.316747 0.183877 0.099376
0.466092 0.183433 0.098329
0.638287 0.181604 0.094470
0.813346 0.176232 0.083134
0.956896 0.167171 0.062036
1.000000 0.162540 0.049553
0.101464 0.300538 0.099371
0.131514 0.300534 0.099359
0.202769 0.300521 0.099319
0.316677 0.300488 0.099157
0.465981 0.300310 0.097815
0.638125 0.299414 0.093378
0.813158 0.296583 0.080648
0.956677 0.291843 0.057436
1.000000 0.289469 0.043436
0.099976 0.452677 0.097851
0.130388 0.452671 0.097824
0.202128 0.452650 0.097731
0.316401 0.452597 0.097496
0.465755 0.452493 0.096827
0.637777 0.452143 0.091209
0.812747 0.450701 0.074952
0.956198 0.448144 0.046278
1.000000 0.446845 0.028664
0.094294 0.627546 0.092046
0.126067 0.627538 0.091995
0.199547 0.627509 0.091822
0.315059 0.627437 0.091379
0.465163 0.627288 0.090480
0.637226 0.627052 0.088485
0.811917 0.626505 0.066126
0.955334 0.625127 0.022736
1.000000 0.624403 0.001901
0.076930 0.804993 0.074237
0.113347 0.804983 0.074132
0.192074 0.804947 0.073775
0.310988 0.804853 0.072849
0.463038 0.804659 0.070911
0.636252 0.804330 0.067617
0.810818 0.803925 0.058775
0.954078 0.803384 0.000000
1.000000 0.802995 0.000000
0.024573 0.951379 0.020298
0.081078 0.951367 0.019932
0.175086 0.951328 0.018680
0.301832 0.951224 0.015412
0.457946 0.951001 0.008393
0.633497 0.950602 0.000000
0.809548 0.950017 0.000000
0.952707 0.949393 0.000000
1.000000 0.949217 0.000000
0.000000 1.000000 0.000000
0.053897 1.000000 0.000000
0.163616 1.000000 0.000000
0.296033 1.000000 0.000000
0.454805 1.000000 0.000000
0.631778 1.000000 0.000000
0.808638 1.000000 0.000000
0.952219 1.000000 0.000000
1.000000 1.000000 0.000000
0.101747 0.079425 0.174045
0.131720 0.079420 0.174043
0.202874 0.079391 0.174041
0.316781 0.079156 0.173992
0.466146 0.077974 0.173568
0.638362 0.073414 0.171712
0.813435 0.059432 0.166163
0.957000 0.030770 0.156648
1.000000 0.015314 0.151747
0.101742 0.110581 0.174038
0.131715 0.110579 0.174035
0.202865 0.110562 0.174033
0.316765 0.110405 0.173981
0.466122 0.109565 0.173548
0.638327 0.106289 0.171677
0.813393 0.096587 0.166094
0.956951 0.078962 0.156544
1.000000 0.069053 0.151628
0.101719 0.183951 0.174028
0.131703 0.183947 0.174025
0.202848 0.183943 0.174022
0.316721 0.183885 0.173951
0.466047 0.183462 0.173482
0.638219 0.181675 0.171548
0.813258 0.176356 0.165824
0.956793 0.167362 0.156129
1.000000 0.162762 0.151148
0.101452 0.300534 0.173919
0.131523 0.300525 0.173922
0.202783 0.300506 0.173922
0.316666 0.300481 0.173851
0.465945 0.300315 0.173212
0.638063 0.299442 0.170965
0.813076 0.296639 0.164579
0.956578 0.291934 0.154192
1.000000 0.289573 0.148898
0.099946 0.452670 0.173137
0.130411 0.452656 0.173152
0.202185 0.452623 0.173162
0.316417 0.452576 0.173039
0.465741 0.452482 0.172694
0.637732 0.452145 0.169816
0.812675 0.450719 0.161809
0.956107 0.448182 0.149849
1.000000 0.446891 0.143831
0.094210 0.627539 0.170016
0.126115 0.627519 0.170065
0.199690 0.627470 0.170116
0.315125 0.627401 0.169883
0.465179 0.627260 0.169413
0.637208 0.627036 0.168389
0.811855 0.626502 0.157854
0.955259 0.625133 0.141699
1.000000 0.624415 0.134239
0.076608 0.804992 0.160911
0.113412 0.804961 0.161059
0.192408 0.804888 0.161256
0.311159 0.804797 0.160827
0.463115 0.804609 0.159940
0.636269 0.804291 0.158470
0.810794 0.803902 0.154661
0.954024 0.803369 0.128935
1.000000 0.802983 0.118945
0.023213 0.951390 0.139736
0.081091 0.951343 0.140090
0.175786 0.951241 0.140534
0.302178 0.951141 0.139373
0.458113 0.950926 0.136846
0.633561 0.950540 0.132202
0.809550 0.949971 0.125090
0.952675 0.949362 0.116094
1.000000 0.949191 0.100161
0.000000 1.000000 0.124996
0.053970 1.000000 0.125313
0.164502 1.000000 0.125896
0.296454 1.000000 0.124435
0.455009 1.000000 0.121257
0.631863 1.000000 0.115427
0.808653 1.000000 0.106499
0.952196 1.000000 0.096208
1.000000 1.000000 0.091910
0.101709 0.079356 0.291822
0.131706 0.079341 0.291817
0.202891 0.079290 0.291803
0.316767 0.079102 0.291782
0.466123 0.077854 0.291700
0.638324 0.073185 0.290955
0.813400 0.058828 0.288359
0.956959 0.029631 0.283775
1.000000 0.014038 0.281445
0.101691 0.110542 0.291808
0.131692 0.110532 0.291801
0.202878 0.110497 0.291787
0.316752 0.110367 0.291768
0.466099 0.109478 0.291681
0.638290 0.106125 0.290928
0.813358 0.096183 0.288314
0.956910 0.078266 0.283714
1.000000 0.068184 0.281377
0.101621 0.183947 0.291783
0.131643 0.183941 0.291771
0.202844 0.183926 0.291741
0.316707 0.183871 0.291727
0.466020 0.183424 0.291622
0.638173 0.181603 0.290840
0.813211 0.176174 0.288162
0.956737 0.167082 0.283503
1.000000 0.162439 0.281142
0.101415 0.300522 0.291722
0.131497 0.300514 0.291715
0.202783 0.300493 0.291696
0.316647 0.300474 0.291681
0.465853 0.300340 0.291526
0.637897 0.299532 0.290658
0.812847 0.296810 0.287786
0.956304 0.292199 0.282951
1.000000 0.289877 0.280519
0.099850 0.452653 0.291423
0.130340 0.452640 0.291423
0.202185 0.452598 0.291428
0.316470 0.452523 0.291446
0.465708 0.452458 0.291308
0.637610 0.452156 0.290098
0.812476 0.450778 0.286418
0.955856 0.448295 0.280865
1.000000 0.447026 0.278139
0.093945 0.627522 0.289905
0.125918 0.627502 0.289923
0.199677 0.627436 0.289987
0.315313 0.627307 0.290099
0.465229 0.627187 0.289874
0.637162 0.626998 0.289396
0.811687 0.626499 0.284607
0.955050 0.625155 0.277068
1.000000 0.624451 0.273800
0.075609 0.804992 0.285230
0.112717 0.804961 0.285296
0.192281 0.804856 0.285524
0.311636 0.804647 0.285927
0.463329 0.804476 0.285511
0.636318 0.804189 0.284832
0.810729 0.803844 0.283012
0.953877 0.803330 0.271440
1.000000 0.802954 0.267347
0.019185 0.951425 0.274794
0.078684 0.951378 0.274948
0.175286 0.951223 0.275466
0.303127 0.950920 0.276301
0.458573 0.950724 0.275173
0.633741 0.950371 0.273133
0.809560 0.949846 0.270092
0.952589 0.949279 0.266413
1.000000 0.949121 0.260236
0.000000 1.000000 0.268782
0.052589 1.000000 0.268840
0.163962 1.000000 0.269044
0.297609 1.000000 0.270040
0.455573 1.000000 0.268719
0.632099 1.000000 0.266352
0.808697 1.000000 0.262875
0.952136 1.000000 0.259099
1.000000 1.000000 0.257599
0.101433 0.078966 0.445352
0.131526 0.078927 0.445345
0.202853 0.078797 0.445321
0.316840 0.078463 0.445259
0.466071 0.077595 0.445169
0.638238 0.072702 0.445095
0.813321 0.057464 0.444154
0.956868 0.027090 0.442046
1.000000 0.011193 0.440919
0.101387 0.110276 0.445330
0.131491 0.110251 0.445318
0.202827 0.110157 0.445294
0.316819 0.109916 0.445235
0.466049 0.109292 0.445148
0.638205 0.105781 0.445069
0.813280 0.095277 0.444117
0.956819 0.076695 0.442000
1.000000 0.066214 0.440870
0.101205 0.183834 0.445288
0.131359 0.183822 0.445265
0.202748 0.183782 0.445206
0.316750 0.183655 0.445153
0.465975 0.183325 0.445077
0.638092 0.181414 0.444979
0.813135 0.175689 0.443991
0.956648 0.166333 0.441841
1.000000 0.161572 0.440697
0.100721 0.300524 0.445180
0.130994 0.300513 0.445160
0.202548 0.300481 0.445098
0.316629 0.300431 0.444977
0.465816 0.300305 0.444928
0.637815 0.299455 0.444780
0.812758 0.296590 0.443689
0.956196 0.291863 0.441448
1.000000 0.289494 0.440267
0.099633 0.452614 0.444966
0.130177 0.452602 0.444954
0.202096 0.452565 0.444919
0.316458 0.452491 0.444851
0.465667 0.452437 0.444805
0.637372 0.452212 0.444552
0.811992 0.450999 0.443270
0.955311 0.448587 0.440760
1.000000 0.447366 0.439496
0.093321 0.627483 0.444356
0.125454 0.627464 0.444353
0.199413 0.627400 0.444348
0.315262 0.627256 0.444358
0.465360 0.627053 0.444428
0.637086 0.626937 0.444245
0.811349 0.626517 0.442394
0.954599 0.625230 0.438829
1.000000 0.624557 0.437274
0.073208 0.804990 0.441950
0.111064 0.804959 0.441971
0.191380 0.804855 0.442049
0.311389 0.804605 0.442274
0.463809 0.804214 0.442707
0.636441 0.803992 0.442408
0.810610 0.803736 0.441542
0.953564 0.803262 0.436003
1.000000 0.802909 0.434020
0.012400 0.951440 0.436457
0.074032 0.951409 0.436473
0.172850 0.951285 0.436596
0.302395 0.950906 0.437176
0.459569 0.950314 0.438076
0.634141 0.950028 0.437061
0.809597 0.949595 0.435537
0.952419 0.949115 0.433694
1.000000 0.948976 0.430655
0.000000 1.000000 0.433675
0.050207 1.000000 0.433696
0.163108 1.000000 0.433769
0.296823 1.000000 0.433985
0.456795 1.000000 0.435063
0.632623 1.000000 0.433860
0.808807 1.000000 0.432082
0.952019 1.000000 0.430140
1.000000 1.000000 0.429366
0.100257 0.077415 0.622101
0.130673 0.077335 0.622090
0.202450 0.077061 0.622054
0.316813 0.076355 0.621962
0.466289 0.074891 0.621771
0.638081 0.071948 0.621518
0.813096 0.055758 0.621642
0.956701 0.022477 0.621001
1.000000 0.006029 0.620541
0.100163 0.109173 0.622068
0.130603 0.109120 0.622051
0.202402 0.108920 0.622016
0.316778 0.108408 0.621925
0.466259 0.107350 0.621737
0.638051 0.105245 0.621488
0.813053 0.094180 0.621606
0.956654 0.073775 0.620959
1.000000 0.062519 0.620497
0.099775 0.183262 0.622007
0.130321 0.183239 0.621972
0.202245 0.183156 0.621880
0.316662 0.182869 0.621795
0.466157 0.182280 0.621618
0.637945 0.181121 0.621385
0.812900 0.175154 0.621479
0.956485 0.164963 0.620813
1.000000 0.159986 0.620342
0.098736 0.300326 0.621847
0.129527 0.300309 0.621815
0.201785 0.300256 0.621706
0.316413 0.300148 0.621475
0.465924 0.299866 0.621329
0.637690 0.299316 0.621138
0.812506 0.296381 0.621165
0.956042 0.291173 0.620441
1.000000 0.288707 0.619947
0.096489 0.452655 0.621522
0.127826 0.452639 0.621495
0.200784 0.452588 0.621406
0.315926 0.452481 0.621194
0.465626 0.452362 0.620861
0.637287 0.452165 0.620753
0.811759 0.450925 0.620639
0.955146 0.448260 0.619762
1.000000 0.446990 0.619218
0.092055 0.627410 0.621007
0.124516 0.627392 0.620990
0.198881 0.627333 0.620933
0.315016 0.627200 0.620804
0.465316 0.627003 0.620618
0.637024 0.626898 0.620526
0.810859 0.626622 0.620220
0.953832 0.625456 0.618995
1.000000 0.624839 0.618357
0.068167 0.804981 0.619984
0.107659 0.804949 0.619977
0.189548 0.804846 0.619955
0.310499 0.804597 0.619920
0.463563 0.804167 0.619937
0.636682 0.803739 0.620126
0.810467 0.803612 0.619821
0.952969 0.803226 0.617809
1.000000 0.802890 0.616707
0.007840 0.951274 0.617355
0.071062 0.951245 0.617352
0.171293 0.951145 0.617341
0.300848 0.950895 0.617330
0.458892 0.950289 0.617583
0.634863 0.949517 0.618145
0.809712 0.949223 0.617425
0.952175 0.948882 0.616537
1.000000 0.948768 0.615155
0.000000 1.000000 0.615858
0.045679 1.000000 0.615858
0.161547 1.000000 0.615857
0.296066 1.000000 0.615872
0.456034 1.000000 0.616022
0.633563 1.000000 0.616751
0.809047 1.000000 0.615842
0.951865 1.000000 0.614822
1.000000 1.000000 0.614408
0.096880 0.073032 0.802253
0.128155 0.072883 0.802239
0.201073 0.072373 0.802193
0.316312 0.071044 0.802073
0.466401 0.068213 0.801820
0.638585 0.063226 0.801391
0.812677 0.054805 0.800909
0.956457 0.015721 0.801440
1.000000 0.000000 0.801396
0.096709 0.106032 0.802211
0.128033 0.105937 0.802187
0.200992 0.105572 0.802141
0.316258 0.104623 0.802022
0.466358 0.102622 0.801772
0.638546 0.099171 0.801346
0.812636 0.093570 0.800869
0.956411 0.069323 0.801398
1.000000 0.056793 0.801352
0.095991 0.181537 0.802135
0.127515 0.181499 0.802086
0.200718 0.181353 0.801959
0.316071 0.180821 0.801843
0.466211 0.179708 0.801601
0.638410 0.177823 0.801188
0.812492 0.174852 0.800727
0.956247 0.162935 0.801248
1.000000 0.157632 0.801197
0.094015 0.299535 0.801937
0.126022 0.299510 0.801890
0.199850 0.299429 0.801731
0.315637 0.299240 0.801381
0.465856 0.298672 0.801159
0.638071 0.297722 0.800784
0.812127 0.296252 0.800368
0.955816 0.290159 0.800860
1.000000 0.287550 0.800792
0.089503 0.452433 0.801541
0.122657 0.452411 0.801497
0.197871 0.452341 0.801348
0.314620 0.452186 0.800976
0.465311 0.451974 0.800318
0.637490 0.451536 0.800028
0.811457 0.450877 0.799712
0.954947 0.447733 0.800104
1.000000 0.446383 0.800000
0.080093 0.627584 0.800914
0.115849 0.627560 0.800875
0.193995 0.627483 0.800743
0.312660 0.627302 0.800421
0.464458 0.627020 0.799827
0.636971 0.626813 0.799128
0.810695 0.626607 0.798978
0.953492 0.625369 0.799053
1.000000 0.624552 0.798919
0.063553 0.804822 0.799922
0.104460 0.804799 0.799899
0.187558 0.804724 0.799825
0.309150 0.804539 0.799643
0.462924 0.804139 0.799254
0.636544 0.803709 0.798841
0.810388 0.803555 0.798702
0.952325 0.803312 0.798434
1.000000 0.803052 0.798160
0.001161 0.951031 0.798800
0.066527 0.951003 0.798783
0.169374 0.950909 0.798726
0.299890 0.950672 0.798588
0.457929 0.950208 0.798349
0.634477 0.949452 0.798158
0.809976 0.948842 0.798231
0.951952 0.948673 0.797928
1.000000 0.948595 0.797440
0.000000 1.000000 0.798036
0.038475 1.000000 0.798021
0.159232 1.000000 0.797971
0.294953 1.000000 0.797852
0.455358 1.000000 0.797652
0.633103 1.000000 0.797522
0.809486 1.000000 0.797702
0.951759 1.000000 0.797273
1.000000 1.000000 0.797093
0.090567 0.064717 0.952117
0.123464 0.064465 0.952102
0.198406 0.063601 0.952053
0.315103 0.061314 0.951925
0.466149 0.056250 0.951652
0.639034 0.046562 0.951177
0.813589 0.030824 0.950507
0.956000 0.012164 0.949921
1.000000 0.000000 0.950323
0.090290 0.100205 0.952069
0.123273 0.100053 0.952041
0.198285 0.099459 0.951992
0.315025 0.097900 0.951864
0.466092 0.094523 0.951592
0.638984 0.088373 0.951119
0.813539 0.079061 0.950451
0.955947 0.067011 0.949868
1.000000 0.050101 0.950277
0.089095 0.178318 0.951996
0.122435 0.178264 0.951934
0.197865 0.178043 0.951775
0.314754 0.177192 0.951648
0.465891 0.175376 0.951379
0.638808 0.172173 0.950912
0.813364 0.167580 0.950254
0.955759 0.162109 0.949681
1.000000 0.155047 0.950114
0.085723 0.297922 0.951809
0.119957 0.297887 0.951748
0.196457 0.297776 0.951538
0.314094 0.297498 0.951071
0.465393 0.296560 0.950813
0.638363 0.294931 0.950364
0.812911 0.292653 0.949737
0.955268 0.290017 0.949194
1.000000 0.286293 0.949686
0.077726 0.451750 0.951403
0.114173 0.451720 0.951356
0.193095 0.451624 0.951177
0.312364 0.451418 0.950642
0.464549 0.451108 0.949652
0.637553 0.450299 0.949253
0.812047 0.449198 0.948705
0.954303 0.447956 0.948238
1.000000 0.445944 0.948727
0.061824 0.627482 0.950547
0.103371 0.627456 0.950505
0.187043 0.627369 0.950363
0.308990 0.627158 0.950002
0.462897 0.626788 0.949074
0.636690 0.626476 0.947640
0.810961 0.626020 0.947259
0.953122 0.625382 0.947070
1.000000 0.624511 0.947356
0.031477 0.805069 0.949301
0.085529 0.805043 0.949266
0.177909 0.804958 0.949150
0.304205 0.804745 0.948857
0.460189 0.804345 0.948274
0.635552 0.803783 0.947199
0.810338 0.803480 0.946268
0.952206 0.803258 0.946171
1.000000 0.802976 0.946241
0.000000 0.950769 0.947979
0.061342 0.950742 0.947953
0.167273 0.950653 0.947864
0.298851 0.950430 0.947643
0.457388 0.949997 0.947214
0.633970 0.949375 0.946599
0.809878 0.948778 0.946015
0.951862 0.948599 0.945849
1.000000 0.948565 0.945809
0.000000 1.000000 0.947633
0.030369 1.000000 0.947609
0.156689 1.000000 0.947526
0.293744 1.000000 0.947319
0.454726 1.000000 0.946922
0.632634 1.000000 0.946362
0.809342 1.000000 0.945876
0.951797 1.000000 0.945771
1.000000 1.000000 0.945733
0.086799 0.059625 1.000000
0.120704 0.059311 1.000000
0.196834 0.058232 1.000000
0.314347 0.055352 1.000000
0.465911 0.048829 1.000000
0.639166 0.035752 1.000000
0.814025 0.016041 1.000000
0.956569 0.000000 1.000000
1.000000 0.000000 1.000000
0.086463 0.096751 1.000000
0.120476 0.096568 1.000000
0.196692 0.095848 1.000000
0.314258 0.093950 1.000000
0.465846 0.089785 1.000000
0.639111 0.082001 1.000000
0.813971 0.069632 1.000000
0.956512 0.054413 1.000000
1.000000 0.047619 1.000000
0.085020 0.176447 1.000000
0.119466 0.176376 1.000000
0.196200 0.176118 1.000000
0.313946 0.175103 1.000000
0.465621 0.172917 1.000000
0.638918 0.168998 1.000000
0.813780 0.163227 1.000000
0.956310 0.156930 1.000000
1.000000 0.154417 1.000000
0.081044 0.296990 1.000000
0.116578 0.296945 1.000000
0.194521 0.296794 1.000000
0.313174 0.296470 1.000000
0.465053 0.295344 1.000000
0.638422 0.293359 1.000000
0.813284 0.290518 1.000000
0.955781 0.287527 1.000000
1.000000 0.286366 1.000000
0.071687 0.451326 1.000000
0.109998 0.451294 1.000000
0.190760 0.451185 1.000000
0.311089 0.450925 1.000000
0.464062 0.450566 1.000000
0.637505 0.449565 1.000000
0.812324 0.448166 1.000000
0.954731 0.446739 1.000000
1.000000 0.446155 1.000000
0.051865 0.627345 1.000000
0.097145 0.627317 1.000000
0.183792 0.627223 1.000000
0.307345 0.626995 1.000000
0.461984 0.626584 1.000000
0.636472 0.626228 1.000000
0.811077 0.625607 1.000000
0.953404 0.624841 1.000000
1.000000 0.624527 1.000000
0.014163 0.805118 1.000000
0.075172 0.805091 1.000000
0.173124 0.805001 1.000000
0.301806 0.804776 1.000000
0.458982 0.804349 1.000000
0.634954 0.803760 1.000000
0.810264 0.803391 1.000000
0.952320 0.803076 1.000000
1.000000 0.802941 1.000000
0.000000 0.950922 1.000000
0.043659 0.950894 1.000000
0.160877 0.950802 1.000000
0.295742 0.950570 1.000000
0.455773 0.950118 1.000000
0.633171 0.949461 1.000000
0.809580 0.948819 1.000000
0.951854 0.948585 1.000000
1.000000 0.948553 1.000000
0.000000 1.000000 1.000000
0.026924 1.000000 1.000000
0.155595 1.000000 1.000000
0.293228 1.000000 1.000000
0.454456 1.000000 1.000000
0.632496 1.000000 1.000000
0.809260 1.000000 1.000000
0.951790 1.000000 1.000000
1.000000 1.000000 1.000000
