app/src/main/assets/luts/portrait_soft_skin.cube
# V-Cam procedural LUT — portrait_soft_skin
# Generated by LutBaker. Do not edit by hand.
TITLE "V-Cam portrait_soft_skin"
LUT_3D_SIZE 9
DOMAIN_MIN 0.0 0.0 0.0
DOMAIN_MAX 1.0 1.0 1.0
0.138115 0.088163 0.069649
0.251501 0.089920 0.071406
0.364886 0.091676 0.073163
0.478272 0.093433 0.074919
0.591657 0.095190 0.076676
0.705042 0.096946 0.078433
0.818428 0.098703 0.080190
0.931813 0.100460 0.081946
1.000000 0.102216 0.083703
0.141531 0.202159 0.073066
0.254917 0.203916 0.074822
0.368302 0.205673 0.076579
0.481688 0.207429 0.078336
0.595073 0.209186 0.080093
0.708459 0.210943 0.081849
0.821844 0.212699 0.083606
0.935230 0.214456 0.085363
1.000000 0.216213 0.087119
0.144948 0.316156 0.076482
0.258333 0.317912 0.078239
0.371719 0.319669 0.079995
0.485104 0.321426 0.081752
0.598490 0.323182 0.083509
0.711875 0.324939 0.085266
0.825261 0.326696 0.087022
0.938646 0.328452 0.088779
1.000000 0.330209 0.090536
0.148364 0.430152 0.079898
0.261750 0.431909 0.081655
0.375135 0.433665 0.083412
0.488521 0.435422 0.085169
0.601906 0.437179 0.086925
0.715292 0.438935 0.088682
0.828677 0.440692 0.090439
0.942062 0.442449 0.092195
1.000000 0.444206 0.093952
0.151780 0.544148 0.083315
0.265166 0.545905 0.085071
0.378551 0.547662 0.086828
0.491937 0.549418 0.088585
0.605322 0.551175 0.090342
0.718708 0.552932 0.092098
0.832093 0.554688 0.093855
0.945479 0.556445 0.095612
1.000000 0.558202 0.097368
0.155197 0.658145 0.086731
0.268582 0.659901 0.088488
0.381968 0.661658 0.090245
0.495353 0.663415 0.092001
0.608739 0.665171 0.093758
0.722124 0.666928 0.095515
0.835510 0.668685 0.097271
0.948895 0.670442 0.099028
1.000000 0.672198 0.100785
0.158613 0.772141 0.090147
0.271999 0.773898 0.091904
0.385384 0.775654 0.093661
0.498770 0.777411 0.095417
0.612155 0.779168 0.097174
0.725540 0.780924 0.098931
0.838926 0.782681 0.100688
0.952311 0.784438 0.102444
1.000000 0.786195 0.104201
0.162029 0.886137 0.093564
0.275415 0.887894 0.095321
0.388800 0.889651 0.097077
0.502186 0.891407 0.098834
0.615571 0.893164 0.100591
0.728957 0.894921 0.102347
0.842342 0.896677 0.104104
0.955728 0.898434 0.105861
1.000000 0.900191 0.107617
0.165446 1.000000 0.096980
0.278831 1.000000 0.098737
0.392217 1.000000 0.100493
0.505602 1.000000 0.102250
0.618988 1.000000 0.104007
0.732373 1.000000 0.105764
0.845759 1.000000 0.107520
0.959144 1.000000 0.109277
1.000000 1.000000 0.111034
0.138754 0.088802 0.176828
0.252140 0.090559 0.178585
0.365525 0.092316 0.180342
0.478911 0.094072 0.182099
0.592296 0.095829 0.183855
0.705682 0.097586 0.185612
0.819067 0.099342 0.187369
0.932453 0.101099 0.189125
1.000000 0.102856 0.190882
0.142171 0.202799 0.180245
0.255556 0.204555 0.182002
0.368942 0.206312 0.183758
0.482327 0.208069 0.185515
0.595713 0.209825 0.187272
0.709098 0.211582 0.189028
0.822484 0.213339 0.190785
0.935869 0.215095 0.192542
1.000000 0.216852 0.194298
0.145587 0.316795 0.183661
0.258972 0.318552 0.185418
0.372358 0.320308 0.187175
0.485743 0.322065 0.188931
0.599129 0.323822 0.190688
0.712514 0.325578 0.192445
0.825900 0.327335 0.194201
0.939285 0.329092 0.195958
1.000000 0.330848 0.197715
0.149003 0.430791 0.187078
0.262389 0.432548 0.188834
0.375774 0.434305 0.190591
0.489160 0.436061 0.192348
0.602545 0.437818 0.194104
0.715931 0.439575 0.195861
0.829316 0.441331 0.197618
0.942702 0.443088 0.199374
1.000000 0.444845 0.201131
0.152420 0.544788 0.190494
0.265805 0.546544 0.192251
0.379191 0.548301 0.194007
0.492576 0.550058 0.195764
0.605962 0.551814 0.197521
0.719347 0.553571 0.199277
0.832733 0.555328 0.201034
0.946118 0.557084 0.202791
1.000000 0.558841 0.204547
0.155836 0.658784 0.193910
0.269221 0.660541 0.195667
0.382607 0.662297 0.197424
0.495992 0.664054 0.199180
0.609378 0.665811 0.200937
0.722763 0.667567 0.202694
0.836149 0.669324 0.204450
0.949534 0.671081 0.206207
1.000000 0.672837 0.207964
0.159252 0.772780 0.197327
0.272638 0.774537 0.199083
0.386023 0.776294 0.200840
0.499409 0.778050 0.202597
0.612794 0.779807 0.204353
0.726180 0.781564 0.206110
0.839565 0.783320 0.207867
0.952951 0.785077 0.209623
1.000000 0.786834 0.211380
0.162669 0.886777 0.200743
0.276054 0.888533 0.202500
0.389440 0.890290 0.204256
0.502825 0.892047 0.206013
0.616211 0.893803 0.207770
0.729596 0.895560 0.209526
0.842982 0.897317 0.211283
0.956367 0.899073 0.213040
1.000000 0.900830 0.214796
0.166085 1.000000 0.204159
0.279471 1.000000 0.205916
0.392856 1.000000 0.207673
0.506242 1.000000 0.209429
0.619627 1.000000 0.211186
0.733012 1.000000 0.212943
0.846398 1.000000 0.214699
0.959783 1.000000 0.216456
1.000000 1.000000 0.218213
0.139418 0.089466 0.288095
0.252803 0.091223 0.289852
0.366189 0.092979 0.291608
0.479574 0.094736 0.293365
0.592960 0.096493 0.295122
0.706345 0.098249 0.296878
0.819731 0.100006 0.298635
0.933116 0.101763 0.300392
1.000000 0.103519 0.302148
0.142834 0.203462 0.291511
0.256220 0.205219 0.293268
0.369605 0.206976 0.295025
0.482991 0.208732 0.296781
0.596376 0.210489 0.298538
0.709762 0.212246 0.300295
0.823147 0.214002 0.302051
0.936533 0.215759 0.303808
1.000000 0.217516 0.305565
0.146251 0.317459 0.294928
0.259636 0.319215 0.296684
0.373022 0.320972 0.298441
0.486407 0.322729 0.300198
0.599792 0.324485 0.301954
0.713178 0.326242 0.303711
0.826563 0.327999 0.305468
0.939949 0.329755 0.307224
1.000000 0.331512 0.308981
0.149667 0.431455 0.298344
0.263052 0.433212 0.300101
0.376438 0.434968 0.301857
0.489823 0.436725 0.303614
0.603209 0.438482 0.305371
0.716594 0.440238 0.307127
0.829980 0.441995 0.308884
0.943365 0.443752 0.310641
1.000000 0.445508 0.312397
0.153083 0.545451 0.301760
0.266469 0.547208 0.303517
0.379854 0.548965 0.305274
0.493240 0.550721 0.307030
0.606625 0.552478 0.308787
0.720011 0.554235 0.310544
0.833396 0.555991 0.312300
0.946782 0.557748 0.314057
1.000000 0.559505 0.315814
0.156500 0.659448 0.305177
0.269885 0.661204 0.306933
0.383271 0.662961 0.308690
0.496656 0.664718 0.310447
0.610041 0.666474 0.312203
0.723427 0.668231 0.313960
0.836813 0.669988 0.315717
0.950198 0.671744 0.317473
1.000000 0.673501 0.319230
0.159916 0.773444 0.308593
0.273301 0.775201 0.310350
0.386687 0.776957 0.312106
0.500072 0.778714 0.313863
0.613458 0.780471 0.315620
0.726843 0.782227 0.317376
0.840229 0.783984 0.319133
0.953614 0.785741 0.320890
1.000000 0.787497 0.322646
0.163332 0.887440 0.312009
0.276718 0.889197 0.313766
0.390103 0.890954 0.315523
0.503489 0.892710 0.317279
0.616874 0.894467 0.319036
0.730260 0.896224 0.320793
0.843645 0.897980 0.322549
0.957031 0.899737 0.324306
1.000000 0.901494 0.326063
0.166749 1.000000 0.315426
0.280134 1.000000 0.317182
0.393520 1.000000 0.318939
0.506905 1.000000 0.320696
0.620291 1.000000 0.322452
0.733676 1.000000 0.324209
0.847062 1.000000 0.325966
0.960447 1.000000 0.327722
1.000000 1.000000 0.329479
0.140082 0.090129 0.399361
0.253467 0.091886 0.401118
0.366853 0.093643 0.402875
0.480238 0.095400 0.404631
0.593623 0.097156 0.406388
0.707009 0.098913 0.408145
0.820394 0.100670 0.409901
0.933780 0.102426 0.411658
1.000000 0.104183 0.413415
0.143498 0.204126 0.402778
0.256883 0.205883 0.404534
0.370269 0.207639 0.406291
0.483654 0.209396 0.408048
0.597040 0.211153 0.409804
0.710425 0.212909 0.411561
0.823811 0.214666 0.413318
0.937196 0.216423 0.415074
1.000000 0.218179 0.416831
0.146914 0.318122 0.406194
0.260300 0.319879 0.407951
0.373685 0.321636 0.409707
0.487071 0.323392 0.411464
0.600456 0.325149 0.413221
0.713842 0.326906 0.414977
0.827227 0.328662 0.416734
0.940613 0.330419 0.418491
1.000000 0.332176 0.420247
0.150331 0.432119 0.409610
0.263716 0.433875 0.411367
0.377102 0.435632 0.413124
0.490487 0.437389 0.414880
0.603872 0.439145 0.416637
0.717258 0.440902 0.418394
0.830643 0.442659 0.420150
0.944029 0.444415 0.421907
1.000000 0.446172 0.423664
0.153747 0.546115 0.413027
0.267132 0.547872 0.414783
0.380518 0.549628 0.416540
0.493903 0.551385 0.418297
0.607289 0.553142 0.420053
0.720674 0.554898 0.421810
0.834060 0.556655 0.423567
0.947445 0.558412 0.425323
1.000000 0.560168 0.427080
0.157163 0.660111 0.416443
0.270549 0.661868 0.418200
0.383934 0.663625 0.419956
0.497320 0.665381 0.421713
0.610705 0.667138 0.423470
0.724091 0.668895 0.425226
0.837476 0.670651 0.426983
0.950862 0.672408 0.428740
1.000000 0.674165 0.430497
0.160580 0.774107 0.419859
0.273965 0.775864 0.421616
0.387351 0.777621 0.423373
0.500736 0.779378 0.425129
0.614121 0.781134 0.426886
0.727507 0.782891 0.428643
0.840892 0.784648 0.430399
0.954278 0.786404 0.432156
1.000000 0.788161 0.433913
0.163996 0.888104 0.423276
0.277381 0.889861 0.425032
0.390767 0.891617 0.426789
0.504152 0.893374 0.428546
0.617538 0.895131 0.430302
0.730923 0.896887 0.432059
0.844309 0.898644 0.433816
0.957694 0.900401 0.435573
1.000000 0.902157 0.437329
0.167412 1.000000 0.426692
0.280798 1.000000 0.428449
0.394183 1.000000 0.430205
0.507569 1.000000 0.431962
0.620954 1.000000 0.433719
0.734340 1.000000 0.435475
0.847725 1.000000 0.437232
0.961111 1.000000 0.438989
1.000000 1.000000 0.440746
0.140745 0.090793 0.510628
0.254131 0.092550 0.512384
0.367516 0.094306 0.514141
0.480902 0.096063 0.515898
0.594287 0.097820 0.517654
0.707673 0.099577 0.519411
0.821058 0.101333 0.521168
0.934443 0.103090 0.522925
1.000000 0.104847 0.524681
0.144162 0.204789 0.514044
0.257547 0.206546 0.515801
0.370932 0.208303 0.517557
0.484318 0.210060 0.519314
0.597703 0.211816 0.521071
0.711089 0.213573 0.522828
0.824474 0.215330 0.524584
0.937860 0.217086 0.526341
1.000000 0.218843 0.528098
0.147578 0.318786 0.517460
0.260963 0.320542 0.519217
0.374349 0.322299 0.520974
0.487734 0.324056 0.522730
0.601120 0.325813 0.524487
0.714505 0.327569 0.526244
0.827891 0.329326 0.528001
0.941276 0.331083 0.529757
1.000000 0.332839 0.531514
0.150994 0.432782 0.520877
0.264380 0.434539 0.522633
0.377765 0.436295 0.524390
0.491151 0.438052 0.526147
0.604536 0.439809 0.527903
0.717922 0.441566 0.529660
0.831307 0.443322 0.531417
0.944692 0.445079 0.533174
1.000000 0.446836 0.534930
0.154411 0.546778 0.524293
0.267796 0.548535 0.526050
0.381182 0.550292 0.527806
0.494567 0.552049 0.529563
0.607952 0.553805 0.531320
0.721338 0.555562 0.533077
0.834723 0.557319 0.534833
0.948109 0.559075 0.536590
1.000000 0.560832 0.538347
0.157827 0.660775 0.527709
0.271212 0.662531 0.529466
0.384598 0.664288 0.531223
0.497983 0.666045 0.532979
0.611369 0.667802 0.534736
0.724754 0.669558 0.536493
0.838140 0.671315 0.538250
0.951525 0.673072 0.540006
1.000000 0.674828 0.541763
0.161243 0.774771 0.531126
0.274629 0.776528 0.532882
0.388014 0.778284 0.534639
0.501400 0.780041 0.536396
0.614785 0.781798 0.538153
0.728171 0.783554 0.539909
0.841556 0.785311 0.541666
0.954942 0.787068 0.543423
1.000000 0.788825 0.545179
0.164660 0.888767 0.534542
0.278045 0.890524 0.536299
0.391431 0.892281 0.538055
0.504816 0.894038 0.539812
0.618201 0.895794 0.541569
0.731587 0.897551 0.543326
0.844972 0.899308 0.545082
0.958358 0.901064 0.546839
1.000000 0.902821 0.548596
0.168076 1.000000 0.537958
0.281461 1.000000 0.539715
0.394847 1.000000 0.541472
0.508232 1.000000 0.543229
0.621618 1.000000 0.544985
0.735003 1.000000 0.546742
0.848389 1.000000 0.548499
0.961774 1.000000 0.550255
1.000000 1.000000 0.552012
0.141409 0.091457 0.621894
0.254794 0.093213 0.623651
0.368180 0.094970 0.625408
0.481565 0.096727 0.627164
0.594951 0.098483 0.628921
0.708336 0.100240 0.630678
0.821722 0.101997 0.632434
0.935107 0.103754 0.634191
1.000000 0.105510 0.635948
0.144825 0.205453 0.625311
0.258211 0.207210 0.627067
0.371596 0.208966 0.628824
0.484982 0.210723 0.630581
0.598367 0.212480 0.632337
0.711753 0.214237 0.634094
0.825138 0.215993 0.635851
0.938523 0.217750 0.637607
1.000000 0.219507 0.639364
0.148241 0.319449 0.628727
0.261627 0.321206 0.630484
0.375012 0.322963 0.632240
0.488398 0.324719 0.633997
0.601783 0.326476 0.635754
0.715169 0.328233 0.637510
0.828554 0.329989 0.639267
0.941940 0.331746 0.641024
1.000000 0.333503 0.642780
0.151658 0.433446 0.632143
0.265043 0.435202 0.633900
0.378429 0.436959 0.635657
0.491814 0.438716 0.637413
0.605200 0.440472 0.639170
0.718585 0.442229 0.640927
0.831971 0.443986 0.642683
0.945356 0.445743 0.644440
1.000000 0.447499 0.646197
0.155074 0.547442 0.635560
0.268460 0.549199 0.637316
0.381845 0.550955 0.639073
0.495231 0.552712 0.640830
0.608616 0.554469 0.642586
0.722001 0.556225 0.644343
0.835387 0.557982 0.646100
0.948772 0.559739 0.647856
1.000000 0.561496 0.649613
0.158490 0.661438 0.638976
0.271876 0.663195 0.640733
0.385261 0.664952 0.642489
0.498647 0.666708 0.644246
0.612032 0.668465 0.646003
0.725418 0.670222 0.647759
0.838803 0.671979 0.649516
0.952189 0.673735 0.651273
1.000000 0.675492 0.653029
0.161907 0.775435 0.642392
0.275292 0.777191 0.644149
0.388678 0.778948 0.645906
0.502063 0.780705 0.647662
0.615449 0.782461 0.649419
0.728834 0.784218 0.651176
0.842220 0.785975 0.652932
0.955605 0.787732 0.654689
1.000000 0.789488 0.656446
0.165323 0.889431 0.645809
0.278709 0.891188 0.647565
0.392094 0.892944 0.649322
0.505480 0.894701 0.651079
0.618865 0.896458 0.652835
0.732251 0.898215 0.654592
0.845636 0.899971 0.656349
0.959022 0.901728 0.658105
1.000000 0.903485 0.659862
0.168739 1.000000 0.649225
0.282125 1.000000 0.650982
0.395510 1.000000 0.652738
0.508896 1.000000 0.654495
0.622281 1.000000 0.656252
0.735667 1.000000 0.658008
0.849052 1.000000 0.659765
0.962438 1.000000 0.661522
1.000000 1.000000 0.663278
0.142072 0.092120 0.733161
0.255458 0.093877 0.734917
0.368843 0.095634 0.736674
0.482229 0.097390 0.738431
0.595614 0.099147 0.740187
0.709000 0.100904 0.741944
0.822385 0.102660 0.743701
0.935771 0.104417 0.745457
1.000000 0.106174 0.747214
0.145489 0.206117 0.736577
0.258874 0.207873 0.738334
0.372260 0.209630 0.740090
0.485645 0.211387 0.741847
0.599031 0.213143 0.743604
0.712416 0.214900 0.745360
0.825802 0.216657 0.747117
0.939187 0.218414 0.748874
1.000000 0.220170 0.750630
0.148905 0.320113 0.739993
0.262291 0.321870 0.741750
0.375676 0.323626 0.743507
0.489062 0.325383 0.745263
0.602447 0.327140 0.747020
0.715832 0.328896 0.748777
0.829218 0.330653 0.750533
0.942603 0.332410 0.752290
1.000000 0.334166 0.754047
0.152321 0.434109 0.743410
0.265707 0.435866 0.745166
0.379092 0.437623 0.746923
0.492478 0.439379 0.748680
0.605863 0.441136 0.750436
0.719249 0.442893 0.752193
0.832634 0.444649 0.753950
0.946020 0.446406 0.755706
1.000000 0.448163 0.757463
0.155738 0.548106 0.746826
0.269123 0.549862 0.748583
0.382509 0.551619 0.750339
0.495894 0.553376 0.752096
0.609280 0.555132 0.753853
0.722665 0.556889 0.755609
0.836051 0.558646 0.757366
0.949436 0.560403 0.759123
1.000000 0.562159 0.760880
0.159154 0.662102 0.750242
0.272540 0.663859 0.751999
0.385925 0.665615 0.753756
0.499311 0.667372 0.755512
0.612696 0.669129 0.757269
0.726081 0.670885 0.759026
0.839467 0.672642 0.760782
0.952852 0.674399 0.762539
1.000000 0.676156 0.764296
0.162570 0.776098 0.753659
0.275956 0.777855 0.755415
0.389341 0.779612 0.757172
0.502727 0.781368 0.758929
0.616112 0.783125 0.760685
0.729498 0.784882 0.762442
0.842883 0.786638 0.764199
0.956269 0.788395 0.765956
1.000000 0.790152 0.767712
0.165987 0.890095 0.757075
0.279372 0.891851 0.758832
0.392758 0.893608 0.760588
0.506143 0.895365 0.762345
0.619529 0.897121 0.764102
0.732914 0.898878 0.765858
0.846300 0.900635 0.767615
0.959685 0.902391 0.769372
1.000000 0.904148 0.771129
0.169403 1.000000 0.760491
0.282789 1.000000 0.762248
0.396174 1.000000 0.764005
0.509560 1.000000 0.765761
0.622945 1.000000 0.767518
0.736331 1.000000 0.769275
0.849716 1.000000 0.771031
0.963101 1.000000 0.772788
1.000000 1.000000 0.774545
0.142736 0.092784 0.844427
0.256122 0.094541 0.846184
0.369507 0.096297 0.847940
0.482892 0.098054 0.849697
0.596278 0.099811 0.851454
0.709663 0.101567 0.853210
0.823049 0.103324 0.854967
0.936434 0.105081 0.856724
1.000000 0.106837 0.858480
0.146152 0.206780 0.847843
0.259538 0.208537 0.849600
0.372923 0.210294 0.851357
0.486309 0.212050 0.853113
0.599694 0.213807 0.854870
0.713080 0.215564 0.856627
0.826465 0.217320 0.858383
0.939851 0.219077 0.860140
1.000000 0.220834 0.861897
0.149569 0.320777 0.851260
0.262954 0.322533 0.853016
0.376340 0.324290 0.854773
0.489725 0.326047 0.856530
0.603111 0.327803 0.858286
0.716496 0.329560 0.860043
0.829882 0.331317 0.861800
0.943267 0.333073 0.863556
1.000000 0.334830 0.865313
0.152985 0.434773 0.854676
0.266371 0.436530 0.856433
0.379756 0.438286 0.858189
0.493142 0.440043 0.859946
0.606527 0.441800 0.861703
0.719912 0.443556 0.863459
0.833298 0.445313 0.865216
0.946683 0.447070 0.866973
1.000000 0.448826 0.868729
0.156401 0.548769 0.858092
0.269787 0.550526 0.859849
0.383172 0.552283 0.861606
0.496558 0.554039 0.863362
0.609943 0.555796 0.865119
0.723329 0.557553 0.866876
0.836714 0.559309 0.868632
0.950100 0.561066 0.870389
1.000000 0.562823 0.872146
0.159818 0.662766 0.861509
0.273203 0.664522 0.863265
0.386589 0.666279 0.865022
0.499974 0.668036 0.866779
0.613360 0.669792 0.868535
0.726745 0.671549 0.870292
0.840131 0.673306 0.872049
0.953516 0.675062 0.873805
1.000000 0.676819 0.875562
0.163234 0.776762 0.864925
0.276620 0.778519 0.866682
0.390005 0.780275 0.868438
0.503391 0.782032 0.870195
0.616776 0.783789 0.871952
0.730161 0.785545 0.873708
0.843547 0.787302 0.875465
0.956932 0.789059 0.877222
1.000000 0.790815 0.878978
0.166650 0.890758 0.868341
0.280036 0.892515 0.870098
0.393421 0.894272 0.871855
0.506807 0.896028 0.873611
0.620192 0.897785 0.875368
0.733578 0.899542 0.877125
0.846963 0.901298 0.878881
0.960349 0.903055 0.880638
1.000000 0.904812 0.882395
0.170067 1.000000 0.871758
0.283452 1.000000 0.873514
0.396838 1.000000 0.875271
0.510223 1.000000 0.877028
0.623609 1.000000 0.878784
0.736994 1.000000 0.880541
0.850380 1.000000 0.882298
0.963765 1.000000 0.884054
1.000000 1.000000 0.885811
0.143400 0.093448 0.955693
0.256785 0.095204 0.957450
0.370171 0.096961 0.959207
0.483556 0.098718 0.960963
0.596942 0.100474 0.962720
0.710327 0.102231 0.964477
0.823713 0.103988 0.966234
0.937098 0.105744 0.967990
1.000000 0.107501 0.969747
0.146816 0.207444 0.959110
0.260201 0.209201 0.960866
0.373587 0.210957 0.962623
0.486972 0.212714 0.964380
0.600358 0.214471 0.966136
0.713743 0.216227 0.967893
0.827129 0.217984 0.969650
0.940514 0.219741 0.971407
1.000000 0.221497 0.973163
0.150232 0.321440 0.962526
0.263618 0.323197 0.964283
0.377003 0.324954 0.966039
0.490389 0.326710 0.967796
0.603774 0.328467 0.969553
0.717160 0.330224 0.971310
0.830545 0.331980 0.973066
0.943931 0.333737 0.974823
1.000000 0.335494 0.976580
0.153649 0.435437 0.965942
0.267034 0.437193 0.967699
0.380420 0.438950 0.969456
0.493805 0.440707 0.971213
0.607191 0.442463 0.972969
0.720576 0.444220 0.974726
0.833962 0.445977 0.976483
0.947347 0.447733 0.978239
1.000000 0.449490 0.979996
0.157065 0.549433 0.969359
0.270450 0.551190 0.971115
0.383836 0.552946 0.972872
0.497221 0.554703 0.974629
0.610607 0.556460 0.976385
0.723992 0.558216 0.978142
0.837378 0.559973 0.979899
0.950763 0.561730 0.981656
1.000000 0.563486 0.983412
0.160481 0.663429 0.972775
0.273867 0.665186 0.974532
0.387252 0.666943 0.976288
0.500638 0.668699 0.978045
0.614023 0.670456 0.979802
0.727409 0.672213 0.981559
0.840794 0.673969 0.983315
0.954180 0.675726 0.985072
1.000000 0.677483 0.986829
0.163898 0.777426 0.976191
0.277283 0.779182 0.977948
0.390669 0.780939 0.979705
0.504054 0.782696 0.981462
0.617440 0.784452 0.983218
0.730825 0.786209 0.984975
0.844211 0.787966 0.986732
0.957596 0.789722 0.988488
1.000000 0.791479 0.990245
0.167314 0.891422 0.979608
0.280699 0.893179 0.981364
0.394085 0.894935 0.983121
0.507470 0.896692 0.984878
0.620856 0.898449 0.986635
0.734241 0.900205 0.988391
0.847627 0.901962 0.990148
0.961012 0.903719 0.991905
1.000000 0.905475 0.993661
0.170730 1.000000 0.983024
0.284116 1.000000 0.984781
0.397501 1.000000 0.986538
0.510887 1.000000 0.988294
0.624272 1.000000 0.990051
0.737658 1.000000 0.991808
0.851043 1.000000 0.993564
0.964429 1.000000 0.995321
1.000000 1.000000 0.997078
