app/src/main/assets/luts/portrait_soft_skin.cube
# V-Cam procedural LUT — portrait_soft_skin
# Generated by LutBaker. Do not edit by hand.
TITLE "V-Cam portrait_soft_skin"
LUT_3D_SIZE 33
DOMAIN_MIN 0.0 0.0 0.0
DOMAIN_MAX 1.0 1.0 1.0
0.138115 0.088163 0.069649
0.166461 0.088602 0.070089
0.194808 0.089041 0.070528
0.223154 0.089481 0.070967
0.251501 0.089920 0.071406
0.279847 0.090359 0.071845
0.308193 0.090798 0.072284
0.336540 0.091237 0.072724
0.364886 0.091676 0.073163
0.393232 0.092116 0.073602
0.421579 0.092555 0.074041
0.449925 0.092994 0.074480
0.478272 0.093433 0.074919
0.506618 0.093872 0.075359
0.534964 0.094311 0.075798
0.563311 0.094751 0.076237
0.591657 0.095190 0.076676
0.620003 0.095629 0.077115
0.648350 0.096068 0.077555
0.676696 0.096507 0.077994
0.705042 0.096946 0.078433
0.733389 0.097386 0.078872
0.761735 0.097825 0.079311
0.790082 0.098264 0.079750
0.818428 0.098703 0.080190
0.846774 0.099142 0.080629
0.875121 0.099581 0.081068
0.903467 0.100021 0.081507
0.931813 0.100460 0.081946
0.960160 0.100899 0.082385
0.988506 0.101338 0.082825
1.000000 0.101777 0.083264
1.000000 0.102216 0.083703
0.138969 0.116662 0.070504
0.167316 0.117101 0.070943
0.195662 0.117540 0.071382
0.224008 0.117980 0.071821
0.252355 0.118419 0.072260
0.280701 0.118858 0.072699
0.309047 0.119297 0.073139
0.337394 0.119736 0.073578
0.365740 0.120175 0.074017
0.394087 0.120615 0.074456
0.422433 0.121054 0.074895
0.450779 0.121493 0.075334
0.479126 0.121932 0.075774
0.507472 0.122371 0.076213
0.535818 0.122811 0.076652
0.564165 0.123250 0.077091
0.592511 0.123689 0.077530
0.620857 0.124128 0.077969
0.649204 0.124567 0.078409
0.677550 0.125006 0.078848
0.705896 0.125446 0.079287
0.734243 0.125885 0.079726
0.762589 0.126324 0.080165
0.790936 0.126763 0.080604
0.819282 0.127202 0.081044
0.847628 0.127641 0.081483
0.875975 0.128081 0.081922
0.904321 0.128520 0.082361
0.932667 0.128959 0.082800
0.961014 0.129398 0.083239
0.989360 0.129837 0.083679
1.000000 0.130276 0.084118
1.000000 0.130716 0.084557
0.139823 0.145161 0.071358
0.168170 0.145600 0.071797
0.196516 0.146040 0.072236
0.224862 0.146479 0.072675
0.253209 0.146918 0.073114
0.281555 0.147357 0.073553
0.309901 0.147796 0.073993
0.338248 0.148235 0.074432
0.366594 0.148675 0.074871
0.394941 0.149114 0.075310
0.423287 0.149553 0.075749
0.451633 0.149992 0.076188
0.479980 0.150431 0.076628
0.508326 0.150870 0.077067
0.536672 0.151310 0.077506
0.565019 0.151749 0.077945
0.593365 0.152188 0.078384
0.621711 0.152627 0.078824
0.650058 0.153066 0.079263
0.678404 0.153505 0.079702
0.706751 0.153945 0.080141
0.735097 0.154384 0.080580
0.763443 0.154823 0.081019
0.791790 0.155262 0.081459
0.820136 0.155701 0.081898
0.848482 0.156140 0.082337
0.876829 0.156580 0.082776
0.905175 0.157019 0.083215
0.933522 0.157458 0.083654
0.961868 0.157897 0.084094
0.990214 0.158336 0.084533
1.000000 0.158775 0.084972
1.000000 0.159215 0.085411
0.140677 0.173660 0.072212
0.169024 0.174099 0.072651
0.197370 0.174539 0.073090
0.225716 0.174978 0.073529
0.254063 0.175417 0.073968
0.282409 0.175856 0.074408
0.310756 0.176295 0.074847
0.339102 0.176734 0.075286
0.367448 0.177174 0.075725
0.395795 0.177613 0.076164
0.424141 0.178052 0.076603
0.452487 0.178491 0.077043
0.480834 0.178930 0.077482
0.509180 0.179370 0.077921
0.537527 0.179809 0.078360
0.565873 0.180248 0.078799
0.594219 0.180687 0.079238
0.622566 0.181126 0.079678
0.650912 0.181565 0.080117
0.679258 0.182005 0.080556
0.707605 0.182444 0.080995
0.735951 0.182883 0.081434
0.764297 0.183322 0.081873
0.792644 0.183761 0.082313
0.820990 0.184200 0.082752
0.849337 0.184640 0.083191
0.877683 0.185079 0.083630
0.906029 0.185518 0.084069
0.934376 0.185957 0.084508
0.962722 0.186396 0.084948
0.991068 0.186835 0.085387
1.000000 0.187275 0.085826
1.000000 0.187714 0.086265
0.141531 0.202159 0.073066
0.169878 0.202599 0.073505
0.198224 0.203038 0.073944
0.226571 0.203477 0.074383
0.254917 0.203916 0.074822
0.283263 0.204355 0.075262
0.311610 0.204794 0.075701
0.339956 0.205234 0.076140
0.368302 0.205673 0.076579
0.396649 0.206112 0.077018
0.424995 0.206551 0.077457
0.453341 0.206990 0.077897
0.481688 0.207429 0.078336
0.510034 0.207869 0.078775
0.538381 0.208308 0.079214
0.566727 0.208747 0.079653
0.595073 0.209186 0.080093
0.623420 0.209625 0.080532
0.651766 0.210064 0.080971
0.680112 0.210504 0.081410
0.708459 0.210943 0.081849
0.736805 0.211382 0.082288
0.765152 0.211821 0.082728
0.793498 0.212260 0.083167
0.821844 0.212699 0.083606
0.850191 0.213139 0.084045
0.878537 0.213578 0.084484
0.906883 0.214017 0.084923
0.935230 0.214456 0.085363
0.963576 0.214895 0.085802
0.991922 0.215335 0.086241
1.000000 0.215774 0.086680
1.000000 0.216213 0.087119
0.142385 0.230658 0.073920
0.170732 0.231098 0.074359
0.199078 0.231537 0.074798
0.227425 0.231976 0.075237
0.255771 0.232415 0.075677
0.284117 0.232854 0.076116
0.312464 0.233293 0.076555
0.340810 0.233733 0.076994
0.369156 0.234172 0.077433
0.397503 0.234611 0.077872
0.425849 0.235050 0.078312
0.454196 0.235489 0.078751
0.482542 0.235928 0.079190
0.510888 0.236368 0.079629
0.539235 0.236807 0.080068
0.567581 0.237246 0.080507
0.595927 0.237685 0.080947
0.624274 0.238124 0.081386
0.652620 0.238564 0.081825
0.680966 0.239003 0.082264
0.709313 0.239442 0.082703
0.737659 0.239881 0.083142
0.766006 0.240320 0.083582
0.794352 0.240759 0.084021
0.822698 0.241199 0.084460
0.851045 0.241638 0.084899
0.879391 0.242077 0.085338
0.907737 0.242516 0.085777
0.936084 0.242955 0.086217
0.964430 0.243394 0.086656
0.992777 0.243834 0.087095
1.000000 0.244273 0.087534
1.000000 0.244712 0.087973
0.143240 0.259158 0.074774
0.171586 0.259597 0.075213
0.199932 0.260036 0.075652
0.228279 0.260475 0.076091
0.256625 0.260914 0.076531
0.284971 0.261353 0.076970
0.313318 0.261793 0.077409
0.341664 0.262232 0.077848
0.370011 0.262671 0.078287
0.398357 0.263110 0.078726
0.426703 0.263549 0.079166
0.455050 0.263988 0.079605
0.483396 0.264428 0.080044
0.511742 0.264867 0.080483
0.540089 0.265306 0.080922
0.568435 0.265745 0.081362
0.596781 0.266184 0.081801
0.625128 0.266623 0.082240
0.653474 0.267063 0.082679
0.681821 0.267502 0.083118
0.710167 0.267941 0.083557
0.738513 0.268380 0.083997
0.766860 0.268819 0.084436
0.795206 0.269258 0.084875
0.823552 0.269698 0.085314
0.851899 0.270137 0.085753
0.880245 0.270576 0.086192
0.908592 0.271015 0.086632
0.936938 0.271454 0.087071
0.965284 0.271894 0.087510
0.993631 0.272333 0.087949
1.000000 0.272772 0.088388
1.000000 0.273211 0.088827
0.144094 0.287657 0.075628
0.172440 0.288096 0.076067
0.200786 0.288535 0.076506
0.229133 0.288974 0.076946
0.257479 0.289413 0.077385
0.285826 0.289852 0.077824
0.314172 0.290292 0.078263
0.342518 0.290731 0.078702
0.370865 0.291170 0.079141
0.399211 0.291609 0.079581
0.427557 0.292048 0.080020
0.455904 0.292488 0.080459
0.484250 0.292927 0.080898
0.512596 0.293366 0.081337
0.540943 0.293805 0.081776
0.569289 0.294244 0.082216
0.597636 0.294683 0.082655
0.625982 0.295123 0.083094
0.654328 0.295562 0.083533
0.682675 0.296001 0.083972
0.711021 0.296440 0.084411
0.739367 0.296879 0.084851
0.767714 0.297318 0.085290
0.796060 0.297758 0.085729
0.824407 0.298197 0.086168
0.852753 0.298636 0.086607
0.881099 0.299075 0.087046
0.909446 0.299514 0.087486
0.937792 0.299953 0.087925
0.966138 0.300393 0.088364
0.994485 0.300832 0.088803
1.000000 0.301271 0.089242
1.000000 0.301710 0.089682
0.144948 0.316156 0.076482
0.173294 0.316595 0.076921
0.201641 0.317034 0.077360
0.229987 0.317473 0.077800
0.258333 0.317912 0.078239
0.286680 0.318352 0.078678
0.315026 0.318791 0.079117
0.343372 0.319230 0.079556
0.371719 0.319669 0.079995
0.400065 0.320108 0.080435
0.428411 0.320547 0.080874
0.456758 0.320987 0.081313
0.485104 0.321426 0.081752
0.513451 0.321865 0.082191
0.541797 0.322304 0.082631
0.570143 0.322743 0.083070
0.598490 0.323182 0.083509
0.626836 0.323622 0.083948
0.655182 0.324061 0.084387
0.683529 0.324500 0.084826
0.711875 0.324939 0.085266
0.740222 0.325378 0.085705
0.768568 0.325817 0.086144
0.796914 0.326257 0.086583
0.825261 0.326696 0.087022
0.853607 0.327135 0.087461
0.881953 0.327574 0.087901
0.910300 0.328013 0.088340
0.938646 0.328452 0.088779
0.966992 0.328892 0.089218
0.995339 0.329331 0.089657
1.000000 0.329770 0.090096
1.000000 0.330209 0.090536
0.145802 0.344655 0.077336
0.174148 0.345094 0.077775
0.202495 0.345533 0.078215
0.230841 0.345972 0.078654
0.259187 0.346411 0.079093
0.287534 0.346851 0.079532
0.315880 0.347290 0.079971
0.344226 0.347729 0.080410
0.372573 0.348168 0.080850
0.400919 0.348607 0.081289
0.429266 0.349047 0.081728
0.457612 0.349486 0.082167
0.485958 0.349925 0.082606
0.514305 0.350364 0.083045
0.542651 0.350803 0.083485
0.570997 0.351242 0.083924
0.599344 0.351682 0.084363
0.627690 0.352121 0.084802
0.656036 0.352560 0.085241
0.684383 0.352999 0.085680
0.712729 0.353438 0.086120
0.741076 0.353877 0.086559
0.769422 0.354317 0.086998
0.797768 0.354756 0.087437
0.826115 0.355195 0.087876
0.854461 0.355634 0.088315
0.882807 0.356073 0.088755
0.911154 0.356512 0.089194
0.939500 0.356952 0.089633
0.967847 0.357391 0.090072
0.996193 0.357830 0.090511
1.000000 0.358269 0.090950
1.000000 0.358708 0.091390
0.146656 0.373154 0.078190
0.175002 0.373593 0.078629
0.203349 0.374032 0.079069
0.231695 0.374471 0.079508
0.260041 0.374911 0.079947
0.288388 0.375350 0.080386
0.316734 0.375789 0.080825
0.345081 0.376228 0.081264
0.373427 0.376667 0.081704
0.401773 0.377106 0.082143
0.430120 0.377546 0.082582
0.458466 0.377985 0.083021
0.486812 0.378424 0.083460
0.515159 0.378863 0.083899
0.543505 0.379302 0.084339
0.571851 0.379741 0.084778
0.600198 0.380181 0.085217
0.628544 0.380620 0.085656
0.656891 0.381059 0.086095
0.685237 0.381498 0.086535
0.713583 0.381937 0.086974
0.741930 0.382376 0.087413
0.770276 0.382816 0.087852
0.798622 0.383255 0.088291
0.826969 0.383694 0.088730
0.855315 0.384133 0.089170
0.883662 0.384572 0.089609
0.912008 0.385011 0.090048
0.940354 0.385451 0.090487
0.968701 0.385890 0.090926
0.997047 0.386329 0.091365
1.000000 0.386768 0.091805
1.000000 0.387207 0.092244
0.147510 0.401653 0.079044
0.175856 0.402092 0.079484
0.204203 0.402531 0.079923
0.232549 0.402970 0.080362
0.260895 0.403410 0.080801
0.289242 0.403849 0.081240
0.317588 0.404288 0.081679
0.345935 0.404727 0.082119
0.374281 0.405166 0.082558
0.402627 0.405605 0.082997
0.430974 0.406045 0.083436
0.459320 0.406484 0.083875
0.487666 0.406923 0.084314
0.516013 0.407362 0.084754
0.544359 0.407801 0.085193
0.572706 0.408241 0.085632
0.601052 0.408680 0.086071
0.629398 0.409119 0.086510
0.657745 0.409558 0.086949
0.686091 0.409997 0.087389
0.714437 0.410436 0.087828
0.742784 0.410876 0.088267
0.771130 0.411315 0.088706
0.799477 0.411754 0.089145
0.827823 0.412193 0.089584
0.856169 0.412632 0.090024
0.884516 0.413071 0.090463
0.912862 0.413511 0.090902
0.941208 0.413950 0.091341
0.969555 0.414389 0.091780
0.997901 0.414828 0.092220
1.000000 0.415267 0.092659
1.000000 0.415706 0.093098
0.148364 0.430152 0.079898
0.176710 0.430591 0.080338
0.205057 0.431030 0.080777
0.233403 0.431470 0.081216
0.261750 0.431909 0.081655
0.290096 0.432348 0.082094
0.318442 0.432787 0.082533
0.346789 0.433226 0.082973
0.375135 0.433665 0.083412
0.403481 0.434105 0.083851
0.431828 0.434544 0.084290
0.460174 0.434983 0.084729
0.488521 0.435422 0.085169
0.516867 0.435861 0.085608
0.545213 0.436300 0.086047
0.573560 0.436740 0.086486
0.601906 0.437179 0.086925
0.630252 0.437618 0.087364
0.658599 0.438057 0.087804
0.686945 0.438496 0.088243
0.715292 0.438935 0.088682
0.743638 0.439375 0.089121
0.771984 0.439814 0.089560
0.800331 0.440253 0.089999
0.828677 0.440692 0.090439
0.857023 0.441131 0.090878
0.885370 0.441570 0.091317
0.913716 0.442010 0.091756
0.942062 0.442449 0.092195
0.970409 0.442888 0.092634
0.998755 0.443327 0.093074
1.000000 0.443766 0.093513
1.000000 0.444206 0.093952
0.149218 0.458651 0.080753
0.177565 0.459090 0.081192
0.205911 0.459529 0.081631
0.234257 0.459969 0.082070
0.262604 0.460408 0.082509
0.290950 0.460847 0.082948
0.319296 0.461286 0.083388
0.347643 0.461725 0.083827
0.375989 0.462165 0.084266
0.404336 0.462604 0.084705
0.432682 0.463043 0.085144
0.461028 0.463482 0.085583
0.489375 0.463921 0.086023
0.517721 0.464360 0.086462
0.546067 0.464800 0.086901
0.574414 0.465239 0.087340
0.602760 0.465678 0.087779
0.631106 0.466117 0.088218
0.659453 0.466556 0.088658
0.687799 0.466995 0.089097
0.716146 0.467435 0.089536
0.744492 0.467874 0.089975
0.772838 0.468313 0.090414
0.801185 0.468752 0.090853
0.829531 0.469191 0.091293
0.857877 0.469630 0.091732
0.886224 0.470070 0.092171
0.914570 0.470509 0.092610
0.942917 0.470948 0.093049
0.971263 0.471387 0.093489
0.999609 0.471826 0.093928
1.000000 0.472265 0.094367
1.000000 0.472705 0.094806
0.150072 0.487150 0.081607
0.178419 0.487589 0.082046
0.206765 0.488029 0.082485
0.235111 0.488468 0.082924
0.263458 0.488907 0.083363
0.291804 0.489346 0.083802
0.320150 0.489785 0.084242
0.348497 0.490224 0.084681
0.376843 0.490664 0.085120
0.405190 0.491103 0.085559
0.433536 0.491542 0.085998
0.461882 0.491981 0.086437
0.490229 0.492420 0.086877
0.518575 0.492859 0.087316
0.546921 0.493299 0.087755
0.575268 0.493738 0.088194
0.603614 0.494177 0.088633
0.631961 0.494616 0.089073
0.660307 0.495055 0.089512
0.688653 0.495494 0.089951
0.717000 0.495934 0.090390
0.745346 0.496373 0.090829
0.773692 0.496812 0.091268
0.802039 0.497251 0.091708
0.830385 0.497690 0.092147
0.858732 0.498129 0.092586
0.887078 0.498569 0.093025
0.915424 0.499008 0.093464
0.943771 0.499447 0.093903
0.972117 0.499886 0.094343
1.000000 0.500325 0.094782
1.000000 0.500764 0.095221
1.000000 0.501204 0.095660
0.150926 0.515649 0.082461
0.179273 0.516088 0.082900
0.207619 0.516528 0.083339
0.235965 0.516967 0.083778
0.264312 0.517406 0.084217
0.292658 0.517845 0.084657
0.321005 0.518284 0.085096
0.349351 0.518723 0.085535
0.377697 0.519163 0.085974
0.406044 0.519602 0.086413
0.434390 0.520041 0.086852
0.462736 0.520480 0.087292
0.491083 0.520919 0.087731
0.519429 0.521358 0.088170
0.547776 0.521798 0.088609
0.576122 0.522237 0.089048
0.604468 0.522676 0.089487
0.632815 0.523115 0.089927
0.661161 0.523554 0.090366
0.689507 0.523994 0.090805
0.717854 0.524433 0.091244
0.746200 0.524872 0.091683
0.774546 0.525311 0.092122
0.802893 0.525750 0.092562
0.831239 0.526189 0.093001
0.859586 0.526629 0.093440
0.887932 0.527068 0.093879
0.916278 0.527507 0.094318
0.944625 0.527946 0.094757
0.972971 0.528385 0.095197
1.000000 0.528824 0.095636
1.000000 0.529264 0.096075
1.000000 0.529703 0.096514
0.151780 0.544148 0.083315
0.180127 0.544588 0.083754
0.208473 0.545027 0.084193
0.236820 0.545466 0.084632
0.265166 0.545905 0.085071
0.293512 0.546344 0.085511
0.321859 0.546783 0.085950
0.350205 0.547223 0.086389
0.378551 0.547662 0.086828
0.406898 0.548101 0.087267
0.435244 0.548540 0.087707
0.463591 0.548979 0.088146
0.491937 0.549418 0.088585
0.520283 0.549858 0.089024
0.548630 0.550297 0.089463
0.576976 0.550736 0.089902
0.605322 0.551175 0.090342
0.633669 0.551614 0.090781
0.662015 0.552053 0.091220
0.690361 0.552493 0.091659
0.718708 0.552932 0.092098
0.747054 0.553371 0.092537
0.775401 0.553810 0.092977
0.803747 0.554249 0.093416
0.832093 0.554688 0.093855
0.860440 0.555128 0.094294
0.888786 0.555567 0.094733
0.917132 0.556006 0.095172
0.945479 0.556445 0.095612
0.973825 0.556884 0.096051
1.000000 0.557324 0.096490
1.000000 0.557763 0.096929
1.000000 0.558202 0.097368
0.152635 0.572647 0.084169
0.180981 0.573087 0.084608
0.209327 0.573526 0.085047
0.237674 0.573965 0.085486
0.266020 0.574404 0.085926
0.294366 0.574843 0.086365
0.322713 0.575282 0.086804
0.351059 0.575722 0.087243
0.379405 0.576161 0.087682
0.407752 0.576600 0.088121
0.436098 0.577039 0.088561
0.464445 0.577478 0.089000
0.492791 0.577918 0.089439
0.521137 0.578357 0.089878
0.549484 0.578796 0.090317
0.577830 0.579235 0.090756
0.606176 0.579674 0.091196
0.634523 0.580113 0.091635
0.662869 0.580553 0.092074
0.691216 0.580992 0.092513
0.719562 0.581431 0.092952
0.747908 0.581870 0.093391
0.776255 0.582309 0.093831
0.804601 0.582748 0.094270
0.832947 0.583188 0.094709
0.861294 0.583627 0.095148
0.889640 0.584066 0.095587
0.917987 0.584505 0.096026
0.946333 0.584944 0.096466
0.974679 0.585383 0.096905
1.000000 0.585823 0.097344
1.000000 0.586262 0.097783
1.000000 0.586701 0.098222
0.153489 0.601147 0.085023
0.181835 0.601586 0.085462
0.210181 0.602025 0.085901
0.238528 0.602464 0.086340
0.266874 0.602903 0.086780
0.295220 0.603342 0.087219
0.323567 0.603782 0.087658
0.351913 0.604221 0.088097
0.380260 0.604660 0.088536
0.408606 0.605099 0.088975
0.436952 0.605538 0.089415
0.465299 0.605977 0.089854
0.493645 0.606417 0.090293
0.521991 0.606856 0.090732
0.550338 0.607295 0.091171
0.578684 0.607734 0.091611
0.607031 0.608173 0.092050
0.635377 0.608612 0.092489
0.663723 0.609052 0.092928
0.692070 0.609491 0.093367
0.720416 0.609930 0.093806
0.748762 0.610369 0.094246
0.777109 0.610808 0.094685
0.805455 0.611247 0.095124
0.833802 0.611687 0.095563
0.862148 0.612126 0.096002
0.890494 0.612565 0.096441
0.918841 0.613004 0.096881
0.947187 0.613443 0.097320
0.975533 0.613883 0.097759
1.000000 0.614322 0.098198
1.000000 0.614761 0.098637
1.000000 0.615200 0.099076
0.154343 0.629646 0.085877
0.182689 0.630085 0.086316
0.211035 0.630524 0.086755
0.239382 0.630963 0.087195
0.267728 0.631402 0.087634
0.296075 0.631841 0.088073
0.324421 0.632281 0.088512
0.352767 0.632720 0.088951
0.381114 0.633159 0.089390
0.409460 0.633598 0.089830
0.437806 0.634037 0.090269
0.466153 0.634477 0.090708
0.494499 0.634916 0.091147
0.522846 0.635355 0.091586
0.551192 0.635794 0.092025
0.579538 0.636233 0.092465
0.607885 0.636672 0.092904
0.636231 0.637112 0.093343
0.664577 0.637551 0.093782
0.692924 0.637990 0.094221
0.721270 0.638429 0.094660
0.749617 0.638868 0.095100
0.777963 0.639307 0.095539
0.806309 0.639747 0.095978
0.834656 0.640186 0.096417
0.863002 0.640625 0.096856
0.891348 0.641064 0.097296
0.919695 0.641503 0.097735
0.948041 0.641942 0.098174
0.976387 0.642382 0.098613
1.000000 0.642821 0.099052
1.000000 0.643260 0.099491
1.000000 0.643699 0.099931
0.155197 0.658145 0.086731
0.183543 0.658584 0.087170
0.211890 0.659023 0.087609
0.240236 0.659462 0.088049
0.268582 0.659901 0.088488
0.296929 0.660341 0.088927
0.325275 0.660780 0.089366
0.353621 0.661219 0.089805
0.381968 0.661658 0.090245
0.410314 0.662097 0.090684
0.438661 0.662536 0.091123
0.467007 0.662976 0.091562
0.495353 0.663415 0.092001
0.523700 0.663854 0.092440
0.552046 0.664293 0.092880
0.580392 0.664732 0.093319
0.608739 0.665171 0.093758
0.637085 0.665611 0.094197
0.665431 0.666050 0.094636
0.693778 0.666489 0.095075
0.722124 0.666928 0.095515
0.750471 0.667367 0.095954
0.778817 0.667807 0.096393
0.807163 0.668246 0.096832
0.835510 0.668685 0.097271
0.863856 0.669124 0.097710
0.892202 0.669563 0.098150
0.920549 0.670002 0.098589
0.948895 0.670442 0.099028
0.977241 0.670881 0.099467
1.000000 0.671320 0.099906
1.000000 0.671759 0.100345
1.000000 0.672198 0.100785
0.156051 0.686644 0.087585
0.184397 0.687083 0.088024
0.212744 0.687522 0.088464
0.241090 0.687961 0.088903
0.269436 0.688401 0.089342
0.297783 0.688840 0.089781
0.326129 0.689279 0.090220
0.354475 0.689718 0.090659
0.382822 0.690157 0.091099
0.411168 0.690596 0.091538
0.439515 0.691036 0.091977
0.467861 0.691475 0.092416
0.496207 0.691914 0.092855
0.524554 0.692353 0.093294
0.552900 0.692792 0.093734
0.581246 0.693231 0.094173
0.609593 0.693671 0.094612
0.637939 0.694110 0.095051
0.666286 0.694549 0.095490
0.694632 0.694988 0.095929
0.722978 0.695427 0.096369
0.751325 0.695866 0.096808
0.779671 0.696306 0.097247
0.808017 0.696745 0.097686
0.836364 0.697184 0.098125
0.864710 0.697623 0.098565
0.893056 0.698062 0.099004
0.921403 0.698501 0.099443
0.949749 0.698941 0.099882
0.978096 0.699380 0.100321
1.000000 0.699819 0.100760
1.000000 0.700258 0.101200
1.000000 0.700697 0.101639
0.156905 0.715143 0.088439
0.185251 0.715582 0.088878
0.213598 0.716021 0.089318
0.241944 0.716460 0.089757
0.270290 0.716900 0.090196
0.298637 0.717339 0.090635
0.326983 0.717778 0.091074
0.355330 0.718217 0.091514
0.383676 0.718656 0.091953
0.412022 0.719095 0.092392
0.440369 0.719535 0.092831
0.468715 0.719974 0.093270
0.497061 0.720413 0.093709
0.525408 0.720852 0.094149
0.553754 0.721291 0.094588
0.582101 0.721731 0.095027
0.610447 0.722170 0.095466
0.638793 0.722609 0.095905
0.667140 0.723048 0.096344
0.695486 0.723487 0.096784
0.723832 0.723926 0.097223
0.752179 0.724366 0.097662
0.780525 0.724805 0.098101
0.808871 0.725244 0.098540
0.837218 0.725683 0.098979
0.865564 0.726122 0.099419
0.893911 0.726561 0.099858
0.922257 0.727001 0.100297
0.950603 0.727440 0.100736
0.978950 0.727879 0.101175
1.000000 0.728318 0.101614
1.000000 0.728757 0.102054
1.000000 0.729196 0.102493
0.157759 0.743642 0.089293
0.186105 0.744081 0.089733
0.214452 0.744520 0.090172
0.242798 0.744959 0.090611
0.271145 0.745399 0.091050
0.299491 0.745838 0.091489
0.327837 0.746277 0.091928
0.356184 0.746716 0.092368
0.384530 0.747155 0.092807
0.412876 0.747595 0.093246
0.441223 0.748034 0.093685
0.469569 0.748473 0.094124
0.497916 0.748912 0.094563
0.526262 0.749351 0.095003
0.554608 0.749790 0.095442
0.582955 0.750230 0.095881
0.611301 0.750669 0.096320
0.639647 0.751108 0.096759
0.667994 0.751547 0.097198
0.696340 0.751986 0.097638
0.724686 0.752425 0.098077
0.753033 0.752865 0.098516
0.781379 0.753304 0.098955
0.809726 0.753743 0.099394
0.838072 0.754182 0.099833
0.866418 0.754621 0.100273
0.894765 0.755060 0.100712
0.923111 0.755500 0.101151
0.951457 0.755939 0.101590
0.979804 0.756378 0.102029
1.000000 0.756817 0.102469
1.000000 0.757256 0.102908
1.000000 0.757695 0.103347
0.158613 0.772141 0.090147
0.186959 0.772580 0.090587
0.215306 0.773019 0.091026
0.243652 0.773458 0.091465
0.271999 0.773898 0.091904
0.300345 0.774337 0.092343
0.328691 0.774776 0.092782
0.357038 0.775215 0.093222
0.385384 0.775654 0.093661
0.413730 0.776094 0.094100
0.442077 0.776533 0.094539
0.470423 0.776972 0.094978
0.498770 0.777411 0.095417
0.527116 0.777850 0.095857
0.555462 0.778289 0.096296
0.583809 0.778729 0.096735
0.612155 0.779168 0.097174
0.640501 0.779607 0.097613
0.668848 0.780046 0.098053
0.697194 0.780485 0.098492
0.725540 0.780924 0.098931
0.753887 0.781364 0.099370
0.782233 0.781803 0.099809
0.810580 0.782242 0.100248
0.838926 0.782681 0.100688
0.867272 0.783120 0.101127
0.895619 0.783559 0.101566
0.923965 0.783999 0.102005
0.952311 0.784438 0.102444
0.980658 0.784877 0.102883
1.000000 0.785316 0.103323
1.000000 0.785755 0.103762
1.000000 0.786195 0.104201
0.159467 0.800640 0.091002
0.187814 0.801079 0.091441
0.216160 0.801518 0.091880
0.244506 0.801958 0.092319
0.272853 0.802397 0.092758
0.301199 0.802836 0.093197
0.329545 0.803275 0.093637
0.357892 0.803714 0.094076
0.386238 0.804154 0.094515
0.414585 0.804593 0.094954
0.442931 0.805032 0.095393
0.471277 0.805471 0.095832
0.499624 0.805910 0.096272
0.527970 0.806349 0.096711
0.556316 0.806789 0.097150
0.584663 0.807228 0.097589
0.613009 0.807667 0.098028
0.641355 0.808106 0.098467
0.669702 0.808545 0.098907
0.698048 0.808984 0.099346
0.726395 0.809424 0.099785
0.754741 0.809863 0.100224
0.783087 0.810302 0.100663
0.811434 0.810741 0.101102
0.839780 0.811180 0.101542
0.868126 0.811619 0.101981
0.896473 0.812059 0.102420
0.924819 0.812498 0.102859
0.953166 0.812937 0.103298
0.981512 0.813376 0.103738
1.000000 0.813815 0.104177
1.000000 0.814254 0.104616
1.000000 0.814694 0.105055
0.160321 0.829139 0.091856
0.188668 0.829578 0.092295
0.217014 0.830018 0.092734
0.245360 0.830457 0.093173
0.273707 0.830896 0.093612
0.302053 0.831335 0.094052
0.330400 0.831774 0.094491
0.358746 0.832213 0.094930
0.387092 0.832653 0.095369
0.415439 0.833092 0.095808
0.443785 0.833531 0.096247
0.472131 0.833970 0.096687
0.500478 0.834409 0.097126
0.528824 0.834848 0.097565
0.557171 0.835288 0.098004
0.585517 0.835727 0.098443
0.613863 0.836166 0.098882
0.642210 0.836605 0.099322
0.670556 0.837044 0.099761
0.698902 0.837483 0.100200
0.727249 0.837923 0.100639
0.755595 0.838362 0.101078
0.783941 0.838801 0.101517
0.812288 0.839240 0.101957
