app/src/main/assets/luts/portrait_studio_glow.cube
# V-Cam procedural LUT — portrait_studio_glow
# Generated by LutBaker. Do not edit by hand.
TITLE "V-Cam portrait_studio_glow"
LUT_3D_SIZE 33
DOMAIN_MIN 0.0 0.0 0.0
DOMAIN_MAX 1.0 1.0 1.0
0.281187 0.270101 0.270101
0.283853 0.270101 0.270101
0.286909 0.270101 0.270101
0.291357 0.270101 0.270101
0.297445 0.270101 0.270101
0.305381 0.270101 0.270101
0.315376 0.270101 0.270101
0.327628 0.270101 0.270101
0.342312 0.270101 0.270101
0.359569 0.270101 0.270101
0.379494 0.270101 0.270101
0.402128 0.270101 0.270101
0.427455 0.270101 0.270101
0.455396 0.270101 0.270101
0.485809 0.270101 0.270101
0.518491 0.270101 0.270101
0.553171 0.270101 0.270101
0.589505 0.270101 0.270101
0.627072 0.270101 0.270101
0.665370 0.270101 0.270101
0.703807 0.270101 0.270101
0.741710 0.270101 0.270101
0.778330 0.270101 0.270101
0.813107 0.270101 0.270101
0.845872 0.270101 0.270101
0.876489 0.270101 0.270101
0.904751 0.270101 0.270101
0.930293 0.270101 0.270101
0.952484 0.270101 0.270101
0.970326 0.270101 0.270101
0.982370 0.270101 0.270101
0.986695 0.270101 0.270101
0.986695 0.270101 0.270101
0.281187 0.272640 0.270101
0.283853 0.272640 0.270101
0.286909 0.272640 0.270101
0.291357 0.272640 0.270101
0.297445 0.272640 0.270101
0.305381 0.272640 0.270101
0.315376 0.272640 0.270101
0.327628 0.272640 0.270101
0.342312 0.272640 0.270101
0.359569 0.272640 0.270101
0.379494 0.272640 0.270101
0.402128 0.272640 0.270101
0.427455 0.272640 0.270101
0.455396 0.272640 0.270101
0.485809 0.272640 0.270101
0.518491 0.272640 0.270101
0.553171 0.272640 0.270101
0.589505 0.272640 0.270101
0.627072 0.272640 0.270101
0.665370 0.272640 0.270101
0.703807 0.272640 0.270101
0.741710 0.272640 0.270101
0.778330 0.272640 0.270101
0.813107 0.272640 0.270101
0.845872 0.272640 0.270101
0.876489 0.272640 0.270101
0.904751 0.272640 0.270101
0.930293 0.272640 0.270101
0.952484 0.272640 0.270101
0.970326 0.272640 0.270101
0.982370 0.272640 0.270101
0.986695 0.272640 0.270101
0.986695 0.272640 0.270101
0.281187 0.275560 0.270101
0.283853 0.275560 0.270101
0.286909 0.275560 0.270101
0.291357 0.275560 0.270101
0.297445 0.275560 0.270101
0.305381 0.275560 0.270101
0.315376 0.275560 0.270101
0.327628 0.275560 0.270101
0.342312 0.275560 0.270101
0.359569 0.275560 0.270101
0.379494 0.275560 0.270101
0.402128 0.275560 0.270101
0.427455 0.275560 0.270101
0.455396 0.275560 0.270101
0.485809 0.275560 0.270101
0.518491 0.275560 0.270101
0.553171 0.275560 0.270101
0.589505 0.275560 0.270101
0.627072 0.275560 0.270101
0.665370 0.275560 0.270101
0.703807 0.275560 0.270101
0.741710 0.275560 0.270101
0.778330 0.275560 0.270101
0.813107 0.275560 0.270101
0.845872 0.275560 0.270101
0.876489 0.275560 0.270101
0.904751 0.275560 0.270101
0.930293 0.275560 0.270101
0.952484 0.275560 0.270101
0.970326 0.275560 0.270101
0.982370 0.275560 0.270101
0.986695 0.275560 0.270101
0.986695 0.275560 0.270101
0.281187 0.279830 0.270101
0.283853 0.279830 0.270101
0.286909 0.279830 0.270101
0.291357 0.279830 0.270101
0.297445 0.279830 0.270101
0.305381 0.279830 0.270101
0.315376 0.279830 0.270101
0.327628 0.279830 0.270101
0.342312 0.279830 0.270101
0.359569 0.279830 0.270101
0.379494 0.279830 0.270101
0.402128 0.279830 0.270101
0.427455 0.279830 0.270101
0.455396 0.279830 0.270101
0.485809 0.279830 0.270101
0.518491 0.279830 0.270101
0.553171 0.279830 0.270101
0.589505 0.279830 0.270101
0.627072 0.279830 0.270101
0.665370 0.279830 0.270101
0.703807 0.279830 0.270101
0.741710 0.279830 0.270101
0.778330 0.279830 0.270101
0.813107 0.279830 0.270101
0.845872 0.279830 0.270101
0.876489 0.279830 0.270101
0.904751 0.279830 0.270101
0.930293 0.279830 0.270101
0.952484 0.279830 0.270101
0.970326 0.279830 0.270101
0.982370 0.279830 0.270101
0.986695 0.279830 0.270101
0.986695 0.279830 0.270101
0.281187 0.285706 0.270101
0.283853 0.285706 0.270101
0.286909 0.285706 0.270101
0.291357 0.285706 0.270101
0.297445 0.285706 0.270101
0.305381 0.285706 0.270101
0.315376 0.285706 0.270101
0.327628 0.285706 0.270101
0.342312 0.285706 0.270101
0.359569 0.285706 0.270101
0.379494 0.285706 0.270101
0.402128 0.285706 0.270101
0.427455 0.285706 0.270101
0.455396 0.285706 0.270101
0.485809 0.285706 0.270101
0.518491 0.285706 0.270101
0.553171 0.285706 0.270101
0.589505 0.285706 0.270101
0.627072 0.285706 0.270101
0.665370 0.285706 0.270101
0.703807 0.285706 0.270101
0.741710 0.285706 0.270101
0.778330 0.285706 0.270101
0.813107 0.285706 0.270101
0.845872 0.285706 0.270101
0.876489 0.285706 0.270101
0.904751 0.285706 0.270101
0.930293 0.285706 0.270101
0.952484 0.285706 0.270101
0.970326 0.285706 0.270101
0.982370 0.285706 0.270101
0.986695 0.285706 0.270101
0.986695 0.285706 0.270101
0.281187 0.293416 0.270101
0.283853 0.293416 0.270101
0.286909 0.293416 0.270101
0.291357 0.293416 0.270101
0.297445 0.293416 0.270101
0.305381 0.293416 0.270101
0.315376 0.293416 0.270101
0.327628 0.293416 0.270101
0.342312 0.293416 0.270101
0.359569 0.293416 0.270101
0.379494 0.293416 0.270101
0.402128 0.293416 0.270101
0.427455 0.293416 0.270101
0.455396 0.293416 0.270101
0.485809 0.293416 0.270101
0.518491 0.293416 0.270101
0.553171 0.293416 0.270101
0.589505 0.293416 0.270101
0.627072 0.293416 0.270101
0.665370 0.293416 0.270101
0.703807 0.293416 0.270101
0.741710 0.293416 0.270101
0.778330 0.293416 0.270101
0.813107 0.293416 0.270101
0.845872 0.293416 0.270101
0.876489 0.293416 0.270101
0.904751 0.293416 0.270101
0.930293 0.293416 0.270101
0.952484 0.293416 0.270101
0.970326 0.293416 0.270101
0.982370 0.293416 0.270101
0.986695 0.293416 0.270101
0.986695 0.293416 0.270101
0.281187 0.303191 0.270101
0.283853 0.303191 0.270101
0.286909 0.303191 0.270101
0.291357 0.303191 0.270101
0.297445 0.303191 0.270101
0.305381 0.303191 0.270101
0.315376 0.303191 0.270101
0.327628 0.303191 0.270101
0.342312 0.303191 0.270101
0.359569 0.303191 0.270101
0.379494 0.303191 0.270101
0.402128 0.303191 0.270101
0.427455 0.303191 0.270101
0.455396 0.303191 0.270101
0.485809 0.303191 0.270101
0.518491 0.303191 0.270101
0.553171 0.303191 0.270101
0.589505 0.303191 0.270101
0.627072 0.303191 0.270101
0.665370 0.303191 0.270101
0.703807 0.303191 0.270101
0.741710 0.303191 0.270101
0.778330 0.303191 0.270101
0.813107 0.303191 0.270101
0.845872 0.303191 0.270101
0.876489 0.303191 0.270101
0.904751 0.303191 0.270101
0.930293 0.303191 0.270101
0.952484 0.303191 0.270101
0.970326 0.303191 0.270101
0.982370 0.303191 0.270101
0.986695 0.303191 0.270101
0.986695 0.303191 0.270101
0.281187 0.315254 0.270101
0.283853 0.315254 0.270101
0.286909 0.315254 0.270101
0.291357 0.315254 0.270101
0.297445 0.315254 0.270101
0.305381 0.315254 0.270101
0.315376 0.315254 0.270101
0.327628 0.315254 0.270101
0.342312 0.315254 0.270101
0.359569 0.315254 0.270101
0.379494 0.315254 0.270101
0.402128 0.315254 0.270101
0.427455 0.315254 0.270101
0.455396 0.315254 0.270101
0.485809 0.315254 0.270101
0.518491 0.315254 0.270101
0.553171 0.315254 0.270101
0.589505 0.315254 0.270101
0.627072 0.315254 0.270101
0.665370 0.315254 0.270101
0.703807 0.315254 0.270101
0.741710 0.315254 0.270101
0.778330 0.315254 0.270101
0.813107 0.315254 0.270101
0.845872 0.315254 0.270101
0.876489 0.315254 0.270101
0.904751 0.315254 0.270101
0.930293 0.315254 0.270101
0.952484 0.315254 0.270101
0.970326 0.315254 0.270101
0.982370 0.315254 0.270101
0.986695 0.315254 0.270101
0.986695 0.315254 0.270101
0.281187 0.329805 0.270101
0.283853 0.329805 0.270101
0.286909 0.329805 0.270101
0.291357 0.329805 0.270101
0.297445 0.329805 0.270101
0.305381 0.329805 0.270101
0.315376 0.329805 0.270101
0.327628 0.329805 0.270101
0.342312 0.329805 0.270101
0.359569 0.329805 0.270101
0.379494 0.329805 0.270101
0.402128 0.329805 0.270101
0.427455 0.329805 0.270101
0.455396 0.329805 0.270101
0.485809 0.329805 0.270101
0.518491 0.329805 0.270101
0.553171 0.329805 0.270101
0.589505 0.329805 0.270101
0.627072 0.329805 0.270101
0.665370 0.329805 0.270101
0.703807 0.329805 0.270101
0.741710 0.329805 0.270101
0.778330 0.329805 0.270101
0.813107 0.329805 0.270101
0.845872 0.329805 0.270101
0.876489 0.329805 0.270101
0.904751 0.329805 0.270101
0.930293 0.329805 0.270101
0.952484 0.329805 0.270101
0.970326 0.329805 0.270101
0.982370 0.329805 0.270101
0.986695 0.329805 0.270101
0.986695 0.329805 0.270101
0.281187 0.347006 0.270101
0.283853 0.347006 0.270101
0.286909 0.347006 0.270101
0.291357 0.347006 0.270101
0.297445 0.347006 0.270101
0.305381 0.347006 0.270101
0.315376 0.347006 0.270101
0.327628 0.347006 0.270101
0.342312 0.347006 0.270101
0.359569 0.347006 0.270101
0.379494 0.347006 0.270101
0.402128 0.347006 0.270101
0.427455 0.347006 0.270101
0.455396 0.347006 0.270101
0.485809 0.347006 0.270101
0.518491 0.347006 0.270101
0.553171 0.347006 0.270101
0.589505 0.347006 0.270101
0.627072 0.347006 0.270101
0.665370 0.347006 0.270101
0.703807 0.347006 0.270101
0.741710 0.347006 0.270101
0.778330 0.347006 0.270101
0.813107 0.347006 0.270101
0.845872 0.347006 0.270101
0.876489 0.347006 0.270101
0.904751 0.347006 0.270101
0.930293 0.347006 0.270101
0.952484 0.347006 0.270101
0.970326 0.347006 0.270101
0.982370 0.347006 0.270101
0.986695 0.347006 0.270101
0.986695 0.347006 0.270101
0.281187 0.366969 0.270101
0.283853 0.366969 0.270101
0.286909 0.366969 0.270101
0.291357 0.366969 0.270101
0.297445 0.366969 0.270101
0.305381 0.366969 0.270101
0.315376 0.366969 0.270101
0.327628 0.366969 0.270101
0.342312 0.366969 0.270101
0.359569 0.366969 0.270101
0.379494 0.366969 0.270101
0.402128 0.366969 0.270101
0.427455 0.366969 0.270101
0.455396 0.366969 0.270101
0.485809 0.366969 0.270101
0.518491 0.366969 0.270101
0.553171 0.366969 0.270101
0.589505 0.366969 0.270101
0.627072 0.366969 0.270101
0.665370 0.366969 0.270101
0.703807 0.366969 0.270101
0.741710 0.366969 0.270101
0.778330 0.366969 0.270101
0.813107 0.366969 0.270101
0.845872 0.366969 0.270101
0.876489 0.366969 0.270101
0.904751 0.366969 0.270101
0.930293 0.366969 0.270101
0.952484 0.366969 0.270101
0.970326 0.366969 0.270101
0.982370 0.366969 0.270101
0.986695 0.366969 0.270101
0.986695 0.366969 0.270101
0.281187 0.389745 0.270101
0.283853 0.389745 0.270101
0.286909 0.389745 0.270101
0.291357 0.389745 0.270101
0.297445 0.389745 0.270101
0.305381 0.389745 0.270101
0.315376 0.389745 0.270101
0.327628 0.389745 0.270101
0.342312 0.389745 0.270101
0.359569 0.389745 0.270101
0.379494 0.389745 0.270101
0.402128 0.389745 0.270101
0.427455 0.389745 0.270101
0.455396 0.389745 0.270101
0.485809 0.389745 0.270101
0.518491 0.389745 0.270101
0.553171 0.389745 0.270101
0.589505 0.389745 0.270101
0.627072 0.389745 0.270101
0.665370 0.389745 0.270101
0.703807 0.389745 0.270101
0.741710 0.389745 0.270101
0.778330 0.389745 0.270101
0.813107 0.389745 0.270101
0.845872 0.389745 0.270101
0.876489 0.389745 0.270101
0.904751 0.389745 0.270101
0.930293 0.389745 0.270101
0.952484 0.389745 0.270101
0.970326 0.389745 0.270101
0.982370 0.389745 0.270101
0.986695 0.389745 0.270101
0.986695 0.389745 0.270101
0.281187 0.415320 0.270101
0.283853 0.415320 0.270101
0.286909 0.415320 0.270101
0.291357 0.415320 0.270101
0.297445 0.415320 0.270101
0.305381 0.415320 0.270101
0.315376 0.415320 0.270101
0.327628 0.415320 0.270101
0.342312 0.415320 0.270101
0.359569 0.415320 0.270101
0.379494 0.415320 0.270101
0.402128 0.415320 0.270101
0.427455 0.415320 0.270101
0.455396 0.415320 0.270101
0.485809 0.415320 0.270101
0.518491 0.415320 0.270101
0.553171 0.415320 0.270101
0.589505 0.415320 0.270101
0.627072 0.415320 0.270101
0.665370 0.415320 0.270101
0.703807 0.415320 0.270101
0.741710 0.415320 0.270101
0.778330 0.415320 0.270101
0.813107 0.415320 0.270101
0.845872 0.415320 0.270101
0.876489 0.415320 0.270101
0.904751 0.415320 0.270101
0.930293 0.415320 0.270101
0.952484 0.415320 0.270101
0.970326 0.415320 0.270101
0.982370 0.415320 0.270101
0.986695 0.415320 0.270101
0.986695 0.415320 0.270101
0.281187 0.443617 0.270101
0.283853 0.443617 0.270101
0.286909 0.443617 0.270101
0.291357 0.443617 0.270101
0.297445 0.443617 0.270101
0.305381 0.443617 0.270101
0.315376 0.443617 0.270101
0.327628 0.443617 0.270101
0.342312 0.443617 0.270101
0.359569 0.443617 0.270101
0.379494 0.443617 0.270101
0.402128 0.443617 0.270101
0.427455 0.443617 0.270101
0.455396 0.443617 0.270101
0.485809 0.443617 0.270101
0.518491 0.443617 0.270101
0.553171 0.443617 0.270101
0.589505 0.443617 0.270101
0.627072 0.443617 0.270101
0.665370 0.443617 0.270101
0.703807 0.443617 0.270101
0.741710 0.443617 0.270101
0.778330 0.443617 0.270101
0.813107 0.443617 0.270101
0.845872 0.443617 0.270101
0.876489 0.443617 0.270101
0.904751 0.443617 0.270101
0.930293 0.443617 0.270101
0.952484 0.443617 0.270101
0.970326 0.443617 0.270101
0.982370 0.443617 0.270101
0.986695 0.443617 0.270101
0.986695 0.443617 0.270101
0.281187 0.474490 0.270101
0.283853 0.474490 0.270101
0.286909 0.474490 0.270101
0.291357 0.474490 0.270101
0.297445 0.474490 0.270101
0.305381 0.474490 0.270101
0.315376 0.474490 0.270101
0.327628 0.474490 0.270101
0.342312 0.474490 0.270101
0.359569 0.474490 0.270101
0.379494 0.474490 0.270101
0.402128 0.474490 0.270101
0.427455 0.474490 0.270101
0.455396 0.474490 0.270101
0.485809 0.474490 0.270101
0.518491 0.474490 0.270101
0.553171 0.474490 0.270101
0.589505 0.474490 0.270101
0.627072 0.474490 0.270101
0.665370 0.474490 0.270101
0.703807 0.474490 0.270101
0.741710 0.474490 0.270101
0.778330 0.474490 0.270101
0.813107 0.474490 0.270101
0.845872 0.474490 0.270101
0.876489 0.474490 0.270101
0.904751 0.474490 0.270101
0.930293 0.474490 0.270101
0.952484 0.474490 0.270101
0.970326 0.474490 0.270101
0.982370 0.474490 0.270101
0.986695 0.474490 0.270101
0.986695 0.474490 0.270101
0.281187 0.507730 0.270101
0.283853 0.507730 0.270101
0.286909 0.507730 0.270101
0.291357 0.507730 0.270101
0.297445 0.507730 0.270101
0.305382 0.507730 0.270101
0.315376 0.507730 0.270101
0.327628 0.507730 0.270101
0.342312 0.507730 0.270101
0.359569 0.507730 0.270101
0.379494 0.507730 0.270101
0.402128 0.507730 0.270101
0.427455 0.507730 0.270101
0.455396 0.507730 0.270101
0.485809 0.507730 0.270101
0.518491 0.507730 0.270101
0.553171 0.507730 0.270101
0.589505 0.507730 0.270101
0.627072 0.507730 0.270101
0.665370 0.507730 0.270101
0.703807 0.507730 0.270101
0.741710 0.507730 0.270101
0.778330 0.507730 0.270101
0.813107 0.507730 0.270101
0.845872 0.507730 0.270101
0.876489 0.507730 0.270101
0.904751 0.507730 0.270101
0.930293 0.507730 0.270101
0.952484 0.507730 0.270101
0.970326 0.507730 0.270101
0.982370 0.507730 0.270101
0.986695 0.507730 0.270101
0.986695 0.507730 0.270101
0.281187 0.543058 0.270101
0.283853 0.543058 0.270101
0.286909 0.543058 0.270101
0.291357 0.543058 0.270101
0.297445 0.543058 0.270101
0.305382 0.543058 0.270101
0.315376 0.543058 0.270101
0.327628 0.543058 0.270101
0.342312 0.543058 0.270101
0.359569 0.543058 0.270101
0.379494 0.543058 0.270101
0.402128 0.543058 0.270101
0.427455 0.543058 0.270101
0.455396 0.543058 0.270101
0.485809 0.543058 0.270101
0.518491 0.543058 0.270101
0.553171 0.543058 0.270101
0.589505 0.543058 0.270101
0.627072 0.543058 0.270101
0.665370 0.543058 0.270101
0.703807 0.543058 0.270101
0.741710 0.543058 0.270101
0.778330 0.543058 0.270101
0.813107 0.543058 0.270101
0.845872 0.543058 0.270101
0.876489 0.543058 0.270101
0.904751 0.543058 0.270101
0.930293 0.543058 0.270101
0.952484 0.543058 0.270101
0.970326 0.543058 0.270101
0.982370 0.543058 0.270101
0.986695 0.543058 0.270101
0.986695 0.543058 0.270101
0.281187 0.580121 0.270101
0.283853 0.580121 0.270101
0.286909 0.580121 0.270101
0.291357 0.580121 0.270101
0.297445 0.580121 0.270101
0.305382 0.580121 0.270101
0.315376 0.580121 0.270101
0.327628 0.580121 0.270101
0.342312 0.580121 0.270101
0.359569 0.580121 0.270101
0.379494 0.580121 0.270101
0.402128 0.580121 0.270101
0.427455 0.580121 0.270101
0.455396 0.580121 0.270101
0.485809 0.580121 0.270101
0.518491 0.580121 0.270101
0.553171 0.580121 0.270101
0.589505 0.580121 0.270101
0.627072 0.580121 0.270101
0.665370 0.580121 0.270101
0.703807 0.580121 0.270101
0.741710 0.580121 0.270101
0.778330 0.580121 0.270101
0.813107 0.580121 0.270101
0.845872 0.580121 0.270101
0.876489 0.580121 0.270101
0.904751 0.580121 0.270101
0.930293 0.580121 0.270101
0.952484 0.580121 0.270101
0.970326 0.580121 0.270101
0.982370 0.580121 0.270101
0.986695 0.580121 0.270101
0.986695 0.580121 0.270101
0.281187 0.618491 0.270101
0.283853 0.618491 0.270101
0.286909 0.618491 0.270101
0.291357 0.618491 0.270101
0.297445 0.618491 0.270101
0.305382 0.618491 0.270101
0.315376 0.618491 0.270101
0.327628 0.618491 0.270101
0.342312 0.618491 0.270101
0.359569 0.618491 0.270101
0.379494 0.618491 0.270101
0.402128 0.618491 0.270101
0.427455 0.618491 0.270101
0.455396 0.618491 0.270101
0.485809 0.618491 0.270101
0.518491 0.618491 0.270101
0.553171 0.618491 0.270101
0.589505 0.618491 0.270101
0.627072 0.618491 0.270101
0.665370 0.618491 0.270101
0.703807 0.618491 0.270101
0.741710 0.618491 0.270101
0.778330 0.618491 0.270101
0.813107 0.618491 0.270101
0.845872 0.618491 0.270101
0.876489 0.618491 0.270101
0.904751 0.618491 0.270101
0.930293 0.618491 0.270101
0.952484 0.618491 0.270101
0.970326 0.618491 0.270101
0.982370 0.618491 0.270101
0.986695 0.618491 0.270101
0.986695 0.618491 0.270101
0.281187 0.657652 0.270101
0.283853 0.657652 0.270101
0.286909 0.657652 0.270101
0.291357 0.657652 0.270101
0.297445 0.657652 0.270101
0.305382 0.657652 0.270101
0.315376 0.657652 0.270101
0.327628 0.657652 0.270101
0.342312 0.657652 0.270101
0.359569 0.657652 0.270101
0.379494 0.657652 0.270101
0.402128 0.657652 0.270101
0.427455 0.657652 0.270101
0.455396 0.657652 0.270101
0.485809 0.657652 0.270101
0.518491 0.657652 0.270101
0.553171 0.657652 0.270101
0.589505 0.657652 0.270101
0.627072 0.657652 0.270101
0.665370 0.657652 0.270101
0.703807 0.657652 0.270101
0.741710 0.657652 0.270101
0.778330 0.657652 0.270101
0.813107 0.657652 0.270101
0.845872 0.657652 0.270101
0.876489 0.657652 0.270101
0.904751 0.657652 0.270101
0.930293 0.657652 0.270101
0.952484 0.657652 0.270101
0.970326 0.657652 0.270101
0.982370 0.657652 0.270101
0.986695 0.657652 0.270101
0.986695 0.657652 0.270101
0.281187 0.697001 0.270101
0.283853 0.697001 0.270101
0.286909 0.697001 0.270101
0.291357 0.697001 0.270101
0.297445 0.697001 0.270101
0.305382 0.697001 0.270101
0.315376 0.697001 0.270101
0.327628 0.697001 0.270101
0.342312 0.697001 0.270101
0.359569 0.697001 0.270101
0.379494 0.697001 0.270101
0.402129 0.697001 0.270101
0.427455 0.697001 0.270101
0.455396 0.697001 0.270101
0.485809 0.697001 0.270101
0.518491 0.697001 0.270101
0.553171 0.697001 0.270101
0.589505 0.697001 0.270101
0.627072 0.697001 0.270101
0.665370 0.697001 0.270101
0.703807 0.697001 0.270101
0.741710 0.697001 0.270101
0.778330 0.697001 0.270101
0.813107 0.697001 0.270101
0.845872 0.697001 0.270101
0.876489 0.697001 0.270101
0.904751 0.697001 0.270101
0.930293 0.697001 0.270101
0.952484 0.697001 0.270101
0.970326 0.697001 0.270101
0.982370 0.697001 0.270101
0.986695 0.697001 0.270101
0.986695 0.697001 0.270101
0.281187 0.735845 0.270101
0.283853 0.735845 0.270101
0.286909 0.735845 0.270101
0.291357 0.735845 0.270101
0.297445 0.735845 0.270101
0.305382 0.735845 0.270101
0.315376 0.735845 0.270101
0.327628 0.735845 0.270101
0.342312 0.735845 0.270101
0.359569 0.735845 0.270101
0.379494 0.735845 0.270101
0.402129 0.735845 0.270101
0.427455 0.735845 0.270101
0.455396 0.735845 0.270101
0.485809 0.735845 0.270101
0.518491 0.735845 0.270101
0.553171 0.735845 0.270101
0.589505 0.735845 0.270101
0.627072 0.735845 0.270101
0.665370 0.735845 0.270101
0.703807 0.735845 0.270101
0.741710 0.735845 0.270101
0.778330 0.735845 0.270101
0.813107 0.735845 0.270101
0.845872 0.735845 0.270101
0.876489 0.735845 0.270101
0.904751 0.735845 0.270101
0.930293 0.735845 0.270101
0.952484 0.735845 0.270101
0.970326 0.735845 0.270101
0.982370 0.735845 0.270101
0.986695 0.735845 0.270101
0.986695 0.735845 0.270101
0.281187 0.773415 0.270101
0.283853 0.773415 0.270101
0.286909 0.773415 0.270101
0.291357 0.773415 0.270101
0.297445 0.773415 0.270101
0.305381 0.773415 0.270101
0.315376 0.773415 0.270101
0.327628 0.773415 0.270101
0.342312 0.773415 0.270101
0.359569 0.773415 0.270101
0.379494 0.773415 0.270101
0.402129 0.773415 0.270101
0.427455 0.773415 0.270101
0.455396 0.773415 0.270101
0.485809 0.773415 0.270101
0.518491 0.773415 0.270101
0.553171 0.773415 0.270101
0.589505 0.773415 0.270101
0.627072 0.773415 0.270101
0.665370 0.773415 0.270101
0.703807 0.773415 0.270101
0.741710 0.773415 0.270101
0.778330 0.773415 0.270101
0.813107 0.773415 0.270101
0.845872 0.773415 0.270101
0.876489 0.773415 0.270101
0.904751 0.773415 0.270101
0.930293 0.773415 0.270101
0.952484 0.773415 0.270101
0.970326 0.773415 0.270101
0.982370 0.773415 0.270101
0.986695 0.773415 0.270101
0.986695 0.773415 0.270101
0.281187 0.809068 0.270101
0.283853 0.809068 0.270101
0.286909 0.809068 0.270101
0.291357 0.809068 0.270101
0.297445 0.809068 0.270101
0.305381 0.809068 0.270101
0.315376 0.809068 0.270101
0.327628 0.809068 0.270101
0.342312 0.809068 0.270101
0.359569 0.809068 0.270101
0.379494 0.809068 0.270101
0.402129 0.809068 0.270101
0.427455 0.809068 0.270101
0.455396 0.809068 0.270101
0.485809 0.809068 0.270101
0.518491 0.809068 0.270101
0.553171 0.809068 0.270101
0.589505 0.809068 0.270101
0.627072 0.809068 0.270101
0.665370 0.809068 0.270101
0.703807 0.809068 0.270101
0.741710 0.809068 0.270101
0.778330 0.809068 0.270101
0.813107 0.809068 0.270101
0.845872 0.809068 0.270101
0.876489 0.809068 0.270101
0.904751 0.809068 0.270101
0.930293 0.809068 0.270101
0.952484 0.809068 0.270101
0.970326 0.809068 0.270101
0.982370 0.809068 0.270101
0.986695 0.809068 0.270101
0.986695 0.809068 0.270101
0.281187 0.842612 0.270101
0.283853 0.842612 0.270101
0.286909 0.842612 0.270101
0.291357 0.842612 0.270101
0.297445 0.842612 0.270101
0.305381 0.842612 0.270101
0.315376 0.842612 0.270101
0.327628 0.842612 0.270101
0.342312 0.842612 0.270101
0.359569 0.842612 0.270101
0.379494 0.842612 0.270101
0.402129 0.842612 0.270101
0.427455 0.842612 0.270101
0.455396 0.842612 0.270101
0.485809 0.842612 0.270101
0.518491 0.842612 0.270101
0.553171 0.842612 0.270101
0.589505 0.842612 0.270101
0.627072 0.842612 0.270101
0.665370 0.842612 0.270101
0.703807 0.842612 0.270101
0.741710 0.842612 0.270101
0.778330 0.842612 0.270101
0.813107 0.842612 0.270101
0.845872 0.842612 0.270101
0.876489 0.842612 0.270101
0.904751 0.842612 0.270101
0.930293 0.842612 0.270101
0.952484 0.842612 0.270101
0.970326 0.842612 0.270101
0.982370 0.842612 0.270101
0.986695 0.842612 0.270101
0.986695 0.842612 0.270101
0.281187 0.873918 0.270101
0.283853 0.873918 0.270101
0.286909 0.873918 0.270101
0.291357 0.873918 0.270101
0.297445 0.873918 0.270101
0.305381 0.873918 0.270101
0.315376 0.873918 0.270101
0.327628 0.873918 0.270101
0.342312 0.873918 0.270101
0.359569 0.873918 0.270101
0.379494 0.873918 0.270101
0.402129 0.873918 0.270101
0.427455 0.873918 0.270101
0.455396 0.873918 0.270101
0.485809 0.873918 0.270101
0.518491 0.873918 0.270101
0.553171 0.873918 0.270101
0.589505 0.873918 0.270101
0.627072 0.873918 0.270101
0.665370 0.873918 0.270101
0.703807 0.873918 0.270101
0.741710 0.873918 0.270101
0.778330 0.873918 0.270101
0.813107 0.873918 0.270101
0.845872 0.873918 0.270101
0.876489 0.873918 0.270101
0.904751 0.873918 0.270101
0.930293 0.873918 0.270101
0.952484 0.873918 0.270101
0.970326 0.873918 0.270101
0.982370 0.873918 0.270101
0.986695 0.873918 0.270101
0.986695 0.873918 0.270101
0.281187 0.902792 0.270101
0.283853 0.902792 0.270101
0.286909 0.902792 0.270101
0.291357 0.902792 0.270101
0.297445 0.902792 0.270101
0.305381 0.902792 0.270101
0.315376 0.902792 0.270101
0.327628 0.902792 0.270101
0.342312 0.902792 0.270101
0.359569 0.902792 0.270101
0.379494 0.902792 0.270101
0.402129 0.902792 0.270101
0.427455 0.902792 0.270101
0.455396 0.902792 0.270101
0.485809 0.902792 0.270101
0.518491 0.902792 0.270101
0.553171 0.902792 0.270101
0.589505 0.902792 0.270101
0.627072 0.902792 0.270101
0.665370 0.902792 0.270101
0.703807 0.902792 0.270101
0.741710 0.902792 0.270101
0.778330 0.902792 0.270101
