app/src/main/assets/luts/portrait_clean_bright.cube
# V-Cam procedural LUT — portrait_clean_bright
# Generated by LutBaker. Do not edit by hand.
TITLE "V-Cam portrait_clean_bright"
LUT_3D_SIZE 9
DOMAIN_MIN 0.0 0.0 0.0
DOMAIN_MAX 1.0 1.0 1.0
0.071915 0.050495 0.050495
0.203884 0.048589 0.048589
0.335853 0.046683 0.046683
0.467822 0.044777 0.044777
0.596599 0.042871 0.042871
0.723289 0.040964 0.040964
0.849979 0.039058 0.039058
0.976669 0.037152 0.037152
1.000000 0.035246 0.035246
0.068173 0.180628 0.046753
0.200142 0.178722 0.044847
0.332111 0.176816 0.042941
0.464079 0.174910 0.041035
0.593006 0.173003 0.039128
0.719697 0.171097 0.037222
0.846387 0.169191 0.035316
0.973077 0.167285 0.033410
1.000000 0.165379 0.031504
0.064431 0.310761 0.043011
0.196400 0.308855 0.041105
0.328369 0.306948 0.039199
0.460337 0.305042 0.037292
0.589414 0.303136 0.035386
0.716104 0.301230 0.033480
0.842794 0.299324 0.031574
0.969484 0.297418 0.029668
1.000000 0.295512 0.027762
0.060689 0.440894 0.039269
0.192658 0.438987 0.037363
0.324626 0.437081 0.035456
0.456595 0.435175 0.033550
0.585822 0.433269 0.031644
0.712512 0.431363 0.029738
0.839202 0.429457 0.027832
0.965892 0.427551 0.025926
1.000000 0.425645 0.024020
0.056947 0.568986 0.035527
0.188915 0.567156 0.033620
0.320884 0.565326 0.031714
0.452853 0.563496 0.029808
0.582229 0.561666 0.027902
0.708919 0.559836 0.025996
0.835609 0.558006 0.024090
0.962299 0.556176 0.022184
1.000000 0.554346 0.020278
0.053204 0.693913 0.031784
0.185173 0.692083 0.029878
0.317142 0.690253 0.027972
0.449111 0.688423 0.026066
0.578637 0.686594 0.024160
0.705327 0.684764 0.022254
0.832017 0.682934 0.020348
0.958707 0.681104 0.020000
1.000000 0.679274 0.020000
0.049462 0.818841 0.028042
0.181431 0.817011 0.026136
0.313400 0.815181 0.024230
0.445369 0.813351 0.022324
0.575044 0.811521 0.020418
0.701734 0.809691 0.020000
0.828425 0.807861 0.020000
0.955115 0.806031 0.020000
1.000000 0.804202 0.020000
0.045720 0.943768 0.024300
0.177689 0.941938 0.022394
0.309658 0.940108 0.020488
0.441627 0.938279 0.020000
0.571452 0.936449 0.020000
0.698142 0.934619 0.020000
0.824832 0.932789 0.020000
0.951522 0.930959 0.020000
1.000000 0.929129 0.020000
0.041978 1.000000 0.020558
0.173947 1.000000 0.020000
0.305916 1.000000 0.020000
0.437885 1.000000 0.020000
0.567859 1.000000 0.020000
0.694550 1.000000 0.020000
0.821240 1.000000 0.020000
0.947930 1.000000 0.020000
1.000000 1.000000 0.020000
0.071305 0.049885 0.162340
0.203273 0.047978 0.160433
0.335242 0.046072 0.158527
0.467211 0.044166 0.156621
0.596013 0.042260 0.154715
0.722703 0.040354 0.152809
0.849393 0.038448 0.150903
0.976083 0.036542 0.148997
1.000000 0.034636 0.147091
0.067562 0.180017 0.158597
0.199531 0.178111 0.156691
0.331500 0.176205 0.154785
0.463469 0.174299 0.152879
0.592420 0.172393 0.150973
0.719110 0.170487 0.149067
0.845801 0.168581 0.147161
0.972491 0.166675 0.145255
1.000000 0.164768 0.143348
0.063820 0.310150 0.154855
0.195789 0.308244 0.152949
0.327758 0.306338 0.151043
0.459727 0.304432 0.149137
0.588828 0.302526 0.147231
0.715518 0.300620 0.145325
0.842208 0.298714 0.143419
0.968898 0.296807 0.141512
1.000000 0.294901 0.139606
0.060078 0.440283 0.151113
0.192047 0.438377 0.149207
0.324016 0.436471 0.147301
0.455985 0.434565 0.145395
0.585236 0.432659 0.143489
0.711926 0.430753 0.141583
0.838616 0.428846 0.139676
0.965306 0.426940 0.137770
1.000000 0.425034 0.135864
0.056336 0.568399 0.147371
0.188305 0.566570 0.145465
0.320274 0.564740 0.143559
0.452243 0.562910 0.141653
0.581643 0.561080 0.139747
0.708333 0.559250 0.137840
0.835023 0.557420 0.135934
0.961713 0.555590 0.134028
1.000000 0.553760 0.132122
0.052594 0.693327 0.143629
0.184563 0.691497 0.141723
0.316532 0.689667 0.139817
0.448501 0.687837 0.137911
0.578051 0.686007 0.136004
0.704741 0.684178 0.134098
0.831431 0.682348 0.132192
0.958121 0.680518 0.130286
1.000000 0.678688 0.128380
0.048852 0.818255 0.139887
0.180821 0.816425 0.137981
0.312790 0.814595 0.136075
0.444758 0.812765 0.134168
0.574458 0.810935 0.132262
0.701148 0.809105 0.130356
0.827838 0.807275 0.128450
0.954529 0.805445 0.126544
1.000000 0.803615 0.124638
0.045110 0.943182 0.136145
0.177079 0.941352 0.134239
0.309047 0.939522 0.132333
0.441016 0.937692 0.130426
0.570866 0.935863 0.128520
0.697556 0.934033 0.126614
0.824246 0.932203 0.124708
0.950936 0.930373 0.122802
1.000000 0.928543 0.120896
0.041368 1.000000 0.132403
0.173336 1.000000 0.130496
0.305305 1.000000 0.128590
0.437274 1.000000 0.126684
0.567273 1.000000 0.124778
0.693963 1.000000 0.122872
0.820654 1.000000 0.120966
0.947344 1.000000 0.119060
1.000000 1.000000 0.117154
0.070578 0.049158 0.295488
0.202547 0.047252 0.293582
0.334516 0.045346 0.291676
0.466484 0.043439 0.289769
0.595315 0.041533 0.287863
0.722005 0.039627 0.285957
0.848695 0.037721 0.284051
0.975385 0.035815 0.282145
1.000000 0.033909 0.280239
0.066836 0.179291 0.291746
0.198805 0.177385 0.289840
0.330773 0.175478 0.287933
0.462742 0.173572 0.286027
0.591723 0.171666 0.284121
0.718413 0.169760 0.282215
0.845103 0.167854 0.280309
0.971793 0.165948 0.278403
1.000000 0.164042 0.276497
0.063094 0.309424 0.288004
0.195062 0.307517 0.286097
0.327031 0.305611 0.284191
0.459000 0.303705 0.282285
0.588130 0.301799 0.280379
0.714820 0.299893 0.278473
0.841511 0.297987 0.276567
0.968201 0.296081 0.274661
1.000000 0.294175 0.272755
0.059351 0.439556 0.284261
0.191320 0.437650 0.282355
0.323289 0.435744 0.280449
0.455258 0.433838 0.278543
0.584538 0.431932 0.276637
0.711228 0.430026 0.274731
0.837918 0.428120 0.272825
0.964608 0.426214 0.270919
1.000000 0.424307 0.269012
0.055609 0.567702 0.280519
0.187578 0.565872 0.278613
0.319547 0.564042 0.276707
0.451516 0.562212 0.274801
0.580945 0.560382 0.272895
0.707636 0.558552 0.270989
0.834326 0.556722 0.269083
0.961016 0.554893 0.267176
1.000000 0.553063 0.265270
0.051867 0.692629 0.276777
0.183836 0.690799 0.274871
0.315805 0.688970 0.272965
0.447774 0.687140 0.271059
0.577353 0.685310 0.269153
0.704043 0.683480 0.267247
0.830733 0.681650 0.265340
0.957423 0.679820 0.263434
1.000000 0.677990 0.261528
0.048125 0.817557 0.273035
0.180094 0.815727 0.271129
0.312063 0.813897 0.269223
0.444032 0.812067 0.267317
0.573761 0.810237 0.265411
0.700451 0.808407 0.263504
0.827141 0.806578 0.261598
0.953831 0.804748 0.259692
1.000000 0.802918 0.257786
0.044383 0.942484 0.269293
0.176352 0.940655 0.267387
0.308321 0.938825 0.265481
0.440290 0.936995 0.263575
0.570168 0.935165 0.261668
0.696858 0.933335 0.259762
0.823548 0.931505 0.257856
0.950238 0.929675 0.255950
1.000000 0.927845 0.254044
0.040641 1.000000 0.265551
0.172610 1.000000 0.263645
0.304579 1.000000 0.261739
0.436547 1.000000 0.259833
0.566576 1.000000 0.257926
0.693266 1.000000 0.256020
0.819956 1.000000 0.254114
0.946646 1.000000 0.252208
1.000000 1.000000 0.250302
0.069851 0.048431 0.428636
0.201820 0.046525 0.426730
0.333789 0.044619 0.424824
0.465758 0.042713 0.422918
0.594617 0.040807 0.421012
0.721308 0.038900 0.419105
0.847998 0.036994 0.417199
0.974688 0.035088 0.415293
1.000000 0.033182 0.413387
0.066109 0.178564 0.424894
0.198078 0.176658 0.422988
0.330047 0.174752 0.421082
0.462016 0.172846 0.419176
0.591025 0.170939 0.417269
0.717715 0.169033 0.415363
0.844405 0.167127 0.413457
0.971095 0.165221 0.411551
1.000000 0.163315 0.409645
0.062367 0.308697 0.421152
0.194336 0.306791 0.419246
0.326305 0.304885 0.417340
0.458273 0.302978 0.415433
0.587433 0.301072 0.413527
0.714123 0.299166 0.411621
0.840813 0.297260 0.409715
0.967503 0.295354 0.407809
1.000000 0.293448 0.405903
0.058625 0.438830 0.417410
0.190594 0.436924 0.415504
0.322562 0.435017 0.413597
0.454531 0.433111 0.411691
0.583840 0.431205 0.409785
0.710530 0.429299 0.407879
0.837220 0.427393 0.405973
0.963910 0.425487 0.404067
1.000000 0.423581 0.402161
0.054883 0.567004 0.413668
0.186851 0.565174 0.411761
0.318820 0.563344 0.409855
0.450789 0.561514 0.407949
0.580248 0.559685 0.406043
0.706938 0.557855 0.404137
0.833628 0.556025 0.402231
0.960318 0.554195 0.400325
1.000000 0.552365 0.398419
0.051140 0.691932 0.409925
0.183109 0.690102 0.408019
0.315078 0.688272 0.406113
0.447047 0.686442 0.404207
0.576655 0.684612 0.402301
0.703345 0.682782 0.400395
0.830036 0.680952 0.398489
0.956726 0.679122 0.396583
1.000000 0.677293 0.394676
0.047398 0.816859 0.406183
0.179367 0.815029 0.404277
0.311336 0.813199 0.402371
0.443305 0.811370 0.400465
0.573063 0.809540 0.398559
0.699753 0.807710 0.396653
0.826443 0.805880 0.394747
0.953133 0.804050 0.392840
1.000000 0.802220 0.390934
0.043656 0.941787 0.402441
0.175625 0.939957 0.400535
0.307594 0.938127 0.398629
0.439563 0.936297 0.396723
0.569470 0.934467 0.394817
0.696161 0.932637 0.392911
0.822851 0.930807 0.391004
0.949541 0.928978 0.389098
1.000000 0.927148 0.387192
0.039914 1.000000 0.398699
0.171883 1.000000 0.396793
0.303852 1.000000 0.394887
0.435821 1.000000 0.392981
0.565878 1.000000 0.391075
0.692568 1.000000 0.389168
0.819258 1.000000 0.387262
0.945948 1.000000 0.385356
1.000000 1.000000 0.383450
0.069124 0.047704 0.560113
0.201093 0.045798 0.558283
0.333062 0.043892 0.556453
0.465031 0.041986 0.554623
0.593920 0.040080 0.552793
0.720610 0.038174 0.550963
0.847300 0.036268 0.549134
0.973990 0.034361 0.547304
1.000000 0.032455 0.545474
0.065382 0.177837 0.556520
0.197351 0.175931 0.554691
0.329320 0.174025 0.552861
0.461289 0.172119 0.551031
0.590327 0.170213 0.549201
0.717017 0.168307 0.547371
0.843708 0.166400 0.545541
0.970398 0.164494 0.543711
1.000000 0.162588 0.541881
0.061640 0.307970 0.552928
0.193609 0.306064 0.551098
0.325578 0.304158 0.549268
0.457547 0.302252 0.547438
0.586735 0.300346 0.545608
0.713425 0.298439 0.543779
0.840115 0.296533 0.541949
0.966805 0.294627 0.540119
1.000000 0.292721 0.538289
0.057898 0.438103 0.549336
0.189867 0.436197 0.547506
0.321836 0.434291 0.545676
0.453805 0.432385 0.543846
0.583142 0.430478 0.542016
0.709833 0.428572 0.540186
0.836523 0.426666 0.538356
0.963213 0.424760 0.536526
1.000000 0.422854 0.534697
0.054156 0.566306 0.545743
0.186125 0.564477 0.543913
0.318094 0.562647 0.542083
0.450062 0.560817 0.540254
0.579550 0.558987 0.538424
0.706240 0.557157 0.536594
0.832930 0.555327 0.534764
0.959620 0.553497 0.532934
1.000000 0.551667 0.531104
0.050414 0.691234 0.542151
0.182383 0.689404 0.540321
0.314351 0.687574 0.538491
0.446320 0.685744 0.536661
0.575958 0.683914 0.534831
0.702648 0.682085 0.533001
0.829338 0.680255 0.531171
0.956028 0.678425 0.529342
1.000000 0.676595 0.527512
0.046672 0.816162 0.538558
0.178640 0.814332 0.536728
0.310609 0.812502 0.534898
0.442578 0.810672 0.533069
0.572365 0.808842 0.531239
0.699055 0.807012 0.529409
0.825745 0.805182 0.527579
0.952435 0.803352 0.525749
1.000000 0.801522 0.523919
0.042929 0.941089 0.534966
0.174898 0.939259 0.533136
0.306867 0.937429 0.531306
0.438836 0.935599 0.529476
0.568773 0.933770 0.527646
0.695463 0.931940 0.525816
0.822153 0.930110 0.523987
0.948843 0.928280 0.522157
1.000000 0.926450 0.520327
0.039187 1.000000 0.531373
0.171156 1.000000 0.529544
0.303125 1.000000 0.527714
0.435094 1.000000 0.525884
0.565180 1.000000 0.524054
0.691870 1.000000 0.522224
0.818561 1.000000 0.520394
0.945251 1.000000 0.518504
1.000000 1.000000 0.516598
0.068398 0.046978 0.687935
0.200366 0.045071 0.686105
0.332335 0.043165 0.684275
0.464304 0.041259 0.682446
0.593222 0.039353 0.680616
0.719912 0.037447 0.678786
0.846602 0.035541 0.676956
0.973292 0.033635 0.675126
1.000000 0.031729 0.673296
0.064655 0.177110 0.684343
0.196624 0.175204 0.682513
0.328593 0.173298 0.680683
0.460562 0.171392 0.678853
0.589630 0.169486 0.677023
0.716320 0.167580 0.675193
0.843010 0.165674 0.673364
0.969700 0.163768 0.671534
1.000000 0.161861 0.669704
0.060913 0.307243 0.680750
0.192882 0.305337 0.678921
0.324851 0.303431 0.677091
0.456820 0.301525 0.675261
0.586037 0.299619 0.673431
0.712727 0.297713 0.671601
0.839418 0.295807 0.669771
0.966107 0.293900 0.667941
1.000000 0.291994 0.666111
0.057171 0.437376 0.677158
0.189140 0.435470 0.675328
0.321109 0.433564 0.673498
0.453078 0.431658 0.671668
0.582445 0.429752 0.669838
0.709135 0.427846 0.668009
0.835825 0.425939 0.666179
0.962515 0.424033 0.664349
1.000000 0.422127 0.662519
0.053429 0.565609 0.673566
0.185398 0.563779 0.671736
0.317367 0.561949 0.669906
0.449336 0.560119 0.668076
0.578852 0.558289 0.666246
0.705542 0.556459 0.664416
0.832233 0.554629 0.662586
0.958923 0.552800 0.660756
1.000000 0.550970 0.658926
0.049687 0.690536 0.669973
0.181656 0.688706 0.668143
0.313625 0.686876 0.666313
0.445594 0.685047 0.664483
0.575260 0.683217 0.662654
0.701950 0.681387 0.660824
0.828640 0.679557 0.658994
0.955330 0.677727 0.657164
1.000000 0.675897 0.655334
0.045945 0.815464 0.666381
0.177914 0.813634 0.664551
0.309883 0.811804 0.662721
0.441851 0.809974 0.660891
0.571667 0.808144 0.659061
0.698358 0.806314 0.657231
0.825048 0.804485 0.655401
0.951738 0.802655 0.653571
1.000000 0.800825 0.651742
0.042203 0.940391 0.662788
0.174172 0.938561 0.660958
0.306140 0.936732 0.659128
0.438109 0.934902 0.657299
0.568075 0.933072 0.655469
0.694765 0.931242 0.653639
0.821455 0.929412 0.651809
0.948145 0.927582 0.649979
1.000000 0.925752 0.648149
0.038461 1.000000 0.659196
0.170429 1.000000 0.657366
0.302398 1.000000 0.655536
0.434367 1.000000 0.653706
0.564483 1.000000 0.651876
0.691173 1.000000 0.650046
0.817863 1.000000 0.648216
0.944553 1.000000 0.646387
1.000000 1.000000 0.644557
0.067671 0.046251 0.815758
0.199640 0.044345 0.813928
0.331609 0.042439 0.812098
0.463577 0.040532 0.810268
0.592524 0.038626 0.808438
0.719215 0.036720 0.806608
0.845905 0.034814 0.804778
0.972595 0.032908 0.802948
1.000000 0.031002 0.801119
0.063929 0.176384 0.812165
0.195898 0.174478 0.810335
0.327866 0.172571 0.808505
0.459835 0.170665 0.806676
0.588932 0.168759 0.804846
0.715622 0.166853 0.803016
0.842312 0.164947 0.801186
0.969002 0.163041 0.799356
1.000000 0.161135 0.797526
0.060187 0.306516 0.808573
0.192155 0.304610 0.806743
0.324124 0.302704 0.804913
0.456093 0.300798 0.803083
0.585340 0.298892 0.801253
0.712030 0.296986 0.799423
0.838720 0.295080 0.797593
0.965410 0.293174 0.795764
1.000000 0.291268 0.793934
0.056444 0.436649 0.804980
0.188413 0.434743 0.803150
0.320382 0.432837 0.801320
0.452351 0.430931 0.799491
0.581747 0.429025 0.797661
0.708437 0.427119 0.795831
0.835127 0.425213 0.794001
0.961817 0.423307 0.792171
1.000000 0.421400 0.790341
0.052702 0.564911 0.801388
0.184671 0.563081 0.799558
0.316640 0.561251 0.797728
0.448609 0.559421 0.795898
0.578155 0.557592 0.794068
0.704845 0.555762 0.792238
0.831535 0.553932 0.790409
0.958225 0.552102 0.788579
1.000000 0.550272 0.786749
0.048960 0.689839 0.797795
0.180929 0.688009 0.795966
0.312898 0.686179 0.794136
0.444867 0.684349 0.792306
0.574562 0.682519 0.790476
0.701252 0.680689 0.788646
0.827942 0.678859 0.786816
0.954633 0.677029 0.784986
1.000000 0.675200 0.783156
0.045218 0.814766 0.794203
0.177187 0.812936 0.792373
0.309156 0.811106 0.790543
0.441125 0.809277 0.788713
0.570970 0.807447 0.786883
0.697660 0.805617 0.785054
0.824350 0.803787 0.783224
0.951040 0.801957 0.781394
1.000000 0.800127 0.779564
0.041476 0.939694 0.790611
0.173445 0.937864 0.788781
0.305414 0.936034 0.786951
0.437383 0.934204 0.785121
0.567377 0.932374 0.783291
0.694067 0.930544 0.781461
0.820758 0.928714 0.779631
0.947448 0.926885 0.777801
1.000000 0.925055 0.775971
0.037734 1.000000 0.787018
0.169703 1.000000 0.785188
0.301672 1.000000 0.783358
0.433640 1.000000 0.781528
0.563785 1.000000 0.779699
0.690475 1.000000 0.777869
0.817165 1.000000 0.776039
0.943855 1.000000 0.774209
1.000000 1.000000 0.772379
0.066944 0.045524 0.943580
0.198913 0.043618 0.941750
0.330882 0.041712 0.939920
0.462851 0.039806 0.938090
0.591827 0.037900 0.936260
0.718517 0.035993 0.934430
0.845207 0.034087 0.932601
0.971897 0.032181 0.930771
1.000000 0.030275 0.928941
0.063202 0.175657 0.939987
0.195171 0.173751 0.938158
0.327140 0.171845 0.936328
0.459109 0.169939 0.934498
0.588234 0.168032 0.932668
0.714924 0.166126 0.930838
0.841615 0.164220 0.929008
0.968305 0.162314 0.927178
1.000000 0.160408 0.925348
0.059460 0.305790 0.936395
0.191429 0.303884 0.934565
0.323398 0.301978 0.932735
0.455366 0.300071 0.930905
0.584642 0.298165 0.929075
0.711332 0.296259 0.927246
0.838022 0.294353 0.925416
0.964712 0.292447 0.923586
1.000000 0.290541 0.921756
0.055718 0.435923 0.932803
0.187687 0.434016 0.930973
0.319655 0.432110 0.929143
0.451624 0.430204 0.927313
0.581049 0.428298 0.925483
0.707740 0.426392 0.923653
0.834430 0.424486 0.921823
0.961120 0.422580 0.919993
1.000000 0.420674 0.918164
0.051976 0.564213 0.929210
0.183944 0.562383 0.927380
0.315913 0.560554 0.925550
0.447882 0.558724 0.923721
0.577457 0.556894 0.921891
0.704147 0.555064 0.920061
0.830837 0.553234 0.918231
0.957527 0.551404 0.916401
1.000000 0.549574 0.914571
0.048233 0.689141 0.925618
0.180202 0.687311 0.923788
0.312171 0.685481 0.921958
0.444140 0.683651 0.920128
0.573865 0.681821 0.918298
0.700555 0.679991 0.916468
0.827245 0.678162 0.914638
0.953935 0.676332 0.912809
1.000000 0.674502 0.910979
0.044491 0.814068 0.922025
0.176460 0.812239 0.920195
0.308429 0.810409 0.918365
0.440398 0.808579 0.916536
0.570272 0.806749 0.914706
0.696962 0.804919 0.912876
0.823652 0.803089 0.911046
0.950342 0.801259 0.909216
1.000000 0.799429 0.907386
0.040749 0.938996 0.918433
0.172718 0.937166 0.916603
0.304687 0.935336 0.914773
0.436656 0.933506 0.912943
0.566680 0.931677 0.911113
0.693370 0.929847 0.909283
0.820060 0.928017 0.907454
0.946750 0.926187 0.905624
1.000000 0.924357 0.903794
0.037007 1.000000 0.914840
0.168976 1.000000 0.913011
0.300945 1.000000 0.911181
0.432914 1.000000 0.909351
0.563087 1.000000 0.907521
0.689777 1.000000 0.905691
0.816468 1.000000 0.903861
0.943158 1.000000 0.902031
1.000000 1.000000 0.900201
0.066217 0.044797 1.000000
0.198186 0.042891 1.000000
0.330155 0.040985 1.000000
0.462124 0.039079 1.000000
0.591129 0.037173 1.000000
0.717819 0.035267 1.000000
0.844509 0.033361 1.000000
0.971199 0.031454 1.000000
1.000000 0.029548 1.000000
0.062475 0.174930 1.000000
0.194444 0.173024 1.000000
0.326413 0.171118 1.000000
0.458382 0.169212 1.000000
0.587537 0.167306 1.000000
0.714227 0.165400 1.000000
0.840917 0.163493 1.000000
0.967607 0.161587 1.000000
1.000000 0.159681 1.000000
0.058733 0.305063 1.000000
0.190702 0.303157 1.000000
0.322671 0.301251 1.000000
0.454640 0.299345 1.000000
0.583944 0.297439 1.000000
0.710634 0.295532 1.000000
0.837325 0.293626 1.000000
0.964015 0.291720 1.000000
1.000000 0.289814 1.000000
0.054991 0.435196 1.000000
0.186960 0.433290 1.000000
0.318929 0.431384 1.000000
0.450898 0.429478 1.000000
0.580352 0.427571 1.000000
0.707042 0.425665 1.000000
0.833732 0.423759 1.000000
0.960422 0.421853 1.000000
1.000000 0.419947 1.000000
0.051249 0.563516 1.000000
0.183218 0.561686 1.000000
0.315187 0.559856 1.000000
0.447155 0.558026 1.000000
0.576759 0.556196 1.000000
0.703449 0.554366 1.000000
0.830140 0.552536 1.000000
0.956830 0.550707 1.000000
1.000000 0.548877 1.000000
0.047507 0.688443 1.000000
0.179476 0.686613 1.000000
0.311444 0.684783 1.000000
0.443413 0.682954 1.000000
0.573167 0.681124 1.000000
0.699857 0.679294 1.000000
0.826547 0.677464 1.000000
0.953237 0.675634 1.000000
1.000000 0.673804 1.000000
0.043765 0.813371 1.000000
0.175733 0.811541 1.000000
0.307702 0.809711 1.000000
0.439671 0.807881 1.000000
0.569574 0.806051 1.000000
0.696265 0.804221 1.000000
0.822955 0.802392 1.000000
0.949645 0.800562 1.000000
1.000000 0.798732 1.000000
0.040023 0.938298 1.000000
0.171991 0.936468 1.000000
0.303960 0.934639 1.000000
0.435929 0.932809 1.000000
0.565982 0.930979 1.000000
0.692672 0.929149 1.000000
0.819362 0.927319 1.000000
0.946052 0.925489 1.000000
1.000000 0.923659 1.000000
0.036280 1.000000 1.000000
0.168249 1.000000 1.000000
0.300218 1.000000 1.000000
0.432187 1.000000 1.000000
0.562390 1.000000 1.000000
0.689080 1.000000 1.000000
0.815770 1.000000 1.000000
0.942460 1.000000 1.000000
1.000000 1.000000 1.000000
