app/src/main/assets/luts/portrait_pink_tint.cube
# V-Cam procedural LUT — portrait_pink_tint
# Generated by LutBaker. Do not edit by hand.
TITLE "V-Cam portrait_pink_tint"
LUT_3D_SIZE 9
DOMAIN_MIN 0.0 0.0 0.0
DOMAIN_MAX 1.0 1.0 1.0
0.000000 0.000000 0.000000
0.008434 0.000000 0.000000
0.086089 0.000005 0.000005
0.219933 0.000120 0.000120
0.388642 0.001171 0.001171
0.579598 0.006495 0.006495
0.772458 0.024458 0.024458
0.934104 0.055990 0.055990
0.993812 0.069991 0.069991
0.000000 0.008268 0.000000
0.008434 0.008269 0.000000
0.086090 0.008273 0.000006
0.219934 0.008386 0.000124
0.388643 0.009431 0.001183
0.579600 0.014742 0.006521
0.772461 0.032688 0.024512
0.934107 0.062274 0.056057
0.993815 0.075356 0.070056
0.000009 0.084933 0.000009
0.008442 0.084934 0.000010
0.086095 0.084936 0.000014
0.219944 0.084987 0.000166
0.388660 0.085548 0.001309
0.579625 0.088464 0.006810
0.772490 0.097891 0.025127
0.934142 0.113702 0.056807
0.993852 0.121865 0.070789
0.000224 0.217702 0.000224
0.008653 0.217703 0.000225
0.086191 0.217708 0.000246
0.219985 0.217729 0.000342
0.388729 0.217885 0.001840
0.579730 0.218916 0.008029
0.772617 0.222677 0.027777
0.934294 0.229690 0.059963
0.994014 0.233616 0.073883
0.002114 0.385138 0.002114
0.010534 0.385139 0.002119
0.087196 0.385147 0.002178
0.220282 0.385180 0.002429
0.388905 0.385266 0.003139
0.580007 0.385612 0.011052
0.772959 0.387279 0.034938
0.934705 0.390668 0.067935
0.994450 0.392643 0.081761
0.010951 0.574893 0.010951
0.019353 0.574894 0.010961
0.091936 0.574905 0.011078
0.222010 0.574952 0.011574
0.389540 0.575075 0.012857
0.580498 0.575300 0.015546
0.773747 0.575889 0.045655
0.935526 0.577610 0.082017
0.995322 0.578656 0.095857
0.038111 0.767082 0.038111
0.046145 0.767084 0.038129
0.105471 0.767098 0.038332
0.227575 0.767159 0.039202
0.392038 0.767321 0.041457
0.581541 0.767631 0.045465
0.774827 0.768062 0.052266
0.936800 0.768714 0.100573
0.996676 0.769259 0.114691
0.084051 0.928360 0.084051
0.088779 0.928362 0.084071
0.131555 0.928378 0.084333
0.240062 0.928444 0.085534
0.398283 0.928625 0.088726
0.584730 0.928992 0.094910
0.776220 0.929577 0.104071
0.938286 0.930247 0.116120
0.998222 0.930488 0.133158
0.110557 0.996360 0.110557
0.114280 0.996362 0.110580
0.150087 0.996381 0.110838
0.249970 0.996465 0.111943
0.403371 0.996691 0.114879
0.587379 0.997143 0.120547
0.777556 0.997845 0.128885
0.938958 0.998647 0.137817
0.998997 0.998997 0.141538
0.000081 0.000000 0.008203
0.008515 0.000000 0.008203
0.086135 0.000005 0.008207
0.219952 0.000121 0.008317
0.388652 0.001174 0.009357
0.579604 0.006500 0.014656
0.772462 0.024469 0.032579
0.934107 0.056004 0.062177
0.993812 0.070003 0.075265
0.000081 0.008268 0.008203
0.008515 0.008269 0.008203
0.086136 0.008273 0.008207
0.219953 0.008385 0.008319
0.388655 0.009428 0.009362
0.579609 0.014733 0.014668
0.772468 0.032671 0.032606
0.934114 0.062255 0.062208
0.993820 0.075337 0.075296
0.000091 0.084933 0.008211
0.008523 0.084934 0.008211
0.086141 0.084936 0.008215
0.219963 0.084987 0.008360
0.388671 0.085546 0.009488
0.579633 0.088459 0.014957
0.772497 0.097883 0.033220
0.934149 0.113691 0.062903
0.993857 0.121852 0.075988
0.000305 0.217703 0.008421
0.008731 0.217704 0.008419
0.086236 0.217708 0.008440
0.220004 0.217729 0.008534
0.388740 0.217885 0.010016
0.579738 0.218915 0.016173
0.772624 0.222674 0.035868
0.934301 0.229685 0.065838
0.994018 0.233610 0.078914
0.002197 0.385139 0.010300
0.010606 0.385140 0.010294
0.087237 0.385148 0.010353
0.220299 0.385181 0.010602
0.388914 0.385267 0.011309
0.580014 0.385612 0.019191
0.772966 0.387279 0.042932
0.934712 0.390666 0.073305
0.994454 0.392640 0.086403
0.011037 0.574893 0.019118
0.019412 0.574895 0.019102
0.091968 0.574906 0.019218
0.222024 0.574953 0.019713
0.389549 0.575076 0.020993
0.580504 0.575301 0.023678
0.773753 0.575889 0.052669
0.935532 0.577609 0.086653
0.995326 0.578655 0.099915
0.038209 0.767082 0.045937
0.046174 0.767086 0.045893
0.105487 0.767100 0.046078
0.227583 0.767161 0.046861
0.392044 0.767323 0.048876
0.581546 0.767633 0.052500
0.774832 0.768063 0.058716
0.936806 0.768714 0.104465
0.996679 0.769260 0.118137
0.084128 0.928360 0.088663
0.088767 0.928366 0.088596
0.131548 0.928382 0.088848
0.240059 0.928448 0.089995
0.398284 0.928628 0.093052
0.584733 0.928994 0.098992
0.776224 0.929579 0.107832
0.938290 0.930248 0.119518
0.998224 0.930488 0.136139
0.110601 0.996361 0.114166
0.114260 0.996366 0.114125
0.150073 0.996385 0.114375
0.249963 0.996469 0.115448
0.403369 0.996695 0.118300
0.587380 0.997146 0.123816
0.777559 0.997847 0.131950
0.938962 0.998649 0.140687
0.998998 0.998998 0.144333
0.000997 0.000002 0.084478
0.009430 0.000002 0.084479
0.086655 0.000007 0.084481
0.220158 0.000129 0.084516
0.388759 0.001199 0.085037
0.579673 0.006555 0.087888
0.772511 0.024593 0.097225
0.934147 0.056156 0.112996
0.993820 0.070145 0.121147
0.000998 0.008270 0.084479
0.009431 0.008270 0.084480
0.086656 0.008274 0.084482
0.220159 0.008393 0.084517
0.388762 0.009453 0.085041
0.579677 0.014788 0.087895
0.772517 0.032795 0.097239
0.934154 0.062396 0.113015
0.993827 0.075470 0.121168
0.001006 0.084934 0.084484
0.009438 0.084935 0.084484
0.086660 0.084937 0.084486
0.220178 0.084981 0.084531
0.388795 0.085525 0.085078
0.579726 0.088405 0.087972
0.772580 0.097790 0.097397
0.934231 0.113566 0.113225
0.993908 0.121712 0.121394
0.001226 0.217705 0.084576
0.009652 0.217706 0.084576
0.086740 0.217715 0.084569
0.220211 0.217732 0.084614
0.388860 0.217882 0.085366
0.579829 0.218898 0.088635
0.772705 0.222639 0.098724
0.934382 0.229630 0.115012
0.994069 0.233544 0.123325
0.003132 0.385141 0.085585
0.011540 0.385143 0.085582
0.087696 0.385160 0.085549
0.220491 0.385192 0.085684
0.389024 0.385272 0.086066
0.580098 0.385610 0.090262
0.773046 0.387265 0.102206
0.934789 0.390644 0.119714
0.994501 0.392612 0.128399
0.012007 0.574897 0.090390
0.020381 0.574899 0.090381
0.092330 0.574924 0.090285
0.222182 0.574970 0.090549
0.389642 0.575090 0.091228
0.580575 0.575308 0.092637
0.773825 0.575890 0.107376
0.935602 0.577604 0.128620
0.995367 0.578647 0.137997
0.039314 0.767084 0.104138
0.047166 0.767087 0.104114
0.105664 0.767126 0.103863
0.227672 0.767187 0.104273
0.392104 0.767346 0.105341
0.581599 0.767650 0.107308
0.774886 0.768073 0.110814
0.936865 0.768721 0.141379
0.996710 0.769263 0.151720
0.084997 0.928355 0.130551
0.089596 0.928360 0.130504
0.131468 0.928422 0.130019
0.240030 0.928487 0.130820
0.398287 0.928664 0.132975
0.584757 0.929025 0.137242
0.776263 0.929601 0.143779
0.938339 0.930263 0.152720
0.998244 0.930500 0.165997
0.111101 0.996368 0.149024
0.114764 0.996373 0.149008
0.149908 0.996431 0.148645
0.249883 0.996514 0.149471
0.403344 0.996736 0.151679
0.587389 0.997182 0.156002
0.777590 0.997875 0.162496
0.939005 0.998668 0.169618
0.999014 0.999014 0.172630
0.004981 0.000045 0.216834
0.013411 0.000047 0.216834
0.088860 0.000068 0.216839
0.221044 0.000166 0.216859
0.389222 0.001309 0.216934
0.579967 0.006789 0.217811
0.772721 0.025131 0.221291
0.934320 0.056812 0.228050
0.993851 0.070754 0.231866
0.004985 0.008310 0.216835
0.013414 0.008312 0.216836
0.088862 0.008333 0.216841
0.221045 0.008430 0.216861
0.389225 0.009562 0.216937
0.579972 0.015022 0.217815
0.772727 0.033333 0.221299
0.934327 0.063004 0.228060
0.993858 0.076045 0.231877
0.005026 0.084944 0.216845
0.013454 0.084945 0.216846
0.088881 0.084954 0.216862
0.221063 0.084998 0.216878
0.389258 0.085583 0.216963
0.580020 0.088531 0.217857
0.772790 0.098059 0.221378
0.934404 0.113928 0.228172
0.993940 0.122084 0.232001
0.005201 0.217713 0.216886
0.013626 0.217714 0.216887
0.088958 0.217722 0.216895
0.221097 0.217738 0.216910
0.389374 0.217861 0.217036
0.580216 0.218819 0.218000
0.773055 0.222480 0.221681
0.934726 0.229384 0.228617
0.994284 0.233254 0.232503
0.007166 0.385154 0.217162
0.015573 0.385156 0.217162
0.089925 0.385173 0.217159
0.221308 0.385232 0.217133
0.389494 0.385290 0.217247
0.580455 0.385601 0.218605
0.773395 0.387197 0.223090
0.935119 0.390544 0.230862
0.994703 0.392487 0.235057
0.016195 0.574911 0.218897
0.024569 0.574914 0.218894
0.094539 0.574939 0.218864
0.222859 0.575039 0.218727
0.390042 0.575144 0.218980
0.580877 0.575336 0.219509
0.774129 0.575890 0.225318
0.935903 0.577581 0.235281
0.995541 0.578608 0.240072
0.043943 0.767090 0.224611
0.051319 0.767093 0.224601
0.107885 0.767133 0.224495
0.228058 0.767293 0.224050
0.392363 0.767441 0.224503
0.581826 0.767724 0.225339
0.775118 0.768115 0.226847
0.937120 0.768745 0.241971
0.996842 0.769278 0.247642
0.088738 0.928330 0.237447
0.093175 0.928335 0.237424
0.133949 0.928399 0.237171
0.239917 0.928650 0.236161
0.398305 0.928815 0.237269
0.584863 0.929152 0.239507
0.776431 0.929695 0.243039
0.938547 0.930322 0.248055
0.998328 0.930548 0.255989
0.113233 0.996401 0.246976
0.116832 0.996406 0.246968
0.151676 0.996451 0.246873
0.249547 0.996702 0.245975
0.403244 0.996912 0.247235
0.587431 0.997332 0.249741
0.777722 0.997989 0.253605
0.939188 0.998746 0.257977
0.999078 0.999078 0.259864
0.016013 0.000443 0.383725
0.024432 0.000449 0.383726
0.094732 0.000516 0.383735
0.223354 0.000801 0.383772
0.390472 0.001599 0.383861
0.580763 0.007399 0.383954
0.773289 0.026589 0.385135
0.934787 0.058561 0.388036
0.993935 0.072381 0.389788
0.016022 0.008701 0.383729
0.024441 0.008707 0.383729
0.094738 0.008774 0.383738
0.223358 0.009057 0.383775
0.390475 0.009851 0.383864
0.580768 0.015630 0.383958
0.773294 0.034789 0.385140
0.934794 0.064627 0.388042
0.993942 0.077581 0.389795
0.016148 0.085131 0.383747
0.024564 0.085133 0.383750
0.094793 0.085160 0.383776
0.223390 0.085312 0.383811
0.390505 0.085738 0.383894
0.580815 0.088859 0.383996
0.773358 0.098780 0.385197
0.934870 0.114907 0.388118
0.994023 0.123089 0.389878
0.016686 0.217726 0.383817
0.025100 0.217727 0.383820
0.095054 0.217742 0.383846
0.223490 0.217784 0.383941
0.390612 0.217905 0.383999
0.581005 0.218935 0.384140
0.773638 0.222736 0.385412
0.935191 0.229837 0.388422
0.994366 0.233743 0.390215
0.018072 0.385188 0.383994
0.026479 0.385190 0.383995
0.095728 0.385204 0.384010
0.223694 0.385256 0.384061
0.390735 0.385310 0.384114
0.581399 0.385547 0.384354
0.774315 0.386983 0.385803
0.936000 0.390240 0.389080
0.995238 0.392115 0.390964
0.027545 0.574951 0.384587
0.035916 0.574953 0.384588
0.100320 0.574978 0.384589
0.225305 0.575075 0.384584
0.391104 0.575270 0.384508
0.581675 0.575392 0.384697
0.774929 0.575871 0.386795
0.936706 0.577499 0.391243
0.996002 0.578483 0.393492
0.055214 0.767106 0.387189
0.061623 0.767110 0.387186
0.113768 0.767149 0.387152
0.230742 0.767312 0.386993
0.393061 0.767675 0.386531
0.582430 0.767902 0.386881
0.775724 0.768206 0.387540
0.937801 0.768799 0.394579
0.997190 0.769303 0.397385
0.098220 0.928271 0.393752
0.102283 0.928277 0.393742
0.140499 0.928341 0.393631
0.243305 0.928604 0.393157
0.398387 0.929191 0.392005
0.585155 0.929470 0.393104
0.776877 0.929927 0.394878
0.939096 0.930468 0.397456
0.998547 0.930667 0.401782
0.118814 0.996491 0.398155
0.122256 0.996495 0.398152
0.155892 0.996540 0.398113
0.252457 0.996731 0.397936
0.403009 0.997354 0.396745
0.587554 0.997711 0.398077
0.778074 0.998279 0.400175
0.939670 0.998945 0.402616
0.999238 0.999238 0.403684
0.039226 0.002453 0.572747
0.047172 0.002467 0.572749
0.106145 0.002621 0.572762
0.228142 0.003279 0.572821
0.392705 0.005000 0.572975
0.582357 0.008509 0.573235
0.774522 0.028391 0.573190
0.935721 0.061966 0.574112
0.994104 0.075557 0.574825
0.039248 0.010696 0.572753
0.047191 0.010710 0.572754
0.106156 0.010864 0.572767
0.228148 0.011520 0.572826
0.392709 0.013237 0.572980
0.582361 0.016737 0.573239
0.774528 0.036584 0.573195
0.935728 0.067798 0.574118
0.994111 0.080586 0.574832
0.039525 0.086188 0.572789
0.047433 0.086193 0.572793
0.106270 0.086258 0.572826
0.228209 0.086621 0.572882
0.392755 0.087561 0.573031
0.582405 0.089451 0.573283
0.774593 0.099647 0.573249
0.935803 0.116852 0.574183
0.994191 0.125078 0.574902
0.040769 0.218021 0.572897
0.048536 0.218023 0.572900
0.106832 0.218049 0.572944
0.228432 0.218144 0.573109
0.392928 0.218475 0.573238
0.582580 0.219145 0.573456
0.774864 0.223082 0.573468
0.936119 0.230751 0.574453
0.994528 0.234728 0.575192
0.043880 0.385177 0.573169
0.051329 0.385178 0.573172
0.108305 0.385199 0.573208
0.229022 0.385277 0.573355
0.393218 0.385398 0.573672
0.582936 0.385617 0.573804
0.775513 0.387122 0.573940
0.936918 0.390675 0.575078
0.995390 0.392597 0.575874
0.049611 0.575030 0.573653
0.056524 0.575032 0.573655
0.111127 0.575055 0.573677
0.230160 0.575142 0.573764
0.393588 0.575317 0.573937
0.583202 0.575432 0.574049
0.776427 0.575760 0.574383
0.938269 0.577246 0.575884
0.996884 0.578148 0.576792
0.074242 0.767143 0.574682
0.079427 0.767146 0.574682
0.124957 0.767185 0.574689
0.236161 0.767345 0.574710
0.395790 0.767712 0.574702
0.583617 0.768166 0.574501
0.776870 0.768322 0.574756
0.939185 0.768824 0.577330
0.997845 0.769295 0.578751
0.111161 0.928388 0.577778
0.114835 0.928392 0.577778
0.150245 0.928432 0.577779
0.249444 0.928603 0.577777
0.401783 0.929154 0.577495
0.585767 0.929998 0.576748
0.777735 0.930310 0.577566
0.940135 0.930698 0.578795
0.998973 0.930863 0.580786
0.129297 0.996668 0.580007
0.132473 0.996672 0.580007
0.163999 0.996716 0.580002
0.257290 0.996902 0.579975
0.406355 0.997376 0.579848
0.587838 0.998365 0.578895
0.778753 0.998777 0.579983
0.940589 0.999281 0.581292
0.999507 0.999507 0.581872
0.070766 0.008821 0.764087
0.076195 0.008847 0.764088
0.123200 0.009137 0.764107
0.236006 0.010379 0.764187
0.396463 0.013665 0.764398
0.584161 0.019937 0.764807
0.776466 0.030194 0.765317
0.937179 0.067043 0.764841
0.994367 0.080307 0.764957
0.070793 0.017041 0.764094
0.076220 0.017067 0.764095
0.123217 0.017356 0.764114
0.236015 0.018597 0.764193
0.396469 0.021879 0.764405
0.584166 0.028141 0.764813
0.776471 0.038382 0.765322
0.937186 0.072552 0.764847
0.994374 0.085098 0.764964
0.071113 0.089588 0.764158
0.076515 0.089596 0.764164
0.123402 0.089737 0.764193
0.236118 0.090405 0.764271
0.396539 0.092152 0.764480
0.584226 0.095406 0.764882
0.776533 0.100516 0.765383
0.937258 0.119841 0.764913
0.994452 0.128124 0.765033
0.072692 0.219199 0.764299
0.078003 0.219203 0.764304
0.124326 0.219245 0.764367
0.236515 0.219421 0.764597
0.396813 0.220095 0.764792
0.584468 0.221369 0.765167
0.776786 0.223419 0.765632
0.937566 0.232177 0.765190
0.994781 0.236256 0.765323
0.076797 0.385519 0.764651
0.081883 0.385522 0.764657
0.126863 0.385551 0.764716
0.237697 0.385666 0.764964
0.397364 0.385883 0.765543
0.585001 0.386411 0.765844
0.777377 0.387249 0.766212
0.938342 0.391365 0.765865
0.995620 0.393357 0.766037
0.084796 0.574910 0.765269
0.089481 0.574913 0.765274
0.131959 0.574942 0.765325
0.240120 0.575062 0.765539
0.398369 0.575313 0.766056
0.585562 0.575542 0.766786
0.778162 0.575804 0.766973
0.939773 0.577448 0.766926
0.997077 0.578521 0.767152
0.097402 0.767263 0.766205
0.101563 0.767265 0.766208
0.140525 0.767295 0.766237
0.244545 0.767418 0.766360
0.400164 0.767768 0.766708
0.586041 0.768209 0.767145
0.778530 0.768375 0.767308
0.941166 0.768701 0.767640
0.998802 0.769095 0.768038
0.127688 0.928646 0.767449
0.130913 0.928649 0.767451
0.162844 0.928688 0.767473
0.256845 0.928849 0.767561
0.406498 0.929255 0.767764
0.588586 0.930030 0.767945
0.778996 0.930725 0.767834
0.941622 0.930917 0.768250
0.999485 0.931034 0.768932
0.144154 0.996945 0.768563
0.147008 0.996949 0.768565
0.175864 0.996990 0.768582
0.264624 0.997167 0.768654
0.410583 0.997618 0.768810
0.590777 0.998429 0.768931
0.779749 0.999371 0.768638
0.941907 0.999667 0.769208
0.999804 0.999804 0.769464
0.099521 0.021497 0.925309
0.103619 0.021538 0.925311
0.142152 0.022004 0.925331
0.245675 0.024008 0.925418
0.401241 0.029384 0.925653
0.586429 0.039984 0.926117
0.777347 0.054353 0.926823
0.939046 0.070277 0.927407
0.994671 0.085516 0.926994
0.099553 0.029689 0.925317
0.103650 0.029731 0.925319
0.142174 0.030196 0.925339
0.245689 0.032197 0.925427
0.401250 0.037569 0.925662
0.586436 0.047645 0.926125
0.777354 0.060720 0.926830
0.939053 0.075581 0.927415
0.994678 0.090067 0.927000
0.099904 0.096139 0.925413
0.103989 0.096160 0.925415
0.142429 0.096398 0.925435
0.245839 0.097414 0.925522
0.401347 0.100094 0.925756
0.586515 0.105191 0.926217
0.777431 0.112503 0.926917
0.939136 0.121680 0.927497
0.994753 0.131554 0.927073
0.101835 0.221729 0.925558
0.105840 0.221734 0.925566
0.143711 0.221792 0.925649
0.246441 0.222075 0.925929
0.401744 0.223191 0.926156
0.586841 0.225365 0.926604
0.777751 0.228593 0.927282
0.939485 0.232837 0.927841
0.995073 0.238007 0.927379
0.107046 0.386526 0.925901
0.110871 0.386529 0.925908
0.147432 0.386569 0.925991
0.248359 0.386723 0.926347
0.402614 0.387054 0.927182
0.587596 0.388035 0.927589
0.778523 0.389481 0.928198
0.940352 0.391383 0.928694
0.995887 0.394233 0.928150
0.116827 0.575120 0.926659
0.120356 0.575123 0.926664
0.154684 0.575159 0.926723
0.252449 0.575307 0.926975
0.404528 0.575642 0.927803
0.588549 0.575991 0.929239
0.779653 0.576581 0.929683
0.941670 0.577396 0.929984
0.997492 0.578699 0.929595
0.130462 0.767029 0.927913
0.133630 0.767032 0.927917
0.165111 0.767066 0.927965
0.258443 0.767211 0.928170
0.407768 0.767564 0.928693
0.589863 0.768138 0.929829
0.780400 0.768472 0.930909
0.942725 0.768771 0.931006
0.999044 0.769185 0.930911
0.144511 0.928940 0.929345
0.147366 0.928943 0.929348
0.176249 0.928978 0.929384
0.265109 0.929129 0.929534
0.411252 0.929505 0.929911
0.591775 0.930131 0.930538
0.780936 0.930794 0.931202
0.943168 0.930993 0.931404
0.999874 0.931051 0.931460
0.159561 0.997262 0.929825
0.162134 0.997266 0.929828
0.188567 0.997305 0.929861
0.272801 0.997472 0.929998
0.415392 0.997895 0.930339
0.593831 0.998625 0.930893
0.781757 0.999480 0.931417
0.943265 0.999933 0.931531
0.999978 0.999978 0.931589
0.112883 0.030230 0.992197
0.116536 0.030281 0.992198
0.151818 0.030848 0.992218
0.250967 0.033296 0.992302
0.403935 0.039908 0.992529
0.587731 0.051937 0.992983
0.777801 0.067557 0.993689
0.939149 0.082553 0.994496
0.994821 0.087997 0.994821
0.112917 0.038408 0.992206
0.116569 0.038459 0.992207
0.151844 0.039026 0.992227
0.250983 0.041447 0.992311
0.403945 0.047574 0.992538
0.587739 0.058494 0.992992
0.777809 0.073023 0.993698
0.939157 0.087222 0.994505
0.994830 0.092422 0.994830
0.113298 0.100475 0.992307
0.116939 0.100500 0.992309
0.152131 0.100778 0.992329
0.251158 0.101972 0.992413
0.404059 0.105133 0.992640
0.587828 0.111202 0.993093
0.777894 0.120057 0.993797
0.939247 0.129457 0.994599
0.994923 0.133062 0.994923
0.115340 0.223490 0.992476
0.118912 0.223497 0.992482
0.153580 0.223577 0.992558
0.251869 0.223928 0.992849
0.404523 0.225296 0.993074
0.588200 0.227996 0.993522
0.778251 0.232100 0.994215
0.939627 0.236659 0.995001
0.995315 0.238459 0.995315
0.120726 0.387265 0.992909
0.124146 0.387269 0.992915
0.157638 0.387319 0.992987
0.254155 0.387521 0.993294
0.405572 0.387927 0.994212
0.589077 0.389180 0.994639
0.779128 0.391080 0.995290
0.940577 0.393180 0.996016
0.996304 0.394006 0.996304
0.130857 0.575378 0.993774
0.134018 0.575381 0.993779
0.165444 0.575421 0.993845
0.258697 0.575584 0.994124
0.407996 0.575970 0.994851
0.590254 0.576385 0.996612
0.780461 0.577210 0.997140
0.942044 0.578190 0.997617
0.997777 0.578632 0.997777
0.145230 0.767008 0.995117
0.148075 0.767011 0.995122
0.176867 0.767048 0.995177
0.265584 0.767204 0.995413
0.411665 0.767585 0.996023
0.592110 0.768190 0.997225
0.781457 0.768612 0.998857
0.943315 0.769038 0.999052
0.999143 0.769227 0.999143
0.160075 0.928748 0.996650
0.162643 0.928751 0.996654
0.189036 0.928789 0.996698
0.273215 0.928947 0.996885
0.415813 0.929346 0.997361
0.594317 0.930015 0.998197
0.782325 0.930740 0.999251
0.943916 0.931023 0.999857
0.999894 0.931073 0.999894
0.167012 0.997419 0.997419
0.169466 0.997423 0.997423
0.194836 0.997461 0.997461
0.276954 0.997622 0.997622
0.417876 0.998032 0.998032
0.595374 0.998734 0.998734
0.782831 0.999530 0.999530
0.944016 0.999962 0.999962
1.000000 1.000000 1.000000
