app/src/main/assets/luts/portrait_warm.cube
# V-Cam procedural LUT — portrait_warm
# Generated by LutBaker. Do not edit by hand.
TITLE "V-Cam portrait_warm"
LUT_3D_SIZE 5
DOMAIN_MIN 0.0 0.0 0.0
DOMAIN_MAX 1.0 1.0 1.0
0.000000 0.000000 0.000000
0.089609 0.000000 0.000000
0.401259 0.000000 0.000000
0.794530 0.000000 0.000000
1.000000 0.000000 0.000000
0.000000 0.083976 0.000000
0.089604 0.083973 0.000000
0.401241 0.083262 0.000000
0.794498 0.067257 0.000000
1.000000 0.023213 0.000000
0.000000 0.384664 0.000000
0.088543 0.384655 0.000000
0.400990 0.384531 0.000000
0.794026 0.382263 0.000000
1.000000 0.376959 0.000000
0.000000 0.768999 0.000000
0.066662 0.768983 0.000000
0.398011 0.768746 0.000000
0.792115 0.768005 0.000000
1.000000 0.766821 0.000000
0.000000 1.000000 0.000000
0.000000 1.000000 0.000000
0.386561 1.000000 0.000000
0.789540 1.000000 0.000000
1.000000 1.000000 0.000000
0.000000 0.000000 0.078043
0.089608 0.000000 0.078041
0.401256 0.000000 0.077340
0.794524 0.000000 0.060414
1.000000 0.000000 0.014069
0.000000 0.083975 0.078038
0.089602 0.083972 0.078036
0.401221 0.083286 0.077291
0.794459 0.067390 0.060130
1.000000 0.023541 0.013432
0.000000 0.384662 0.076846
0.088593 0.384643 0.076875
0.400983 0.384526 0.076133
0.793992 0.382275 0.052082
1.000000 0.376988 0.000000
0.000000 0.768998 0.051320
0.067025 0.768957 0.051725
0.398050 0.768724 0.048910
0.792102 0.767995 0.032290
1.000000 0.766817 0.000000
0.000000 1.000000 0.000000
0.000000 1.000000 0.000000
0.386685 1.000000 0.000000
0.789549 1.000000 0.000000
1.000000 1.000000 0.000000
0.000000 0.000000 0.367390
0.089498 0.000000 0.367380
0.401207 0.000000 0.367283
0.794441 0.000000 0.365586
1.000000 0.000000 0.360617
0.000000 0.083817 0.367373
0.089441 0.083790 0.367341
0.401174 0.083090 0.367251
0.794373 0.066168 0.365522
1.000000 0.020560 0.360522
0.000000 0.384621 0.367144
0.088431 0.384604 0.367129
0.400921 0.384492 0.367041
0.793470 0.382535 0.364805
1.000000 0.377459 0.359269
0.000000 0.768983 0.363640
0.065013 0.768938 0.363686
0.398644 0.768428 0.364278
0.791939 0.767878 0.362646
1.000000 0.766780 0.351904
0.000000 1.000000 0.351137
0.000000 1.000000 0.351192
0.388491 1.000000 0.352515
0.789695 1.000000 0.348282
1.000000 1.000000 0.344293
0.000000 0.000000 0.744369
0.085900 0.000000 0.744348
0.401401 0.000000 0.744051
0.793890 0.000000 0.743397
1.000000 0.000000 0.743464
0.000000 0.079842 0.744334
0.085648 0.079726 0.744267
0.401332 0.077028 0.743974
0.793823 0.063693 0.743333
1.000000 0.008915 0.743391
0.000000 0.384385 0.743853
0.080971 0.384351 0.743789
0.400567 0.384011 0.742981
0.792941 0.382339 0.742515
1.000000 0.376327 0.742404
0.000000 0.768873 0.742402
0.055154 0.768838 0.742370
0.397846 0.768315 0.741912
0.791637 0.767710 0.741457
1.000000 0.766939 0.740415
0.000000 1.000000 0.739712
0.000000 1.000000 0.739694
0.387023 1.000000 0.739497
0.790408 1.000000 0.739703
1.000000 1.000000 0.738793
0.000000 0.000000 1.000000
0.073042 0.000000 1.000000
0.400346 0.000000 1.000000
0.795182 0.000000 1.000000
1.000000 0.000000 1.000000
0.000000 0.065792 1.000000
0.072447 0.065520 1.000000
0.400224 0.058477 1.000000
0.795092 0.026587 1.000000
1.000000 0.000000 1.000000
0.000000 0.382600 1.000000
0.060375 0.382541 1.000000
0.398699 0.381871 1.000000
0.793873 0.378499 1.000000
1.000000 0.375503 1.000000
0.000000 0.769123 1.000000
0.000000 0.769080 1.000000
0.392368 0.768506 1.000000
0.791527 0.767454 0.999896
1.000000 0.766856 0.999628
0.000000 1.000000 1.000000
0.000000 1.000000 1.000000
0.385588 1.000000 1.000000
0.790247 1.000000 0.999196
1.000000 1.000000 0.998774
