app/src/main/assets/luts/portrait_pink_tint.cube
# V-Cam procedural LUT — portrait_pink_tint
# Generated by LutBaker. Do not edit by hand.
TITLE "V-Cam portrait_pink_tint"
LUT_3D_SIZE 5
DOMAIN_MIN 0.0 0.0 0.0
DOMAIN_MAX 1.0 1.0 1.0
0.000000 0.000000 0.000000
0.086089 0.000005 0.000005
0.388642 0.001171 0.001171
0.772458 0.024458 0.024458
0.993812 0.069991 0.069991
0.000009 0.084933 0.000009
0.086095 0.084936 0.000014
0.388660 0.085548 0.001309
0.772490 0.097891 0.025127
0.993852 0.121865 0.070789
0.002114 0.385138 0.002114
0.087196 0.385147 0.002178
0.388905 0.385266 0.003139
0.772959 0.387279 0.034938
0.994450 0.392643 0.081761
0.038111 0.767082 0.038111
0.105471 0.767098 0.038332
0.392038 0.767321 0.041457
0.774827 0.768062 0.052266
0.996676 0.769259 0.114691
0.110557 0.996360 0.110557
0.150087 0.996381 0.110838
0.403371 0.996691 0.114879
0.777556 0.997845 0.128885
0.998997 0.998997 0.141538
0.000997 0.000002 0.084478
0.086655 0.000007 0.084481
0.388759 0.001199 0.085037
0.772511 0.024593 0.097225
0.993820 0.070145 0.121147
0.001006 0.084934 0.084484
0.086660 0.084937 0.084486
0.388795 0.085525 0.085078
0.772580 0.097790 0.097397
0.993908 0.121712 0.121394
0.003132 0.385141 0.085585
0.087696 0.385160 0.085549
0.389024 0.385272 0.086066
0.773046 0.387265 0.102206
0.994501 0.392612 0.128399
0.039314 0.767084 0.104138
0.105664 0.767126 0.103863
0.392104 0.767346 0.105341
0.774886 0.768073 0.110814
0.996710 0.769263 0.151720
0.111101 0.996368 0.149024
0.149908 0.996431 0.148645
0.403344 0.996736 0.151679
0.777590 0.997875 0.162496
0.999014 0.999014 0.172630
0.016013 0.000443 0.383725
0.094732 0.000516 0.383735
0.390472 0.001599 0.383861
0.773289 0.026589 0.385135
0.993935 0.072381 0.389788
0.016148 0.085131 0.383747
0.094793 0.085160 0.383776
0.390505 0.085738 0.383894
0.773358 0.098780 0.385197
0.994023 0.123089 0.389878
0.018072 0.385188 0.383994
0.095728 0.385204 0.384010
0.390735 0.385310 0.384114
0.774315 0.386983 0.385803
0.995238 0.392115 0.390964
0.055214 0.767106 0.387189
0.113768 0.767149 0.387152
0.393061 0.767675 0.386531
0.775724 0.768206 0.387540
0.997190 0.769303 0.397385
0.118814 0.996491 0.398155
0.155892 0.996540 0.398113
0.403009 0.997354 0.396745
0.778074 0.998279 0.400175
0.999238 0.999238 0.403684
0.070766 0.008821 0.764087
0.123200 0.009137 0.764107
0.396463 0.013665 0.764398
0.776466 0.030194 0.765317
0.994367 0.080307 0.764957
0.071113 0.089588 0.764158
0.123402 0.089737 0.764193
0.396539 0.092152 0.764480
0.776533 0.100516 0.765383
0.994452 0.128124 0.765033
0.076797 0.385519 0.764651
0.126863 0.385551 0.764716
0.397364 0.385883 0.765543
0.777377 0.387249 0.766212
0.995620 0.393357 0.766037
0.097402 0.767263 0.766205
0.140525 0.767295 0.766237
0.400164 0.767768 0.766708
0.778530 0.768375 0.767308
0.998802 0.769095 0.768038
0.144154 0.996945 0.768563
0.175864 0.996990 0.768582
0.410583 0.997618 0.768810
0.779749 0.999371 0.768638
0.999804 0.999804 0.769464
0.112883 0.030230 0.992197
0.151818 0.030848 0.992218
0.403935 0.039908 0.992529
0.777801 0.067557 0.993689
0.994821 0.087997 0.994821
0.113298 0.100475 0.992307
0.152131 0.100778 0.992329
0.404059 0.105133 0.992640
0.777894 0.120057 0.993797
0.994923 0.133062 0.994923
0.120726 0.387265 0.992909
0.157638 0.387319 0.992987
0.405572 0.387927 0.994212
0.779128 0.391080 0.995290
0.996304 0.394006 0.996304
0.145230 0.767008 0.995117
0.176867 0.767048 0.995177
0.411665 0.767585 0.996023
0.781457 0.768612 0.998857
0.999143 0.769227 0.999143
0.167012 0.997419 0.997419
0.194836 0.997461 0.997461
0.417876 0.998032 0.998032
0.782831 0.999530 0.999530
1.000000 1.000000 1.000000
