app/src/main/assets/luts/portrait_pink_tint.cube
# V-Cam procedural LUT — portrait_pink_tint
# Generated by LutBaker. Do not edit by hand.
TITLE "V-Cam portrait_pink_tint"
LUT_3D_SIZE 33
DOMAIN_MIN 0.0 0.0 0.0
DOMAIN_MAX 1.0 1.0 1.0
0.000000 0.000000 0.000000
0.000242 0.000000 0.000000
0.001096 0.000000 0.000000
0.003389 0.000000 0.000000
0.008434 0.000000 0.000000
0.018102 0.000000 0.000000
0.034898 0.000001 0.000001
0.059049 0.000002 0.000002
0.086089 0.000005 0.000005
0.115798 0.000012 0.000012
0.148083 0.000028 0.000028
0.182836 0.000060 0.000060
0.219933 0.000120 0.000120
0.259234 0.000227 0.000227
0.300577 0.000409 0.000409
0.343781 0.000706 0.000706
0.388642 0.001171 0.001171
0.434930 0.001878 0.001878
0.482385 0.002917 0.002917
0.530717 0.004407 0.004407
0.579598 0.006495 0.006495
0.628657 0.009362 0.009362
0.677472 0.013232 0.013232
0.725565 0.018371 0.018371
0.772458 0.024458 0.024458
0.817527 0.031617 0.031617
0.860063 0.039820 0.039820
0.899246 0.048217 0.048217
0.934104 0.055990 0.055990
0.963459 0.062765 0.062765
0.985852 0.068074 0.068074
0.993812 0.069991 0.069991
0.993812 0.069991 0.069991
0.000000 0.000237 0.000000
0.000242 0.000237 0.000000
0.001096 0.000237 0.000000
0.003389 0.000237 0.000000
0.008434 0.000237 0.000000
0.018102 0.000237 0.000000
0.034899 0.000237 0.000001
0.059049 0.000239 0.000002
0.086089 0.000242 0.000005
0.115798 0.000249 0.000012
0.148083 0.000265 0.000028
0.182836 0.000297 0.000060
0.219933 0.000357 0.000120
0.259234 0.000464 0.000227
0.300577 0.000646 0.000409
0.343781 0.000942 0.000706
0.388642 0.001408 0.001172
0.434930 0.002114 0.001878
0.482385 0.003154 0.002918
0.530717 0.004644 0.004408
0.579598 0.006731 0.006496
0.628657 0.009598 0.009363
0.677472 0.013468 0.013233
0.725565 0.018606 0.018372
0.772458 0.024693 0.024459
0.817528 0.031852 0.031619
0.860063 0.040056 0.039822
0.899247 0.048424 0.048218
0.934104 0.056177 0.055992
0.963459 0.062937 0.062767
0.985852 0.068236 0.068076
0.993812 0.070149 0.069993
0.993812 0.070149 0.069993
0.000000 0.001074 0.000000
0.000242 0.001074 0.000000
0.001096 0.001074 0.000000
0.003389 0.001074 0.000000
0.008434 0.001074 0.000000
0.018102 0.001074 0.000000
0.034899 0.001075 0.000001
0.059049 0.001076 0.000002
0.086089 0.001079 0.000005
0.115798 0.001086 0.000012
0.148083 0.001102 0.000028
0.182836 0.001134 0.000060
0.219933 0.001194 0.000121
0.259234 0.001301 0.000228
0.300577 0.001482 0.000410
0.343781 0.001779 0.000707
0.388642 0.002244 0.001173
0.434930 0.002950 0.001880
0.482385 0.003990 0.002920
0.530718 0.005479 0.004410
0.579598 0.007566 0.006498
0.628657 0.010433 0.009366
0.677472 0.014302 0.013237
0.725565 0.019440 0.018376
0.772458 0.025527 0.024465
0.817528 0.032685 0.031625
0.860064 0.040879 0.039829
0.899247 0.049151 0.048225
0.934104 0.056834 0.055999
0.963459 0.063542 0.062773
0.985853 0.068805 0.068083
0.993812 0.070706 0.069999
0.993812 0.070706 0.069999
0.000000 0.003323 0.000000
0.000242 0.003323 0.000000
0.001096 0.003323 0.000000
0.003389 0.003323 0.000000
0.008434 0.003323 0.000000
0.018102 0.003323 0.000000
0.034899 0.003323 0.000001
0.059049 0.003324 0.000002
0.086089 0.003327 0.000005
0.115798 0.003335 0.000013
0.148083 0.003350 0.000029
0.182836 0.003382 0.000061
0.219934 0.003442 0.000122
0.259234 0.003548 0.000229
0.300577 0.003730 0.000412
0.343782 0.004026 0.000709
0.388643 0.004491 0.001176
0.434930 0.005196 0.001883
0.482386 0.006234 0.002924
0.530718 0.007723 0.004416
0.579599 0.009809 0.006505
0.628658 0.012675 0.009375
0.677473 0.016543 0.013247
0.725566 0.021679 0.018389
0.772459 0.027765 0.024479
0.817529 0.034922 0.031642
0.860065 0.043030 0.039848
0.899248 0.051070 0.048244
0.934105 0.058574 0.056017
0.963460 0.065147 0.062791
0.985853 0.070316 0.068100
0.993813 0.072185 0.070017
0.993813 0.072185 0.070017
0.000000 0.008268 0.000000
0.000242 0.008268 0.000000
0.001096 0.008268 0.000000
0.003389 0.008268 0.000000
0.008434 0.008269 0.000000
0.018102 0.008269 0.000000
0.034899 0.008269 0.000001
0.059049 0.008270 0.000002
0.086090 0.008273 0.000006
0.115799 0.008280 0.000014
0.148084 0.008295 0.000030
0.182837 0.008327 0.000063
0.219934 0.008386 0.000124
0.259235 0.008492 0.000232
0.300578 0.008673 0.000416
0.343782 0.008968 0.000715
0.388643 0.009431 0.001183
0.434931 0.010135 0.001892
0.482387 0.011172 0.002935
0.530719 0.012659 0.004429
0.579600 0.014742 0.006521
0.628659 0.017605 0.009393
0.677474 0.021470 0.013269
0.725568 0.026604 0.018416
0.772461 0.032688 0.024512
0.817530 0.039841 0.031679
0.860066 0.047540 0.039890
0.899249 0.055128 0.048284
0.934107 0.062274 0.056057
0.963462 0.068574 0.062831
0.985855 0.073552 0.068140
0.993815 0.075356 0.070056
0.993815 0.075356 0.070056
0.000000 0.017747 0.000000
0.000242 0.017747 0.000000
0.001096 0.017747 0.000000
0.003389 0.017747 0.000000
0.008434 0.017747 0.000000
0.018102 0.017747 0.000000
0.034899 0.017747 0.000001
0.059049 0.017748 0.000003
0.086090 0.017751 0.000007
0.115799 0.017758 0.000015
0.148084 0.017773 0.000032
0.182838 0.017803 0.000066
0.219935 0.017861 0.000128
0.259236 0.017966 0.000238
0.300579 0.018145 0.000424
0.343784 0.018439 0.000725
0.388645 0.018900 0.001196
0.434933 0.019601 0.001908
0.482389 0.020634 0.002955
0.530722 0.022118 0.004453
0.579603 0.024197 0.006550
0.628662 0.027055 0.009429
0.677477 0.030914 0.013312
0.725571 0.036041 0.018467
0.772464 0.042075 0.024575
0.817533 0.048626 0.031750
0.860070 0.055485 0.039970
0.899253 0.062370 0.048362
0.934110 0.068942 0.056134
0.963466 0.074796 0.062907
0.985859 0.079454 0.068215
0.993819 0.081149 0.070131
0.993819 0.081149 0.070131
0.000001 0.034215 0.000001
0.000243 0.034215 0.000001
0.001097 0.034215 0.000001
0.003390 0.034215 0.000001
0.008435 0.034215 0.000001
0.018102 0.034216 0.000001
0.034900 0.034216 0.000002
0.059050 0.034216 0.000004
0.086091 0.034219 0.000008
0.115800 0.034225 0.000017
0.148086 0.034239 0.000036
0.182839 0.034268 0.000071
0.219937 0.034325 0.000136
0.259238 0.034427 0.000248
0.300582 0.034604 0.000437
0.343786 0.034894 0.000742
0.388648 0.035351 0.001218
0.434936 0.036048 0.001936
0.482392 0.037076 0.002989
0.530726 0.038552 0.004496
0.579607 0.040621 0.006602
0.628667 0.043360 0.009491
0.677482 0.046900 0.013387
0.725576 0.051353 0.018557
0.772469 0.056323 0.024684
0.817539 0.061792 0.031874
0.860075 0.067649 0.040109
0.899259 0.073646 0.048497
0.934117 0.079462 0.056267
0.963472 0.084709 0.063038
0.985866 0.088924 0.068345
0.993825 0.090466 0.070261
0.993825 0.090466 0.070261
0.000003 0.058113 0.000003
0.000245 0.058113 0.000003
0.001099 0.058113 0.000003
0.003392 0.058114 0.000003
0.008437 0.058114 0.000004
0.018104 0.058114 0.000004
0.034901 0.058114 0.000004
0.059051 0.058115 0.000005
0.086092 0.058116 0.000011
0.115802 0.058120 0.000021
0.148088 0.058130 0.000042
0.182841 0.058151 0.000080
0.219940 0.058193 0.000148
0.259241 0.058270 0.000265
0.300585 0.058403 0.000459
0.343791 0.058623 0.000771
0.388653 0.058969 0.001254
0.434942 0.059496 0.001982
0.482398 0.060269 0.003045
0.530732 0.061368 0.004564
0.579614 0.062888 0.006684
0.628674 0.064938 0.009590
0.677491 0.067634 0.013506
0.725585 0.071095 0.018701
0.772477 0.075046 0.024859
0.817548 0.079481 0.032073
0.860085 0.084325 0.040333
0.899269 0.089376 0.048715
0.934127 0.094353 0.056481
0.963482 0.098902 0.063250
0.985877 0.102593 0.068555
0.993836 0.103952 0.070471
0.993836 0.103952 0.070471
0.000009 0.084933 0.000009
0.000251 0.084933 0.000009
0.001105 0.084933 0.000009
0.003398 0.084933 0.000009
0.008442 0.084934 0.000010
0.018109 0.084934 0.000010
0.034905 0.084934 0.000011
0.059054 0.084935 0.000012
0.086095 0.084936 0.000014
0.115805 0.084938 0.000027
0.148091 0.084944 0.000051
0.182845 0.084958 0.000093
0.219944 0.084987 0.000166
0.259246 0.085041 0.000289
0.300591 0.085137 0.000492
0.343797 0.085295 0.000814
0.388660 0.085548 0.001309
0.434950 0.085935 0.002050
0.482407 0.086505 0.003130
0.530742 0.087323 0.004668
0.579625 0.088464 0.006810
0.628686 0.090016 0.009742
0.677503 0.092082 0.013689
0.725599 0.094770 0.018920
0.772490 0.097891 0.025127
0.817561 0.101440 0.032378
0.860099 0.105377 0.040670
0.899283 0.109542 0.049045
0.934142 0.113702 0.056807
0.963498 0.117549 0.063572
0.985893 0.120700 0.068875
0.993852 0.121865 0.070789
0.993852 0.121865 0.070789
0.000023 0.114401 0.000023
0.000265 0.114401 0.000023
0.001119 0.114401 0.000023
0.003412 0.114401 0.000023
0.008455 0.114401 0.000024
0.018122 0.114401 0.000024
0.034917 0.114402 0.000026
0.059061 0.114403 0.000028
0.086099 0.114404 0.000031
0.115808 0.114406 0.000036
0.148095 0.114409 0.000064
0.182850 0.114418 0.000111
0.219950 0.114438 0.000192
0.259253 0.114476 0.000325
0.300599 0.114545 0.000540
0.343806 0.114662 0.000876
0.388670 0.114849 0.001389
0.434961 0.115138 0.002150
0.482420 0.115569 0.003254
0.530756 0.116189 0.004818
0.579640 0.117060 0.006992
0.628703 0.118253 0.009961
0.677521 0.119854 0.013953
0.725618 0.121958 0.019238
0.772509 0.124432 0.025516
0.817581 0.127268 0.032821
0.860119 0.130449 0.041155
0.899305 0.133851 0.049523
0.934165 0.137285 0.057278
0.963521 0.140491 0.064039
0.985916 0.143136 0.069337
0.993876 0.144119 0.071250
0.993876 0.144119 0.071250
0.000053 0.146425 0.000053
0.000294 0.146425 0.000053
0.001148 0.146425 0.000053
0.003441 0.146425 0.000053
0.008484 0.146425 0.000054
0.018150 0.146426 0.000055
0.034944 0.146426 0.000057
0.059080 0.146427 0.000060
0.086110 0.146429 0.000064
0.115815 0.146431 0.000071
0.148102 0.146434 0.000081
0.182858 0.146439 0.000137
0.219959 0.146452 0.000229
0.259263 0.146478 0.000375
0.300610 0.146528 0.000607
0.343819 0.146614 0.000963
0.388685 0.146755 0.001499
0.434977 0.146974 0.002289
0.482438 0.147303 0.003425
0.530776 0.147780 0.005027
0.579662 0.148455 0.007245
0.628726 0.149386 0.010267
0.677547 0.150642 0.014321
0.725645 0.152305 0.019682
0.772535 0.154284 0.026062
0.817608 0.156561 0.033441
0.860148 0.159136 0.041830
0.899335 0.161911 0.050187
0.934196 0.164735 0.057934
0.963554 0.167389 0.064688
0.985949 0.169593 0.069981
0.993909 0.170415 0.071893
0.993909 0.170415 0.071893
0.000112 0.180899 0.000112
0.000354 0.180899 0.000112
0.001207 0.180899 0.000112
0.003500 0.180899 0.000113
0.008543 0.180900 0.000114
0.018207 0.180900 0.000115
0.034999 0.180901 0.000118
0.059120 0.180902 0.000122
0.086137 0.180904 0.000129
0.115833 0.180907 0.000138
0.148112 0.180910 0.000151
0.182868 0.180915 0.000172
0.219970 0.180923 0.000278
0.259276 0.180940 0.000443
0.300625 0.180975 0.000696
0.343836 0.181038 0.001079
0.388704 0.181143 0.001648
0.434999 0.181310 0.002474
0.482462 0.181564 0.003654
0.530803 0.181935 0.005308
0.579692 0.182464 0.007586
0.628758 0.183198 0.010677
0.677582 0.184196 0.014816
0.725683 0.185524 0.020280
0.772570 0.187124 0.026802
0.817646 0.188966 0.034282
0.860187 0.191061 0.042733
0.899376 0.193334 0.051079
0.934238 0.195659 0.058815
0.963597 0.197856 0.065560
0.985994 0.199689 0.070847
0.993954 0.200374 0.072756
0.993954 0.200374 0.072756
0.000224 0.217702 0.000224
0.000465 0.217702 0.000224
0.001318 0.217702 0.000224
0.003611 0.217703 0.000224
0.008653 0.217703 0.000225
0.018316 0.217703 0.000228
0.035105 0.217704 0.000231
0.059198 0.217706 0.000237
0.086191 0.217708 0.000246
0.115870 0.217711 0.000259
0.148137 0.217715 0.000278
0.182883 0.217721 0.000302
0.219985 0.217729 0.000342
0.259294 0.217739 0.000530
0.300645 0.217762 0.000812
0.343859 0.217807 0.001230
0.388729 0.217885 0.001840
0.435027 0.218012 0.002716
0.482494 0.218208 0.003953
0.530838 0.218499 0.005673
0.579730 0.218916 0.008029
0.628801 0.219500 0.011213
0.677628 0.220299 0.015462
0.725732 0.221369 0.021060
0.772617 0.222677 0.027777
0.817695 0.224179 0.035392
0.860239 0.225896 0.043908
0.899430 0.227767 0.052239
0.934294 0.229690 0.059963
0.963655 0.231515 0.066697
0.986053 0.233043 0.071977
0.994014 0.233616 0.073883
0.994014 0.233616 0.073883
0.000421 0.256696 0.000421
0.000662 0.256696 0.000421
0.001515 0.256696 0.000421
0.003807 0.256696 0.000422
0.008848 0.256696 0.000423
0.018509 0.256697 0.000426
0.035295 0.256698 0.000431
0.059339 0.256699 0.000439
0.086292 0.256702 0.000451
0.115942 0.256705 0.000469
0.148187 0.256710 0.000494
0.182917 0.256717 0.000527
0.220007 0.256726 0.000571
0.259315 0.256737 0.000639
0.300670 0.256751 0.000958
0.343887 0.256781 0.001420
0.388761 0.256838 0.002083
0.435063 0.256933 0.003021
0.482534 0.257084 0.004330
0.530882 0.257311 0.006134
0.579780 0.257641 0.008589
0.628855 0.258107 0.011891
0.677686 0.258751 0.016282
0.725795 0.259619 0.022053
0.772677 0.260698 0.029033
0.817758 0.261933 0.036820
0.860306 0.263349 0.045392
0.899499 0.264900 0.053707
0.934366 0.266499 0.061417
0.963729 0.268023 0.068140
0.986129 0.269301 0.073410
0.994090 0.269781 0.075313
0.994090 0.269781 0.075313
0.000752 0.297722 0.000752
0.000994 0.297722 0.000753
0.001847 0.297722 0.000753
0.004138 0.297722 0.000754
0.009178 0.297722 0.000756
0.018837 0.297723 0.000760
0.035618 0.297724 0.000766
0.059580 0.297726 0.000777
0.086465 0.297729 0.000793
0.116068 0.297733 0.000816
0.148280 0.297738 0.000849
0.182984 0.297746 0.000892
0.220053 0.297756 0.000950
0.259345 0.297768 0.001023
0.300701 0.297783 0.001137
0.343922 0.297802 0.001653
0.388801 0.297841 0.002380
0.435108 0.297911 0.003394
0.482584 0.298025 0.004792
0.530938 0.298201 0.006700
0.579841 0.298461 0.009277
0.628923 0.298834 0.012725
0.677761 0.299353 0.017293
0.725876 0.300060 0.023281
0.772752 0.300959 0.030615
0.817838 0.301979 0.038618
0.860389 0.303155 0.047217
0.899587 0.304448 0.055517
0.934457 0.305786 0.063213
0.963823 0.307064 0.069923
0.986225 0.308140 0.075185
0.994187 0.308544 0.077084
0.994187 0.308544 0.077084
0.001287 0.340603 0.001287
0.001528 0.340603 0.001287
0.002381 0.340603 0.001288
0.004672 0.340603 0.001289
0.009710 0.340603 0.001291
0.019366 0.340604 0.001296
0.036142 0.340605 0.001305
0.059972 0.340607 0.001318
0.086750 0.340610 0.001339
0.116279 0.340615 0.001369
0.148437 0.340621 0.001410
0.183100 0.340629 0.001466
0.220138 0.340641 0.001540
0.259406 0.340655 0.001633
0.300741 0.340672 0.001749
0.343964 0.340693 0.001929
0.388849 0.340717 0.002733
0.435162 0.340766 0.003837
0.482645 0.340850 0.005342
0.531006 0.340984 0.007375
0.579917 0.341188 0.010100
0.629006 0.341484 0.013725
0.677852 0.341902 0.018508
0.725975 0.342478 0.024760
0.772846 0.343231 0.032569
0.817937 0.344078 0.040831
0.860493 0.345060 0.049411
0.899695 0.346143 0.057697
0.934569 0.347268 0.065379
0.963938 0.348346 0.072078
0.986343 0.349254 0.077330
0.994306 0.349597 0.079226
0.994306 0.349597 0.079226
0.002114 0.385138 0.002114
0.002355 0.385138 0.002114
0.003208 0.385138 0.002115
0.005497 0.385139 0.002116
0.010534 0.385139 0.002119
0.020186 0.385140 0.002125
0.036956 0.385141 0.002136
0.060579 0.385143 0.002153
0.087196 0.385147 0.002178
0.116612 0.385152 0.002215
0.148688 0.385159 0.002267
0.183291 0.385168 0.002337
0.220282 0.385180 0.002429
0.259512 0.385196 0.002545
0.300818 0.385215 0.002690
0.344016 0.385239 0.002866
0.388905 0.385266 0.003139
0.435225 0.385297 0.004348
0.482716 0.385356 0.005976
0.531086 0.385455 0.008154
0.580007 0.385612 0.011052
0.629106 0.385845 0.014886
0.677962 0.386179 0.019925
0.726095 0.386647 0.026495
0.772959 0.387279 0.034938
0.818056 0.387985 0.043416
0.860618 0.388807 0.051987
0.899826 0.389718 0.060263
0.934705 0.390668 0.067935
0.964078 0.391581 0.074624
0.986486 0.392352 0.079868
0.994450 0.392643 0.081761
0.994450 0.392643 0.081761
0.003345 0.431104 0.003345
0.003586 0.431104 0.003345
0.004438 0.431104 0.003346
0.006727 0.431104 0.003347
0.011761 0.431105 0.003351
0.021409 0.431106 0.003359
0.038173 0.431107 0.003371
0.061481 0.431110 0.003392
0.087862 0.431113 0.003423
0.117113 0.431119 0.003468
0.149071 0.431126 0.003532
0.183586 0.431137 0.003617
0.220509 0.431150 0.003728
0.259686 0.431167 0.003871
0.300948 0.431189 0.004047
0.344111 0.431215 0.004262
0.388971 0.431246 0.004517
0.435298 0.431281 0.004915
0.482798 0.431318 0.006681
0.531179 0.431389 0.009024
0.580111 0.431505 0.012119
0.629223 0.431684 0.016193
0.678092 0.431948 0.021529
0.726239 0.432324 0.028470
0.773114 0.432842 0.037401
0.818199 0.433444 0.046378
0.860768 0.434134 0.054950
0.899982 0.434902 0.063222
0.934867 0.435706 0.070889
0.964245 0.436482 0.077571
0.986657 0.437139 0.082809
0.994622 0.437387 0.084700
0.994622 0.437387 0.084700
0.005117 0.478247 0.005117
0.005358 0.478247 0.005117
0.006209 0.478247 0.005118
0.008497 0.478247 0.005120
0.013529 0.478247 0.005124
0.023172 0.478248 0.005133
0.039927 0.478250 0.005148
0.062766 0.478253 0.005173
0.088820 0.478257 0.005210
0.117840 0.478263 0.005264
0.149630 0.478271 0.005340
0.184020 0.478282 0.005442
0.220848 0.478297 0.005575
0.259951 0.478316 0.005745
0.301153 0.478339 0.005956
0.344267 0.478368 0.006212
0.389086 0.478402 0.006517
0.435380 0.478442 0.006871
0.482890 0.478485 0.007433
0.531283 0.478530 0.009954
0.580230 0.478612 0.013266
0.629357 0.478746 0.017607
0.678242 0.478950 0.023277
0.726406 0.479247 0.030642
0.773298 0.479665 0.040109
0.818366 0.480181 0.049707
0.860943 0.480759 0.058289
0.900165 0.481407 0.066567
0.935057 0.482090 0.074235
0.964441 0.482750 0.080916
0.986857 0.483311 0.086152
0.994824 0.483523 0.088042
0.994824 0.483523 0.088042
0.007590 0.526283 0.007590
0.007831 0.526283 0.007590
0.008682 0.526283 0.007591
0.010968 0.526283 0.007593
0.015997 0.526284 0.007599
0.025635 0.526285 0.007609
0.042323 0.526287 0.007627
0.064534 0.526290 0.007656
0.090149 0.526294 0.007700
0.118856 0.526300 0.007763
0.150418 0.526310 0.007852
0.184638 0.526322 0.007971
0.221336 0.526338 0.008128
0.260336 0.526358 0.008327
0.301457 0.526383 0.008575
0.344505 0.526415 0.008876
0.389269 0.526451 0.009234
0.435516 0.526495 0.009650
0.482989 0.526544 0.010124
0.531397 0.526598 0.010897
0.580360 0.526650 0.014437
0.629505 0.526744 0.019064
0.678411 0.526896 0.025099
0.726596 0.527125 0.032932
0.773509 0.527456 0.042914
0.818559 0.527894 0.053375
0.861146 0.528378 0.061983
0.900376 0.528925 0.070277
0.935276 0.529504 0.077955
0.964667 0.530067 0.084641
0.987088 0.530547 0.089880
0.995057 0.530729 0.091771
0.995057 0.530729 0.091771
0.010951 0.574893 0.010951
0.011191 0.574893 0.010951
0.012042 0.574893 0.010952
0.014327 0.574893 0.010955
0.019353 0.574894 0.010961
0.028985 0.574895 0.010973
0.045447 0.574897 0.010994
0.066886 0.574900 0.011027
0.091936 0.574905 0.011078
0.120232 0.574912 0.011151
0.151492 0.574922 0.011254
0.185485 0.574935 0.011392
0.222010 0.574952 0.011574
0.260875 0.574974 0.011805
0.301888 0.575001 0.012092
0.344849 0.575035 0.012442
0.389540 0.575075 0.012857
0.435727 0.575122 0.013340
0.483148 0.575176 0.013890
0.531515 0.575237 0.014503
0.580498 0.575300 0.015546
0.629666 0.575360 0.020466
0.678596 0.575466 0.026884
0.726806 0.575635 0.035220
0.773747 0.575889 0.045655
0.818788 0.576251 0.057120
0.861376 0.576659 0.065996
0.900617 0.577119 0.074319
0.935526 0.577610 0.082017
0.964924 0.578089 0.088717
0.987351 0.578500 0.093964
0.995322 0.578656 0.095857
0.995322 0.578656 0.095857
0.015414 0.623716 0.015414
0.015655 0.623716 0.015414
0.016505 0.623716 0.015416
0.018788 0.623716 0.015419
0.023810 0.623717 0.015426
0.033436 0.623718 0.015440
0.049401 0.623720 0.015463
0.069919 0.623724 0.015502
0.094270 0.623729 0.015560
0.122046 0.623736 0.015644
0.152918 0.623747 0.015762
0.186618 0.623761 0.015921
0.222917 0.623779 0.016130
0.261606 0.623803 0.016395
0.302479 0.623833 0.016725
0.345326 0.623869 0.017127
0.389924 0.623912 0.017605
0.436032 0.623963 0.018163
0.483387 0.624021 0.018798
0.531697 0.624087 0.019506
0.580635 0.624160 0.020281
0.629832 0.624234 0.021677
0.678790 0.624300 0.028476
0.727032 0.624416 0.037331
0.774006 0.624603 0.048172
0.819081 0.624880 0.059985
0.861634 0.625229 0.070279
0.900886 0.625615 0.078645
0.935805 0.626030 0.086375
0.965212 0.626438 0.093098
0.987645 0.626789 0.098359
0.995619 0.626923 0.100258
0.995619 0.626923 0.100258
0.021229 0.672343 0.021229
0.021470 0.672343 0.021230
0.022319 0.672344 0.021231
0.024601 0.672344 0.021235
0.029619 0.672345 0.021243
0.039237 0.672346 0.021259
0.054262 0.672348 0.021286
0.073728 0.672352 0.021330
0.097245 0.672357 0.021396
0.124381 0.672365 0.021493
0.154766 0.672376 0.021628
0.188095 0.672391 0.021810
0.224108 0.672411 0.022049
0.262572 0.672437 0.022353
0.303266 0.672468 0.022732
0.345968 0.672507 0.023194
0.390446 0.672554 0.023744
0.436455 0.672608 0.024385
0.483726 0.672671 0.025119
0.531964 0.672742 0.025940
0.580840 0.672821 0.026840
0.629988 0.672907 0.027804
0.678987 0.672993 0.029677
0.727266 0.673062 0.039038
0.774281 0.673188 0.050269
0.819397 0.673388 0.062493
0.861918 0.673675 0.074775
0.901183 0.673996 0.083197
0.936113 0.674345 0.090970
0.965529 0.674691 0.097725
0.987970 0.674991 0.103008
0.995946 0.675106 0.104914
0.995946 0.675106 0.104914
0.028686 0.720310 0.028686
0.028927 0.720310 0.028687
0.029775 0.720310 0.028689
0.032055 0.720310 0.028692
0.037069 0.720311 0.028702
0.046319 0.720312 0.028720
0.060087 0.720315 0.028751
0.078399 0.720319 0.028801
0.100950 0.720324 0.028878
0.127322 0.720333 0.028989
0.157114 0.720345 0.029144
0.189985 0.720361 0.029353
0.225640 0.720382 0.029628
0.263822 0.720409 0.029978
0.304291 0.720443 0.030415
0.346811 0.720484 0.030948
0.391140 0.720534 0.031584
0.437024 0.720593 0.032327
0.484189 0.720660 0.033180
0.532337 0.720737 0.034138
0.581135 0.720822 0.035192
0.630216 0.720916 0.036328
0.679163 0.721016 0.037527
0.727498 0.721112 0.040065
0.774559 0.721184 0.051718
0.819726 0.721315 0.064423
0.862270 0.721525 0.077961
0.901504 0.721793 0.087903
0.936446 0.722085 0.095731
0.965873 0.722378 0.102527
0.988321 0.722633 0.107838
0.996300 0.722730 0.109753
0.996300 0.722730 0.109753
0.038111 0.767082 0.038111
0.038351 0.767082 0.038111
0.039198 0.767082 0.038113
0.041452 0.767083 0.038118
0.046145 0.767084 0.038129
0.054375 0.767085 0.038150
0.066908 0.767088 0.038186
0.083998 0.767092 0.038244
0.105471 0.767098 0.038332
0.130956 0.767107 0.038461
0.160042 0.767120 0.038641
0.192357 0.767137 0.038883
0.227575 0.767159 0.039202
0.265411 0.767188 0.039609
0.305602 0.767224 0.040117
0.347895 0.767268 0.040733
0.392038 0.767321 0.041457
0.437768 0.767384 0.042296
0.484803 0.767456 0.043249
0.532839 0.767539 0.044310
0.581541 0.767631 0.045465
0.630538 0.767732 0.046698
0.679412 0.767841 0.047985
0.727692 0.767955 0.049299
0.774827 0.768062 0.052266
0.820043 0.768130 0.066127
0.862641 0.768265 0.080320
0.901845 0.768472 0.092681
0.936800 0.768714 0.100573
0.966238 0.768960 0.107417
0.988694 0.769176 0.112764
0.996676 0.769259 0.114691
0.996676 0.769259 0.114691
0.049119 0.812047 0.049119
0.049327 0.812048 0.049120
0.050059 0.812048 0.049122
0.051990 0.812048 0.049127
0.056074 0.812049 0.049138
0.063363 0.812050 0.049159
0.074715 0.812053 0.049195
0.090554 0.812057 0.049255
0.110864 0.812064 0.049344
0.135351 0.812074 0.049475
0.163619 0.812087 0.049657
0.195278 0.812105 0.049903
0.229973 0.812129 0.050224
0.267390 0.812159 0.050634
0.307243 0.812198 0.051143
0.349262 0.812245 0.051761
0.393178 0.812301 0.052497
0.438719 0.812368 0.053353
0.485595 0.812446 0.054331
0.533495 0.812534 0.055425
0.582080 0.812634 0.056626
0.630975 0.812743 0.057917
0.679759 0.812861 0.059277
0.727963 0.812975 0.061474
0.775032 0.813094 0.064161
0.820331 0.813207 0.068774
0.862992 0.813283 0.082866
0.902227 0.813423 0.096298
0.937169 0.813618 0.105398
0.966618 0.813824 0.112299
0.989083 0.814006 0.117685
0.997068 0.814077 0.119625
0.997068 0.814077 0.119625
0.060639 0.854494 0.060639
0.060819 0.854495 0.060640
0.061452 0.854495 0.060642
0.063126 0.854495 0.060647
0.066697 0.854496 0.060659
0.073160 0.854497 0.060680
0.083413 0.854500 0.060718
0.098022 0.854505 0.060778
0.117122 0.854512 0.060870
0.140526 0.854522 0.061004
0.167877 0.854536 0.061190
0.198783 0.854555 0.061441
0.232869 0.854580 0.061770
0.269794 0.854613 0.062191
0.309248 0.854653 0.062715
0.350940 0.854703 0.063353
0.394586 0.854763 0.064114
0.439901 0.854835 0.065005
0.486587 0.854917 0.066026
0.534325 0.855012 0.067175
0.582773 0.855117 0.068523
0.631568 0.855217 0.070685
0.680254 0.855330 0.073039
0.728354 0.855454 0.075557
