app/src/main/assets/luts/portrait_warm.cube
# V-Cam procedural LUT — portrait_warm
# Generated by LutBaker. Do not edit by hand.
TITLE "V-Cam portrait_warm"
LUT_3D_SIZE 9
DOMAIN_MIN 0.0 0.0 0.0
DOMAIN_MAX 1.0 1.0 1.0
0.000000 0.000000 0.000000
0.008616 0.000000 0.000000
0.089609 0.000000 0.000000
0.227607 0.000000 0.000000
0.401259 0.000000 0.000000
0.597418 0.000000 0.000000
0.794530 0.000000 0.000000
0.954418 0.000000 0.000000
1.000000 0.000000 0.000000
0.000000 0.007808 0.000000
0.008616 0.007808 0.000000
0.089609 0.007803 0.000000
0.227606 0.007674 0.000000
0.401258 0.006488 0.000000
0.597416 0.000520 0.000000
0.794527 0.000000 0.000000
0.954415 0.000000 0.000000
1.000000 0.000000 0.000000
0.000000 0.083976 0.000000
0.008608 0.083976 0.000000
0.089604 0.083973 0.000000
0.227596 0.083913 0.000000
0.401241 0.083262 0.000000
0.597391 0.079794 0.000000
0.794498 0.067257 0.000000
0.954380 0.039409 0.000000
1.000000 0.023213 0.000000
0.000000 0.216901 0.000000
0.008401 0.216900 0.000000
0.089513 0.216895 0.000000
0.227554 0.216873 0.000000
0.401170 0.216688 0.000000
0.597284 0.215505 0.000000
0.794371 0.211233 0.000000
0.954229 0.203384 0.000000
1.000000 0.199483 0.000000
0.000000 0.384664 0.000000
0.006535 0.384664 0.000000
0.088543 0.384655 0.000000
0.227277 0.384620 0.000000
0.400990 0.384531 0.000000
0.597000 0.384124 0.000000
0.794026 0.382263 0.000000
0.953821 0.378715 0.000000
1.000000 0.376959 0.000000
0.000000 0.575209 0.000000
0.000000 0.575208 0.000000
0.083670 0.575196 0.000000
0.225619 0.575146 0.000000
0.400398 0.575016 0.000000
0.596489 0.574788 0.000000
0.793256 0.574095 0.000000
0.953003 0.572318 0.000000
1.000000 0.571413 0.000000
0.000000 0.768999 0.000000
0.000000 0.768998 0.000000
0.066662 0.768983 0.000000
0.220042 0.768918 0.000000
0.398011 0.768746 0.000000
0.595515 0.768422 0.000000
0.792115 0.768005 0.000000
0.951728 0.767290 0.000000
1.000000 0.766821 0.000000
0.000000 0.933158 0.000000
0.000000 0.933157 0.000000
0.011294 0.933139 0.000000
0.206247 0.933069 0.000000
0.391822 0.932878 0.000000
0.592479 0.932493 0.000000
0.790806 0.931889 0.000000
0.950243 0.931258 0.000000
1.000000 0.931043 0.000000
0.000000 1.000000 0.000000
0.000000 1.000000 0.000000
0.000000 1.000000 0.000000
0.193768 1.000000 0.000000
0.386561 1.000000 0.000000
0.589896 1.000000 0.000000
0.789540 1.000000 0.000000
0.949562 1.000000 0.000000
1.000000 1.000000 0.000000
0.000000 0.000000 0.007006
0.008616 0.000000 0.007006
0.089609 0.000000 0.007001
0.227607 0.000000 0.006875
0.401259 0.000000 0.005693
0.597418 0.000000 0.000000
0.794530 0.000000 0.000000
0.954417 0.000000 0.000000
1.000000 0.000000 0.000000
0.000000 0.007808 0.007006
0.008616 0.007808 0.007006
0.089608 0.007803 0.007001
0.227605 0.007675 0.006872
0.401256 0.006491 0.005687
0.597414 0.000529 0.000000
0.794524 0.000000 0.000000
0.954411 0.000000 0.000000
1.000000 0.000000 0.000000
0.000000 0.083976 0.006998
0.008609 0.083975 0.006998
0.089603 0.083973 0.006993
0.227595 0.083914 0.006829
0.401240 0.083264 0.005555
0.597389 0.079799 0.000000
0.794495 0.067267 0.000000
0.954376 0.039432 0.000000
1.000000 0.023239 0.000000
0.000000 0.216900 0.006790
0.008403 0.216900 0.006792
0.089514 0.216894 0.006770
0.227553 0.216873 0.006645
0.401169 0.216689 0.004996
0.597282 0.215506 0.000000
0.794368 0.211236 0.000000
0.954226 0.203389 0.000000
1.000000 0.199489 0.000000
0.000000 0.384664 0.004924
0.006542 0.384663 0.004928
0.088547 0.384654 0.004866
0.227278 0.384619 0.004601
0.400989 0.384531 0.003624
0.596999 0.384125 0.000000
0.794023 0.382264 0.000000
0.953818 0.378717 0.000000
1.000000 0.376961 0.000000
0.000000 0.575208 0.000000
0.000000 0.575206 0.000000
0.083681 0.575195 0.000000
0.225622 0.575145 0.000000
0.400399 0.575015 0.000000
0.596489 0.574787 0.000000
0.793254 0.574095 0.000000
0.953000 0.572319 0.000000
1.000000 0.571414 0.000000
0.000000 0.768999 0.000000
0.000000 0.768996 0.000000
0.066691 0.768981 0.000000
0.220050 0.768916 0.000000
0.398014 0.768744 0.000000
0.595516 0.768421 0.000000
0.792114 0.768004 0.000000
0.951726 0.767290 0.000000
1.000000 0.766820 0.000000
0.000000 0.933159 0.000000
0.000000 0.933154 0.000000
0.011379 0.933136 0.000000
0.206266 0.933066 0.000000
0.391830 0.932875 0.000000
0.592481 0.932491 0.000000
0.790806 0.931888 0.000000
0.950242 0.931257 0.000000
1.000000 0.931042 0.000000
0.000000 1.000000 0.000000
0.000000 1.000000 0.000000
0.000000 1.000000 0.000000
0.193794 1.000000 0.000000
0.386570 1.000000 0.000000
0.589900 1.000000 0.000000
0.789541 1.000000 0.000000
0.949561 1.000000 0.000000
1.000000 1.000000 0.000000
0.000000 0.000000 0.078043
0.008616 0.000000 0.078043
0.089608 0.000000 0.078041
0.227605 0.000000 0.077993
0.401256 0.000000 0.077340
0.597413 0.000000 0.073725
0.794524 0.000000 0.060414
0.954411 0.000000 0.030179
1.000000 0.000000 0.014069
0.000000 0.007807 0.078043
0.008615 0.007807 0.078042
0.089607 0.007802 0.078040
0.227603 0.007668 0.077991
0.401253 0.006469 0.077336
0.597408 0.000482 0.073717
0.794519 0.000000 0.060393
0.954405 0.000000 0.030139
1.000000 0.000000 0.014023
0.000000 0.083975 0.078038
0.008608 0.083975 0.078038
0.089602 0.083972 0.078036
0.227585 0.083919 0.077975
0.401221 0.083286 0.077291
0.597361 0.079858 0.073614
0.794459 0.067390 0.060130
0.954333 0.039700 0.029614
1.000000 0.023541 0.013432
0.000000 0.216899 0.077937
0.008397 0.216898 0.077938
0.089526 0.216888 0.077943
0.227550 0.216870 0.077878
0.401154 0.216692 0.076958
0.597256 0.215523 0.072793
0.794333 0.211273 0.058038
0.954184 0.203449 0.025484
1.000000 0.199559 0.008779
0.000000 0.384662 0.076846
0.006524 0.384660 0.076849
0.088593 0.384643 0.076875
0.227288 0.384610 0.076717
0.400983 0.384526 0.076133
0.596979 0.384127 0.070714
0.793992 0.382275 0.052082
0.953779 0.378740 0.014299
1.000000 0.376988 0.000000
0.000000 0.575206 0.071311
0.000000 0.575203 0.071322
0.083803 0.575179 0.071413
0.225659 0.575130 0.071069
0.400407 0.575003 0.070181
0.596480 0.574781 0.067496
0.793226 0.574095 0.040991
0.952967 0.572324 0.000000
1.000000 0.571422 0.000000
0.000000 0.768998 0.051320
0.000000 0.768994 0.051362
0.067025 0.768957 0.051725
0.220148 0.768893 0.050955
0.398050 0.768724 0.048910
0.595523 0.768405 0.044994
0.792102 0.767995 0.032290
0.951702 0.767285 0.000000
1.000000 0.766817 0.000000
0.000000 0.933164 0.000000
0.000000 0.933158 0.000000
0.012372 0.933101 0.000000
0.206490 0.933032 0.000000
0.391917 0.932844 0.000000
0.592512 0.932464 0.000000
0.790808 0.931869 0.000000
0.950226 0.931245 0.000000
1.000000 0.931031 0.000000
0.000000 1.000000 0.000000
0.000000 1.000000 0.000000
0.000000 1.000000 0.000000
0.194096 1.000000 0.000000
0.386685 1.000000 0.000000
0.589944 1.000000 0.000000
0.789549 1.000000 0.000000
0.949552 1.000000 0.000000
1.000000 1.000000 0.000000
0.000000 0.000000 0.205650
0.008585 0.000000 0.205650
0.089612 0.000000 0.205645
0.227597 0.000000 0.205631
0.401243 0.000000 0.205512
0.597391 0.000000 0.204405
0.794502 0.000000 0.200164
0.954385 0.000000 0.192115
1.000000 0.000000 0.188072
0.000000 0.007774 0.205650
0.008582 0.007773 0.205648
0.089610 0.007753 0.205643
0.227596 0.007634 0.205629
0.401240 0.006370 0.205509
0.597386 0.000272 0.204401
0.794497 0.000000 0.200157
0.954378 0.000000 0.192103
1.000000 0.000000 0.188059
0.000000 0.083968 0.205640
0.008546 0.083967 0.205639
0.089592 0.083959 0.205623
0.227578 0.083904 0.205613
0.401207 0.083235 0.205482
0.597337 0.079745 0.204355
0.794433 0.067081 0.200067
0.954303 0.039028 0.191969
1.000000 0.022784 0.187905
0.000000 0.216892 0.205603
0.008367 0.216891 0.205602
0.089516 0.216882 0.205594
0.227539 0.216865 0.205582
0.401092 0.216714 0.205402
0.597147 0.215604 0.204183
0.794182 0.211438 0.199683
0.954002 0.203719 0.191365
1.000000 0.199871 0.187210
0.000000 0.384651 0.205296
0.006433 0.384649 0.205296
0.088560 0.384631 0.205301
0.227336 0.384574 0.205320
0.400960 0.384511 0.205148
0.596896 0.384139 0.203479
0.793858 0.382328 0.197922
0.953610 0.378841 0.188519
1.000000 0.377107 0.183909
0.000000 0.575193 0.203413
0.000000 0.575191 0.203416
0.083703 0.575164 0.203453
0.225826 0.575068 0.203565
0.400444 0.574955 0.203270
0.596447 0.574758 0.202409
0.793110 0.574100 0.195051
0.952823 0.572349 0.182675
1.000000 0.571457 0.177100
0.000000 0.768994 0.196997
0.000000 0.768991 0.197008
0.066587 0.768948 0.197141
0.220573 0.768798 0.197553
0.398209 0.768640 0.196995
0.595555 0.768341 0.195969
0.792054 0.767960 0.192878
0.951598 0.767264 0.173155
1.000000 0.766804 0.165906
0.000000 0.933188 0.180960
0.000000 0.933183 0.180991
0.010266 0.933116 0.181357
0.207452 0.932886 0.182439
0.392294 0.932709 0.180849
0.592648 0.932352 0.177594
0.790814 0.931788 0.172352
0.950163 0.931192 0.163021
1.000000 0.930988 0.152022
0.000000 1.000000 0.167044
0.000000 1.000000 0.167058
0.000000 1.000000 0.167216
0.195395 1.000000 0.168307
0.387178 1.000000 0.166244
0.590135 1.000000 0.162057
0.789587 1.000000 0.155409
0.949512 1.000000 0.147798
1.000000 1.000000 0.144833
0.000000 0.000000 0.367390
0.008272 0.000000 0.367389
0.089498 0.000000 0.367380
0.227640 0.000000 0.367342
0.401207 0.000000 0.367283
0.597330 0.000000 0.367090
0.794441 0.000000 0.365586
0.954313 0.000000 0.362299
1.000000 0.000000 0.360617
0.000000 0.007457 0.367389
0.008264 0.007454 0.367386
0.089493 0.007389 0.367377
0.227637 0.007113 0.367339
0.401205 0.006107 0.367280
0.597326 0.000000 0.367086
0.794436 0.000000 0.365581
0.954306 0.000000 0.362292
1.000000 0.000000 0.360610
0.000000 0.083817 0.367373
0.008149 0.083815 0.367370
0.089441 0.083790 0.367341
0.227607 0.083640 0.367306
0.401174 0.083090 0.367251
0.597278 0.079420 0.367047
0.794373 0.066168 0.365522
0.954231 0.037055 0.362212
1.000000 0.020560 0.360522
0.000000 0.216886 0.367305
0.007660 0.216885 0.367303
0.089191 0.216870 0.367277
0.227516 0.216828 0.367186
0.401061 0.216678 0.367148
0.597083 0.215513 0.366902
0.794108 0.211186 0.365284
0.953912 0.203314 0.361886
1.000000 0.199404 0.360162
0.000000 0.384621 0.367144
0.006184 0.384620 0.367143
0.088431 0.384604 0.367129
0.227319 0.384548 0.367081
0.400921 0.384492 0.367041
0.596689 0.384196 0.366671
0.793470 0.382535 0.364805
0.953157 0.379143 0.361097
1.000000 0.377459 0.359269
0.000000 0.575160 0.366475
0.000000 0.575157 0.366476
0.083316 0.575131 0.366476
0.225762 0.575027 0.366492
0.400562 0.574842 0.366554
0.596372 0.574708 0.366254
0.792814 0.574128 0.363622
0.952440 0.572434 0.358615
1.000000 0.571571 0.356410
0.000000 0.768983 0.363640
0.000000 0.768980 0.363644
0.065013 0.768938 0.363686
0.220288 0.768765 0.363883
0.398644 0.768428 0.364278
0.595650 0.768183 0.363873
0.791939 0.767878 0.362646
0.951323 0.767220 0.354708
1.000000 0.766780 0.351904
0.000000 0.933249 0.356337
0.000000 0.933243 0.356348
0.003508 0.933175 0.356486
0.206376 0.932897 0.357075
0.393292 0.932369 0.358067
0.593014 0.932068 0.356742
0.790841 0.931583 0.354624
0.950002 0.931060 0.351021
1.000000 0.930879 0.346656
0.000000 1.000000 0.351137
0.000000 1.000000 0.351141
0.000000 1.000000 0.351192
0.194530 1.000000 0.351424
0.388491 1.000000 0.352515
0.590652 1.000000 0.350863
0.789695 1.000000 0.348282
0.949415 1.000000 0.345396
1.000000 1.000000 0.344293
0.000000 0.000000 0.552657
0.006637 0.000000 0.552656
0.088712 0.000000 0.552642
0.227531 0.000000 0.552583
0.401364 0.000000 0.552427
0.597207 0.000000 0.552268
0.794261 0.000000 0.552147
0.954167 0.000000 0.550979
1.000000 0.000000 0.550275
0.000000 0.005814 0.552655
0.006618 0.005805 0.552651
0.088702 0.005655 0.552638
0.227526 0.005010 0.552578
0.401361 0.003334 0.552423
0.597203 0.000000 0.552264
0.794255 0.000000 0.552142
0.954160 0.000000 0.550974
1.000000 0.000000 0.550269
0.000000 0.082925 0.552631
0.006349 0.082921 0.552627
0.088581 0.082863 0.552583
0.227469 0.082494 0.552525
0.401318 0.081530 0.552375
0.597158 0.078827 0.552221
0.794189 0.064807 0.552088
0.954087 0.033062 0.550908
1.000000 0.016061 0.550198
0.000000 0.216654 0.552527
0.005199 0.216651 0.552524
0.087962 0.216625 0.552480
0.227264 0.216530 0.552312
0.401156 0.216207 0.552183
0.596976 0.215317 0.552051
0.793912 0.210818 0.551867
0.953772 0.202372 0.550634
1.000000 0.198314 0.549905
0.000000 0.384642 0.552265
0.002210 0.384641 0.552262
0.086330 0.384619 0.552226
0.226728 0.384540 0.552081
0.400887 0.384422 0.551790
0.596596 0.384145 0.551712
0.793239 0.382453 0.551393
0.952974 0.378812 0.550000
1.000000 0.377078 0.549219
0.000000 0.575091 0.551823
0.000000 0.575089 0.551821
0.082466 0.575065 0.551800
0.225498 0.574970 0.551716
0.400539 0.574784 0.551563
0.596286 0.574669 0.551486
0.792308 0.574248 0.550929
0.951702 0.572679 0.549105
1.000000 0.571874 0.548203
0.000000 0.768958 0.550646
0.000000 0.768954 0.550646
0.061415 0.768913 0.550643
0.219306 0.768742 0.550638
0.398482 0.768356 0.550700
0.595869 0.767940 0.550891
0.791770 0.767767 0.550451
0.950778 0.767191 0.547345
1.000000 0.766780 0.546033
0.000000 0.933170 0.547208
0.000000 0.933166 0.547208
0.000000 0.933123 0.547210
0.203766 0.932941 0.547226
0.392652 0.932329 0.547667
0.593740 0.931581 0.548253
0.790933 0.931237 0.547298
0.949731 0.930846 0.545690
1.000000 0.930692 0.543725
0.000000 1.000000 0.544728
0.000000 1.000000 0.544728
0.000000 1.000000 0.544737
0.193415 1.000000 0.544782
0.387752 1.000000 0.544975
0.591674 1.000000 0.545780
0.789943 1.000000 0.544518
0.949262 1.000000 0.543076
1.000000 1.000000 0.542517
0.000000 0.000000 0.744369
0.001295 0.000000 0.744367
0.085900 0.000000 0.744348
0.226766 0.000000 0.744267
0.401401 0.000000 0.744051
0.597572 0.000000 0.743639
0.793890 0.000000 0.743397
0.953935 0.000000 0.743629
1.000000 0.000000 0.743464
0.000000 0.000460 0.744366
0.001261 0.000445 0.744361
0.085880 0.000159 0.744342
0.226757 0.000000 0.744260
0.401396 0.000000 0.744044
0.597567 0.000000 0.743633
0.793885 0.000000 0.743392
0.953929 0.000000 0.743623
1.000000 0.000000 0.743459
0.000000 0.079842 0.744334
0.000748 0.079833 0.744328
0.085648 0.079726 0.744267
0.226659 0.078990 0.744187
0.401332 0.077028 0.743974
0.597511 0.073237 0.743570
0.793823 0.063693 0.743333
0.953857 0.026719 0.743558
1.000000 0.008915 0.743391
0.000000 0.215658 0.744197
0.000000 0.215654 0.744192
0.084401 0.215610 0.744128
0.226277 0.215436 0.743879
0.401076 0.214761 0.743681
0.597282 0.213494 0.743306
0.793561 0.210499 0.743087
0.953551 0.200865 0.743286
1.000000 0.196569 0.743105
0.000000 0.384385 0.743853
0.000000 0.384382 0.743848
0.080971 0.384351 0.743789
0.225124 0.384232 0.743539
0.400567 0.384011 0.742981
0.596779 0.383508 0.742686
0.792941 0.382339 0.742515
0.952773 0.378160 0.742619
1.000000 0.376327 0.742404
0.000000 0.575209 0.743244
0.000000 0.575206 0.743240
0.073513 0.575175 0.743190
0.222752 0.575052 0.742981
0.399691 0.574798 0.742486
0.596253 0.574582 0.741857
0.792085 0.574236 0.741770
0.951417 0.572485 0.741603
1.000000 0.571609 0.741319
0.000000 0.768873 0.742402
0.000000 0.768870 0.742399
0.055154 0.768838 0.742370
0.217470 0.768692 0.742239
0.397846 0.768315 0.741912
0.595830 0.767863 0.741554
0.791637 0.767710 0.741457
0.949983 0.767313 0.740885
1.000000 0.766939 0.740415
0.000000 0.932942 0.740961
0.000000 0.932938 0.740959
0.000000 0.932897 0.740938
0.202346 0.932724 0.740854
0.391347 0.932290 0.740670
0.593510 0.931454 0.740610
0.791161 0.930844 0.740702
0.949432 0.930629 0.740129
1.000000 0.930514 0.739404
0.000000 1.000000 0.739712
0.000000 1.000000 0.739711
0.000000 1.000000 0.739694
0.191629 1.000000 0.739629
0.387023 1.000000 0.739497
0.591404 1.000000 0.739504
0.790408 1.000000 0.739703
0.949127 1.000000 0.739052
1.000000 1.000000 0.738793
0.000000 0.000000 0.913816
0.000000 0.000000 0.913814
0.079552 0.000000 0.913793
0.224818 0.000000 0.913700
0.400960 0.000000 0.913454
0.597979 0.000000 0.912974
0.794513 0.000000 0.912263
0.953605 0.000000 0.912149
1.000000 0.000000 0.912359
0.000000 0.000000 0.913813
0.000000 0.000000 0.913806
0.079517 0.000000 0.913785
0.224805 0.000000 0.913693
0.400952 0.000000 0.913447
0.597973 0.000000 0.912967
0.794506 0.000000 0.912256
0.953597 0.000000 0.912143
1.000000 0.000000 0.912353
0.000000 0.072920 0.913779
0.000000 0.072906 0.913772
0.079121 0.072729 0.913694
0.224653 0.071424 0.913602
0.400860 0.067850 0.913358
0.597898 0.060464 0.912881
0.794434 0.048226 0.912176
0.953515 0.020298 0.912063
1.000000 0.000307 0.912282
0.000000 0.213340 0.913639
0.000000 0.213334 0.913632
0.076889 0.213270 0.913547
0.224036 0.213001 0.913214
0.400485 0.211834 0.912977
0.597591 0.209557 0.912516
0.794129 0.206182 0.911836
0.953162 0.199593 0.911725
1.000000 0.194446 0.911984
0.000000 0.383516 0.913292
0.000000 0.383512 0.913285
0.070381 0.383470 0.913202
0.221989 0.383305 0.912843
0.399665 0.382963 0.912004
0.596877 0.381997 0.911590
0.793392 0.380606 0.910988
0.952279 0.377926 0.910887
1.000000 0.375419 0.911231
0.000000 0.575080 0.912583
0.000000 0.575077 0.912577
0.055152 0.575039 0.912517
0.217462 0.574884 0.912259
0.397896 0.574537 0.911388
0.595982 0.574186 0.910066
0.792314 0.573643 0.909641
0.950893 0.572555 0.909599
1.000000 0.571347 0.909882
0.000000 0.769071 0.911360
0.000000 0.769067 0.911356
0.025589 0.769031 0.911308
0.210519 0.768879 0.911101
0.394731 0.768513 0.910578
0.594893 0.767927 0.909453
0.791618 0.767632 0.908586
0.949740 0.767288 0.908569
1.000000 0.766910 0.908600
0.000000 0.932667 0.910055
0.000000 0.932664 0.910052
0.000000 0.932625 0.910015
0.200621 0.932463 0.909863
0.390642 0.932058 0.909486
0.592844 0.931396 0.908884
0.791153 0.930720 0.908327
0.949247 0.930538 0.908208
1.000000 0.930473 0.908092
0.000000 1.000000 0.909494
0.000000 1.000000 0.909491
0.000000 1.000000 0.909458
0.189453 1.000000 0.909320
0.386158 1.000000 0.908982
0.590813 1.000000 0.908459
0.790402 1.000000 0.908049
0.949127 1.000000 0.907984
1.000000 1.000000 0.907912
0.000000 0.000000 1.000000
0.000000 0.000000 1.000000
0.073042 0.000000 1.000000
0.222827 0.000000 1.000000
0.400346 0.000000 1.000000
0.598105 0.000000 1.000000
0.795182 0.000000 1.000000
0.953985 0.000000 1.000000
1.000000 0.000000 1.000000
0.000000 0.000000 1.000000
0.000000 0.000000 1.000000
0.072995 0.000000 1.000000
0.222810 0.000000 1.000000
0.400336 0.000000 1.000000
0.598098 0.000000 1.000000
0.795175 0.000000 1.000000
0.953978 0.000000 1.000000
1.000000 0.000000 1.000000
0.000000 0.065792 1.000000
0.000000 0.065769 1.000000
0.072447 0.065520 1.000000
0.222615 0.063670 1.000000
0.400224 0.058477 1.000000
0.598011 0.047073 1.000000
0.795092 0.026587 1.000000
0.953890 0.003949 1.000000
1.000000 0.000000 1.000000
0.000000 0.211059 1.000000
0.000000 0.211051 1.000000
0.069341 0.210957 1.000000
0.221814 0.210600 1.000000
0.399758 0.209032 1.000000
0.597646 0.205897 1.000000
0.794740 0.201048 1.000000
0.953517 0.195690 1.000000
1.000000 0.193513 1.000000
0.000000 0.382600 1.000000
0.000000 0.382595 1.000000
0.060375 0.382541 1.000000
0.219091 0.382316 1.000000
0.398699 0.381871 1.000000
0.596778 0.380522 1.000000
0.793873 0.378499 1.000000
0.952578 0.376353 1.000000
1.000000 0.375503 1.000000
0.000000 0.574780 1.000000
0.000000 0.574777 1.000000
0.038632 0.574734 1.000000
0.213566 0.574557 1.000000
0.396208 0.574141 1.000000
0.595600 0.573694 1.000000
0.792539 0.572839 1.000000
0.951124 0.571864 1.000000
1.000000 0.571434 1.000000
0.000000 0.769123 1.000000
0.000000 0.769120 1.000000
0.000000 0.769080 1.000000
0.204633 0.768913 1.000000
0.392368 0.768506 1.000000
0.593829 0.767874 1.000000
0.791527 0.767454 0.999896
0.949852 0.767035 0.999704
1.000000 0.766856 0.999628
0.000000 0.932825 1.000000
0.000000 0.932822 1.000000
0.000000 0.932781 1.000000
0.193843 0.932612 1.000000
0.387912 0.932187 1.000000
0.591628 0.931487 1.000000
0.790733 0.930762 0.999459
0.949238 0.930507 0.998910
1.000000 0.930460 0.998878
0.000000 1.000000 1.000000
0.000000 1.000000 1.000000
0.000000 1.000000 1.000000
0.188009 1.000000 1.000000
0.385588 1.000000 1.000000
0.590548 1.000000 0.999996
0.790247 1.000000 0.999196
0.949146 1.000000 0.998803
1.000000 1.000000 0.998774
