app/src/main/assets/luts/portrait_clean_bright.cube
# V-Cam procedural LUT — portrait_clean_bright
# Generated by LutBaker. Do not edit by hand.
TITLE "V-Cam portrait_clean_bright"
LUT_3D_SIZE 33
DOMAIN_MIN 0.0 0.0 0.0
DOMAIN_MAX 1.0 1.0 1.0
0.071915 0.050495 0.050495
0.104907 0.050019 0.050019
0.137899 0.049542 0.049542
0.170892 0.049065 0.049065
0.203884 0.048589 0.048589
0.236876 0.048112 0.048112
0.269868 0.047636 0.047636
0.302861 0.047159 0.047159
0.335853 0.046683 0.046683
0.368845 0.046206 0.046206
0.401837 0.045730 0.045730
0.434829 0.045253 0.045253
0.467822 0.044777 0.044777
0.500814 0.044300 0.044300
0.533254 0.043824 0.043824
0.564926 0.043347 0.043347
0.596599 0.042871 0.042871
0.628271 0.042394 0.042394
0.659944 0.041917 0.041917
0.691617 0.041441 0.041441
0.723289 0.040964 0.040964
0.754961 0.040488 0.040488
0.786634 0.040011 0.040011
0.818307 0.039535 0.039535
0.849979 0.039058 0.039058
0.881652 0.038582 0.038582
0.913324 0.038105 0.038105
0.944997 0.037629 0.037629
0.976669 0.037152 0.037152
1.000000 0.036676 0.036676
1.000000 0.036199 0.036199
1.000000 0.035723 0.035723
1.000000 0.035246 0.035246
0.070979 0.083028 0.049560
0.103972 0.082552 0.049083
0.136964 0.082075 0.048606
0.169956 0.081599 0.048130
0.202948 0.081122 0.047653
0.235941 0.080646 0.047177
0.268933 0.080169 0.046700
0.301925 0.079693 0.046224
0.334917 0.079216 0.045747
0.367909 0.078739 0.045271
0.400902 0.078263 0.044794
0.433894 0.077786 0.044318
0.466886 0.077310 0.043841
0.499878 0.076833 0.043365
0.532356 0.076357 0.042888
0.564028 0.075880 0.042412
0.595701 0.075404 0.041935
0.627373 0.074927 0.041458
0.659046 0.074451 0.040982
0.690718 0.073974 0.040505
0.722391 0.073498 0.040029
0.754063 0.073021 0.039552
0.785736 0.072545 0.039076
0.817408 0.072068 0.038599
0.849081 0.071591 0.038123
0.880754 0.071115 0.037646
0.912426 0.070638 0.037170
0.944099 0.070162 0.036693
0.975771 0.069685 0.036217
1.000000 0.069209 0.035740
1.000000 0.068732 0.035264
1.000000 0.068256 0.034787
1.000000 0.067779 0.034311
0.070044 0.115561 0.048624
0.103036 0.115085 0.048147
0.136028 0.114608 0.047671
0.169021 0.114132 0.047194
0.202013 0.113655 0.046718
0.235005 0.113179 0.046241
0.267997 0.112702 0.045765
0.300989 0.112226 0.045288
0.333982 0.111749 0.044812
0.366974 0.111273 0.044335
0.399966 0.110796 0.043859
0.432958 0.110320 0.043382
0.465951 0.109843 0.042906
0.498943 0.109367 0.042429
0.531458 0.108890 0.041953
0.563130 0.108414 0.041476
0.594803 0.107937 0.040999
0.626475 0.107460 0.040523
0.658148 0.106984 0.040046
0.689820 0.106507 0.039570
0.721493 0.106031 0.039093
0.753165 0.105554 0.038617
0.784838 0.105078 0.038140
0.816510 0.104601 0.037664
0.848183 0.104125 0.037187
0.879855 0.103648 0.036711
0.911528 0.103172 0.036234
0.943201 0.102695 0.035758
0.974873 0.102219 0.035281
1.000000 0.101742 0.034805
1.000000 0.101266 0.034328
1.000000 0.100789 0.033852
1.000000 0.100312 0.033375
0.069108 0.148095 0.047688
0.102101 0.147618 0.047212
0.135093 0.147142 0.046735
0.168085 0.146665 0.046259
0.201077 0.146189 0.045782
0.234070 0.145712 0.045306
0.267062 0.145235 0.044829
0.300054 0.144759 0.044353
0.333046 0.144282 0.043876
0.366038 0.143806 0.043400
0.399031 0.143329 0.042923
0.432023 0.142853 0.042447
0.465015 0.142376 0.041970
0.498007 0.141900 0.041494
0.530559 0.141423 0.041017
0.562232 0.140947 0.040540
0.593905 0.140470 0.040064
0.625577 0.139994 0.039587
0.657250 0.139517 0.039111
0.688922 0.139041 0.038634
0.720595 0.138564 0.038158
0.752267 0.138088 0.037681
0.783940 0.137611 0.037205
0.815612 0.137134 0.036728
0.847285 0.136658 0.036252
0.878957 0.136181 0.035775
0.910630 0.135705 0.035299
0.942302 0.135228 0.034822
0.973975 0.134752 0.034346
1.000000 0.134275 0.033869
1.000000 0.133799 0.033393
1.000000 0.133322 0.032916
1.000000 0.132846 0.032439
0.068173 0.180628 0.046753
0.101165 0.180151 0.046276
0.134157 0.179675 0.045800
0.167150 0.179198 0.045323
0.200142 0.178722 0.044847
0.233134 0.178245 0.044370
0.266126 0.177769 0.043894
0.299118 0.177292 0.043417
0.332111 0.176816 0.042941
0.365103 0.176339 0.042464
0.398095 0.175863 0.041988
0.431087 0.175386 0.041511
0.464079 0.174910 0.041035
0.497072 0.174433 0.040558
0.529661 0.173956 0.040081
0.561334 0.173480 0.039605
0.593006 0.173003 0.039128
0.624679 0.172527 0.038652
0.656351 0.172050 0.038175
0.688024 0.171574 0.037699
0.719697 0.171097 0.037222
0.751369 0.170621 0.036746
0.783042 0.170144 0.036269
0.814714 0.169668 0.035793
0.846387 0.169191 0.035316
0.878059 0.168715 0.034840
0.909732 0.168238 0.034363
0.941404 0.167762 0.033887
0.973077 0.167285 0.033410
1.000000 0.166809 0.032934
1.000000 0.166332 0.032457
1.000000 0.165855 0.031980
1.000000 0.165379 0.031504
0.067237 0.213161 0.045817
0.100230 0.212685 0.045341
0.133222 0.212208 0.044864
0.166214 0.211731 0.044388
0.199206 0.211255 0.043911
0.232198 0.210778 0.043435
0.265191 0.210302 0.042958
0.298183 0.209825 0.042482
0.331175 0.209349 0.042005
0.364167 0.208872 0.041529
0.397160 0.208396 0.041052
0.430152 0.207919 0.040576
0.463144 0.207443 0.040099
0.496136 0.206966 0.039622
0.528763 0.206490 0.039146
0.560436 0.206013 0.038669
0.592108 0.205537 0.038193
0.623781 0.205060 0.037716
0.655453 0.204584 0.037240
0.687126 0.204107 0.036763
0.718798 0.203630 0.036287
0.750471 0.203154 0.035810
0.782143 0.202677 0.035334
0.813816 0.202201 0.034857
0.845489 0.201724 0.034381
0.877161 0.201248 0.033904
0.908834 0.200771 0.033428
0.940506 0.200295 0.032951
0.972179 0.199818 0.032475
1.000000 0.199342 0.031998
1.000000 0.198865 0.031521
1.000000 0.198389 0.031045
1.000000 0.197912 0.030568
0.066302 0.245694 0.044882
0.099294 0.245218 0.044405
0.132286 0.244741 0.043929
0.165278 0.244265 0.043452
0.198271 0.243788 0.042976
0.231263 0.243312 0.042499
0.264255 0.242835 0.042023
0.297247 0.242359 0.041546
0.330240 0.241882 0.041070
0.363232 0.241406 0.040593
0.396224 0.240929 0.040117
0.429216 0.240452 0.039640
0.462208 0.239976 0.039163
0.495201 0.239499 0.038687
0.527865 0.239023 0.038210
0.559538 0.238546 0.037734
0.591210 0.238070 0.037257
0.622883 0.237593 0.036781
0.654555 0.237117 0.036304
0.686228 0.236640 0.035828
0.717900 0.236164 0.035351
0.749573 0.235687 0.034875
0.781245 0.235211 0.034398
0.812918 0.234734 0.033922
0.844590 0.234258 0.033445
0.876263 0.233781 0.032969
0.907936 0.233305 0.032492
0.939608 0.232828 0.032016
0.971281 0.232351 0.031539
1.000000 0.231875 0.031062
1.000000 0.231398 0.030586
1.000000 0.230922 0.030109
1.000000 0.230445 0.029633
0.065366 0.278228 0.043946
0.098359 0.277751 0.043470
0.131351 0.277274 0.042993
0.164343 0.276798 0.042517
0.197335 0.276321 0.042040
0.230327 0.275845 0.041564
0.263320 0.275368 0.041087
0.296312 0.274892 0.040611
0.329304 0.274415 0.040134
0.362296 0.273939 0.039658
0.395288 0.273462 0.039181
0.428281 0.272986 0.038704
0.461273 0.272509 0.038228
0.494265 0.272033 0.037751
0.526967 0.271556 0.037275
0.558640 0.271080 0.036798
0.590312 0.270603 0.036322
0.621985 0.270126 0.035845
0.653657 0.269650 0.035369
0.685330 0.269173 0.034892
0.717002 0.268697 0.034416
0.748675 0.268220 0.033939
0.780347 0.267744 0.033463
0.812020 0.267267 0.032986
0.843692 0.266791 0.032510
0.875365 0.266314 0.032033
0.907037 0.265838 0.031557
0.938710 0.265361 0.031080
0.970382 0.264885 0.030603
1.000000 0.264408 0.030127
1.000000 0.263932 0.029650
1.000000 0.263455 0.029174
1.000000 0.262979 0.028697
0.064431 0.310761 0.043011
0.097423 0.310284 0.042534
0.130415 0.309808 0.042058
0.163407 0.309331 0.041581
0.196400 0.308855 0.041105
0.229392 0.308378 0.040628
0.262384 0.307902 0.040152
0.295376 0.307425 0.039675
0.328369 0.306948 0.039199
0.361361 0.306472 0.038722
0.394353 0.305995 0.038245
0.427345 0.305519 0.037769
0.460337 0.305042 0.037292
0.493330 0.304566 0.036816
0.526069 0.304089 0.036339
0.557741 0.303613 0.035863
0.589414 0.303136 0.035386
0.621086 0.302660 0.034910
0.652759 0.302183 0.034433
0.684432 0.301707 0.033957
0.716104 0.301230 0.033480
0.747777 0.300754 0.033004
0.779449 0.300277 0.032527
0.811122 0.299801 0.032051
0.842794 0.299324 0.031574
0.874467 0.298847 0.031098
0.906139 0.298371 0.030621
0.937812 0.297894 0.030144
0.969484 0.297418 0.029668
1.000000 0.296941 0.029191
1.000000 0.296465 0.028715
1.000000 0.295988 0.028238
1.000000 0.295512 0.027762
0.063495 0.343294 0.042075
0.096487 0.342817 0.041599
0.129480 0.342341 0.041122
0.162472 0.341864 0.040646
0.195464 0.341388 0.040169
0.228456 0.340911 0.039693
0.261449 0.340435 0.039216
0.294441 0.339958 0.038740
0.327433 0.339482 0.038263
0.360425 0.339005 0.037786
0.393417 0.338529 0.037310
0.426410 0.338052 0.036833
0.459402 0.337576 0.036357
0.492394 0.337099 0.035880
0.525171 0.336623 0.035404
0.556843 0.336146 0.034927
0.588516 0.335669 0.034451
0.620188 0.335193 0.033974
0.651861 0.334716 0.033498
0.683533 0.334240 0.033021
0.715206 0.333763 0.032545
0.746879 0.333287 0.032068
0.778551 0.332810 0.031592
0.810224 0.332334 0.031115
0.841896 0.331857 0.030639
0.873569 0.331381 0.030162
0.905241 0.330904 0.029685
0.936914 0.330428 0.029209
0.968586 0.329951 0.028732
1.000000 0.329475 0.028256
1.000000 0.328998 0.027779
1.000000 0.328521 0.027303
1.000000 0.328045 0.026826
0.062560 0.375827 0.041140
0.095552 0.375351 0.040663
0.128544 0.374874 0.040187
0.161536 0.374398 0.039710
0.194529 0.373921 0.039234
0.227521 0.373445 0.038757
0.260513 0.372968 0.038281
0.293505 0.372491 0.037804
0.326497 0.372015 0.037327
0.359490 0.371538 0.036851
0.392482 0.371062 0.036374
0.425474 0.370585 0.035898
0.458466 0.370109 0.035421
0.491459 0.369632 0.034945
0.524273 0.369156 0.034468
0.555945 0.368679 0.033992
0.587618 0.368203 0.033515
0.619290 0.367726 0.033039
0.650963 0.367250 0.032562
0.682635 0.366773 0.032086
0.714308 0.366297 0.031609
0.745980 0.365820 0.031133
0.777653 0.365344 0.030656
0.809326 0.364867 0.030180
0.840998 0.364390 0.029703
0.872671 0.363914 0.029226
0.904343 0.363437 0.028750
0.936016 0.362961 0.028273
0.967688 0.362484 0.027797
0.999361 0.362008 0.027320
1.000000 0.361531 0.026844
1.000000 0.361055 0.026367
1.000000 0.360578 0.025891
0.061624 0.408360 0.040204
0.094616 0.407884 0.039728
0.127609 0.407407 0.039251
0.160601 0.406931 0.038775
0.193593 0.406454 0.038298
0.226585 0.405978 0.037822
0.259577 0.405501 0.037345
0.292570 0.405025 0.036868
0.325562 0.404548 0.036392
0.358554 0.404072 0.035915
0.391546 0.403595 0.035439
0.424539 0.403119 0.034962
0.457531 0.402642 0.034486
0.490523 0.402166 0.034009
0.523375 0.401689 0.033533
0.555047 0.401212 0.033056
0.586720 0.400736 0.032580
0.618392 0.400259 0.032103
0.650065 0.399783 0.031627
0.681737 0.399306 0.031150
0.713410 0.398830 0.030674
0.745082 0.398353 0.030197
0.776755 0.397877 0.029721
0.808427 0.397400 0.029244
0.840100 0.396924 0.028767
0.871773 0.396447 0.028291
0.903445 0.395971 0.027814
0.935117 0.395494 0.027338
0.966790 0.395018 0.026861
0.998462 0.394541 0.026385
1.000000 0.394064 0.025908
1.000000 0.393588 0.025432
1.000000 0.393111 0.024955
0.060689 0.440894 0.039269
0.093681 0.440417 0.038792
0.126673 0.439941 0.038316
0.159665 0.439464 0.037839
0.192658 0.438987 0.037363
0.225650 0.438511 0.036886
0.258642 0.438034 0.036409
0.291634 0.437558 0.035933
0.324626 0.437081 0.035456
0.357619 0.436605 0.034980
0.390611 0.436128 0.034503
0.423603 0.435652 0.034027
0.456595 0.435175 0.033550
0.489587 0.434699 0.033074
0.522476 0.434222 0.032597
0.554149 0.433746 0.032121
0.585822 0.433269 0.031644
0.617494 0.432793 0.031168
0.649167 0.432316 0.030691
0.680839 0.431840 0.030215
0.712512 0.431363 0.029738
0.744184 0.430886 0.029262
0.775857 0.430410 0.028785
0.807529 0.429933 0.028308
0.839202 0.429457 0.027832
0.870874 0.428980 0.027355
0.902547 0.428504 0.026879
0.934219 0.428027 0.026402
0.965892 0.427551 0.025926
0.997564 0.427074 0.025449
1.000000 0.426598 0.024973
1.000000 0.426121 0.024496
1.000000 0.425645 0.024020
0.059753 0.473427 0.038333
0.092745 0.472950 0.037857
0.125738 0.472474 0.037380
0.158730 0.471997 0.036904
0.191722 0.471521 0.036427
0.224714 0.471044 0.035950
0.257706 0.470568 0.035474
0.290699 0.470091 0.034997
0.323691 0.469615 0.034521
0.356683 0.469138 0.034044
0.389675 0.468662 0.033568
0.422668 0.468185 0.033091
0.455660 0.467708 0.032615
0.488652 0.467232 0.032138
0.521578 0.466755 0.031662
0.553251 0.466279 0.031185
0.584923 0.465802 0.030709
0.616596 0.465326 0.030232
0.648269 0.464849 0.029756
0.679941 0.464373 0.029279
0.711614 0.463896 0.028803
0.743286 0.463420 0.028326
0.774959 0.462943 0.027849
0.806631 0.462467 0.027373
0.838304 0.461990 0.026896
0.869976 0.461514 0.026420
0.901649 0.461037 0.025943
0.933321 0.460561 0.025467
0.964994 0.460084 0.024990
0.996666 0.459607 0.024514
1.000000 0.459131 0.024037
1.000000 0.458654 0.023561
1.000000 0.458178 0.023084
0.058818 0.505960 0.037398
0.091810 0.505484 0.036921
0.124802 0.505007 0.036445
0.157794 0.504530 0.035968
0.190786 0.504054 0.035491
0.223779 0.503577 0.035015
0.256771 0.503101 0.034538
0.289763 0.502624 0.034062
0.322755 0.502148 0.033585
0.355748 0.501671 0.033109
0.388740 0.501195 0.032632
0.421732 0.500718 0.032156
0.454724 0.500242 0.031679
0.487716 0.499765 0.031203
0.520680 0.499289 0.030726
0.552353 0.498812 0.030250
0.584025 0.498336 0.029773
0.615698 0.497859 0.029297
0.647370 0.497382 0.028820
0.679043 0.496906 0.028344
0.710715 0.496429 0.027867
0.742388 0.495953 0.027390
0.774061 0.495476 0.026914
0.805733 0.495000 0.026437
0.837406 0.494523 0.025961
0.869078 0.494047 0.025484
0.900751 0.493570 0.025008
0.932423 0.493094 0.024531
0.964096 0.492617 0.024055
0.995768 0.492141 0.023578
1.000000 0.491664 0.023102
1.000000 0.491188 0.022625
1.000000 0.490711 0.022149
0.057882 0.537754 0.036462
0.090874 0.537296 0.035986
0.123866 0.536839 0.035509
0.156859 0.536381 0.035032
0.189851 0.535924 0.034556
0.222843 0.535466 0.034079
0.255835 0.535009 0.033603
0.288828 0.534551 0.033126
0.321820 0.534094 0.032650
0.354812 0.533636 0.032173
0.387804 0.533179 0.031697
0.420796 0.532721 0.031220
0.453789 0.532264 0.030744
0.486781 0.531806 0.030267
0.519773 0.531349 0.029791
0.551455 0.530891 0.029314
0.583127 0.530434 0.028838
0.614800 0.529977 0.028361
0.646472 0.529519 0.027885
0.678145 0.529062 0.027408
0.709817 0.528604 0.026931
0.741490 0.528147 0.026455
0.773162 0.527689 0.025978
0.804835 0.527232 0.025502
0.836508 0.526774 0.025025
0.868180 0.526317 0.024549
0.899853 0.525859 0.024072
0.931525 0.525402 0.023596
0.963198 0.524944 0.023119
0.994870 0.524487 0.022643
1.000000 0.524029 0.022166
1.000000 0.523572 0.021690
1.000000 0.523115 0.021213
0.056947 0.568986 0.035527
0.089939 0.568528 0.035050
0.122931 0.568071 0.034573
0.155923 0.567613 0.034097
0.188915 0.567156 0.033620
0.221908 0.566698 0.033144
0.254900 0.566241 0.032667
0.287892 0.565783 0.032191
0.320884 0.565326 0.031714
0.353876 0.564868 0.031238
0.386869 0.564411 0.030761
0.419861 0.563953 0.030285
0.452853 0.563496 0.029808
0.485845 0.563038 0.029332
0.518838 0.562581 0.028855
0.550557 0.562123 0.028379
0.582229 0.561666 0.027902
0.613902 0.561208 0.027426
0.645574 0.560751 0.026949
0.677247 0.560294 0.026472
0.708919 0.559836 0.025996
0.740592 0.559379 0.025519
0.772264 0.558921 0.025043
0.803937 0.558464 0.024566
0.835609 0.558006 0.024090
0.867282 0.557549 0.023613
0.898954 0.557091 0.023137
0.930627 0.556634 0.022660
0.962299 0.556176 0.022184
0.993972 0.555719 0.021707
1.000000 0.555261 0.021231
1.000000 0.554804 0.020754
1.000000 0.554346 0.020278
0.056011 0.600217 0.034591
0.089003 0.599760 0.034114
0.121995 0.599302 0.033638
0.154988 0.598845 0.033161
0.187980 0.598387 0.032685
0.220972 0.597930 0.032208
0.253964 0.597472 0.031732
0.286957 0.597015 0.031255
0.319949 0.596557 0.030779
0.352941 0.596100 0.030302
0.385933 0.595643 0.029826
0.418925 0.595185 0.029349
0.451918 0.594728 0.028873
0.484910 0.594270 0.028396
0.517902 0.593813 0.027920
0.549658 0.593355 0.027443
0.581331 0.592898 0.026967
0.613004 0.592440 0.026490
0.644676 0.591983 0.026013
0.676349 0.591525 0.025537
0.708021 0.591068 0.025060
0.739694 0.590610 0.024584
0.771366 0.590153 0.024107
0.803039 0.589696 0.023631
0.834711 0.589238 0.023154
0.866384 0.588781 0.022678
0.898056 0.588323 0.022201
0.929729 0.587866 0.021725
0.961401 0.587408 0.021248
0.993074 0.586951 0.020772
1.000000 0.586493 0.020295
1.000000 0.586036 0.020000
1.000000 0.585578 0.020000
0.055075 0.631449 0.033655
0.088068 0.630992 0.033179
0.121060 0.630534 0.032702
0.154052 0.630077 0.032226
0.187044 0.629619 0.031749
0.220037 0.629162 0.031273
0.253029 0.628704 0.030796
0.286021 0.628247 0.030320
0.319013 0.627789 0.029843
0.352005 0.627332 0.029367
0.384998 0.626875 0.028890
0.417990 0.626417 0.028414
0.450982 0.625960 0.027937
0.483974 0.625502 0.027461
0.516966 0.625045 0.026984
0.548760 0.624587 0.026508
0.580433 0.624130 0.026031
0.612105 0.623672 0.025554
0.643778 0.623215 0.025078
0.675451 0.622757 0.024601
0.707123 0.622300 0.024125
0.738796 0.621842 0.023648
0.770468 0.621385 0.023172
0.802141 0.620927 0.022695
0.833813 0.620470 0.022219
0.865486 0.620012 0.021742
0.897158 0.619555 0.021266
0.928831 0.619098 0.020789
0.960503 0.618640 0.020313
0.992176 0.618183 0.020000
1.000000 0.617725 0.020000
1.000000 0.617268 0.020000
1.000000 0.616810 0.020000
0.054140 0.662681 0.032720
0.087132 0.662224 0.032243
0.120124 0.661766 0.031767
0.153117 0.661309 0.031290
0.186109 0.660851 0.030814
0.219101 0.660394 0.030337
0.252093 0.659936 0.029861
0.285085 0.659479 0.029384
0.318078 0.659021 0.028908
0.351070 0.658564 0.028431
0.384062 0.658106 0.027955
0.417054 0.657649 0.027478
0.450047 0.657191 0.027002
0.483039 0.656734 0.026525
0.516031 0.656277 0.026049
0.547862 0.655819 0.025572
0.579535 0.655362 0.025095
0.611207 0.654904 0.024619
0.642880 0.654447 0.024142
0.674552 0.653989 0.023666
0.706225 0.653532 0.023189
0.737897 0.653074 0.022713
0.769570 0.652617 0.022236
0.801242 0.652159 0.021760
0.832915 0.651702 0.021283
0.864588 0.651244 0.020807
0.896260 0.650787 0.020330
0.927933 0.650329 0.020000
0.959605 0.649872 0.020000
0.991278 0.649415 0.020000
1.000000 0.648957 0.020000
1.000000 0.648500 0.020000
1.000000 0.648042 0.020000
0.053204 0.693913 0.031784
0.086197 0.693456 0.031308
0.119189 0.692998 0.030831
0.152181 0.692541 0.030355
0.185173 0.692083 0.029878
0.218165 0.691626 0.029402
0.251158 0.691168 0.028925
0.284150 0.690711 0.028449
0.317142 0.690253 0.027972
0.350134 0.689796 0.027496
0.383127 0.689338 0.027019
0.416119 0.688881 0.026543
0.449111 0.688423 0.026066
0.482103 0.687966 0.025590
0.515095 0.687508 0.025113
0.546964 0.687051 0.024637
0.578637 0.686594 0.024160
0.610309 0.686136 0.023683
0.641982 0.685679 0.023207
0.673654 0.685221 0.022730
0.705327 0.684764 0.022254
0.736999 0.684306 0.021777
0.768672 0.683849 0.021301
0.800344 0.683391 0.020824
0.832017 0.682934 0.020348
0.863689 0.682476 0.020000
0.895362 0.682019 0.020000
0.927034 0.681561 0.020000
0.958707 0.681104 0.020000
0.990380 0.680646 0.020000
1.000000 0.680189 0.020000
1.000000 0.679731 0.020000
1.000000 0.679274 0.020000
0.052269 0.725145 0.030849
0.085261 0.724687 0.030372
0.118253 0.724230 0.029896
0.151246 0.723773 0.029419
0.184238 0.723315 0.028943
0.217230 0.722858 0.028466
0.250222 0.722400 0.027990
0.283214 0.721943 0.027513
0.316207 0.721485 0.027037
0.349199 0.721028 0.026560
0.382191 0.720570 0.026084
0.415183 0.720113 0.025607
0.448175 0.719655 0.025131
0.481168 0.719198 0.024654
0.514160 0.718740 0.024177
0.546066 0.718283 0.023701
0.577739 0.717825 0.023224
0.609411 0.717368 0.022748
0.641084 0.716910 0.022271
0.672756 0.716453 0.021795
0.704429 0.715995 0.021318
0.736101 0.715538 0.020842
0.767774 0.715081 0.020365
0.799446 0.714623 0.020000
0.831119 0.714166 0.020000
0.862791 0.713708 0.020000
0.894464 0.713251 0.020000
0.926136 0.712793 0.020000
0.957809 0.712336 0.020000
0.989481 0.711878 0.020000
1.000000 0.711421 0.020000
1.000000 0.710963 0.020000
1.000000 0.710506 0.020000
0.051333 0.756377 0.029913
0.084326 0.755919 0.029437
0.117318 0.755462 0.028960
0.150310 0.755004 0.028484
0.183302 0.754547 0.028007
0.216294 0.754089 0.027531
0.249287 0.753632 0.027054
0.282279 0.753174 0.026578
0.315271 0.752717 0.026101
0.348263 0.752260 0.025625
0.381256 0.751802 0.025148
0.414248 0.751345 0.024672
0.447240 0.750887 0.024195
0.480232 0.750430 0.023718
0.513224 0.749972 0.023242
0.545168 0.749515 0.022765
0.576841 0.749057 0.022289
0.608513 0.748600 0.021812
0.640185 0.748142 0.021336
0.671858 0.747685 0.020859
0.703531 0.747227 0.020383
0.735203 0.746770 0.020000
0.766876 0.746312 0.020000
0.798548 0.745855 0.020000
0.830221 0.745398 0.020000
0.861893 0.744940 0.020000
0.893566 0.744483 0.020000
0.925238 0.744025 0.020000
0.956911 0.743568 0.020000
0.988583 0.743110 0.020000
1.000000 0.742653 0.020000
1.000000 0.742195 0.020000
1.000000 0.741738 0.020000
0.050398 0.787609 0.028978
0.083390 0.787151 0.028501
0.116382 0.786694 0.028025
0.149374 0.786236 0.027548
0.182367 0.785779 0.027072
0.215359 0.785321 0.026595
0.248351 0.784864 0.026119
0.281343 0.784406 0.025642
0.314336 0.783949 0.025166
0.347328 0.783491 0.024689
0.380320 0.783034 0.024212
0.413312 0.782577 0.023736
0.446304 0.782119 0.023259
0.479297 0.781662 0.022783
0.512289 0.781204 0.022306
0.544270 0.780747 0.021830
0.575942 0.780289 0.021353
0.607615 0.779832 0.020877
0.639287 0.779374 0.020400
0.670960 0.778917 0.020000
0.702632 0.778459 0.020000
0.734305 0.778002 0.020000
0.765978 0.777544 0.020000
0.797650 0.777087 0.020000
0.829323 0.776629 0.020000
0.860995 0.776172 0.020000
0.892668 0.775714 0.020000
0.924340 0.775257 0.020000
0.956013 0.774800 0.020000
0.987685 0.774342 0.020000
1.000000 0.773885 0.020000
1.000000 0.773427 0.020000
1.000000 0.772970 0.020000
0.049462 0.818841 0.028042
0.082455 0.818383 0.027566
0.115447 0.817926 0.027089
0.148439 0.817468 0.026613
0.181431 0.817011 0.026136
0.214423 0.816553 0.025660
0.247416 0.816096 0.025183
0.280408 0.815638 0.024707
0.313400 0.815181 0.024230
0.346392 0.814723 0.023753
0.379384 0.814266 0.023277
0.412377 0.813808 0.022800
0.445369 0.813351 0.022324
0.478361 0.812894 0.021847
0.511353 0.812436 0.021371
0.543372 0.811979 0.020894
0.575044 0.811521 0.020418
0.606717 0.811064 0.020000
0.638389 0.810606 0.020000
0.670062 0.810149 0.020000
0.701734 0.809691 0.020000
0.733407 0.809234 0.020000
0.765079 0.808776 0.020000
0.796752 0.808319 0.020000
0.828425 0.807861 0.020000
0.860097 0.807404 0.020000
0.891770 0.806946 0.020000
0.923442 0.806489 0.020000
0.955115 0.806031 0.020000
0.986787 0.805574 0.020000
1.000000 0.805117 0.020000
1.000000 0.804659 0.020000
1.000000 0.804202 0.020000
0.048527 0.850072 0.027107
0.081519 0.849615 0.026630
0.114511 0.849157 0.026154
0.147503 0.848700 0.025677
0.180496 0.848243 0.025201
0.213488 0.847785 0.024724
0.246480 0.847328 0.024248
0.279472 0.846870 0.023771
0.312465 0.846413 0.023295
0.345457 0.845955 0.022818
0.378449 0.845498 0.022342
0.411441 0.845040 0.021865
0.444433 0.844583 0.021388
0.477426 0.844125 0.020912
0.510418 0.843668 0.020435
0.542474 0.843210 0.020000
0.574146 0.842753 0.020000
0.605819 0.842295 0.020000
0.637491 0.841838 0.020000
0.669164 0.841381 0.020000
0.700836 0.840923 0.020000
0.732509 0.840466 0.020000
0.764181 0.840008 0.020000
0.795854 0.839551 0.020000
0.827526 0.839093 0.020000
0.859199 0.838636 0.020000
0.890871 0.838178 0.020000
0.922544 0.837721 0.020000
0.954216 0.837263 0.020000
0.985889 0.836806 0.020000
1.000000 0.836348 0.020000
1.000000 0.835891 0.020000
1.000000 0.835433 0.020000
0.047591 0.881304 0.026171
0.080583 0.880847 0.025695
0.113576 0.880389 0.025218
0.146568 0.879932 0.024742
0.179560 0.879475 0.024265
0.212552 0.879017 0.023789
0.245545 0.878560 0.023312
0.278537 0.878102 0.022836
0.311529 0.877645 0.022359
0.344521 0.877187 0.021882
0.377513 0.876730 0.021406
0.410506 0.876272 0.020929
0.443498 0.875815 0.020453
0.476490 0.875357 0.020000
0.509482 0.874900 0.020000
0.541576 0.874442 0.020000
0.573248 0.873985 0.020000
0.604921 0.873527 0.020000
0.636593 0.873070 0.020000
0.668266 0.872612 0.020000
0.699938 0.872155 0.020000
0.731611 0.871697 0.020000
0.763283 0.871240 0.020000
