app/src/main/assets/luts/portrait_studio_glow.cube
# V-Cam procedural LUT — portrait_studio_glow
# Generated by LutBaker. Do not edit by hand.
TITLE "V-Cam portrait_studio_glow"
LUT_3D_SIZE 9
DOMAIN_MIN 0.0 0.0 0.0
DOMAIN_MAX 1.0 1.0 1.0
0.281187 0.270101 0.270101
0.297445 0.270101 0.270101
0.342312 0.270101 0.270101
0.427455 0.270101 0.270101
0.553171 0.270101 0.270101
0.703807 0.270101 0.270101
0.845872 0.270101 0.270101
0.952484 0.270101 0.270101
0.986695 0.270101 0.270101
0.281187 0.285706 0.270101
0.297445 0.285706 0.270101
0.342312 0.285706 0.270101
0.427455 0.285706 0.270101
0.553171 0.285706 0.270101
0.703807 0.285706 0.270101
0.845872 0.285706 0.270101
0.952484 0.285706 0.270101
0.986695 0.285706 0.270101
0.281187 0.329805 0.270101
0.297445 0.329805 0.270101
0.342312 0.329805 0.270101
0.427455 0.329805 0.270101
0.553171 0.329805 0.270101
0.703807 0.329805 0.270101
0.845872 0.329805 0.270101
0.952484 0.329805 0.270101
0.986695 0.329805 0.270101
0.281187 0.415320 0.270101
0.297445 0.415320 0.270101
0.342312 0.415320 0.270101
0.427455 0.415320 0.270101
0.553171 0.415320 0.270101
0.703807 0.415320 0.270101
0.845872 0.415320 0.270101
0.952484 0.415320 0.270101
0.986695 0.415320 0.270101
0.281187 0.543058 0.270101
0.297445 0.543058 0.270101
0.342312 0.543058 0.270101
0.427455 0.543058 0.270101
0.553171 0.543058 0.270101
0.703807 0.543058 0.270101
0.845872 0.543058 0.270101
0.952484 0.543058 0.270101
0.986695 0.543058 0.270101
0.281187 0.697001 0.270101
0.297445 0.697001 0.270101
0.342312 0.697001 0.270101
0.427455 0.697001 0.270101
0.553171 0.697001 0.270101
0.703807 0.697001 0.270101
0.845872 0.697001 0.270101
0.952484 0.697001 0.270101
0.986695 0.697001 0.270101
0.281187 0.842612 0.270101
0.297445 0.842612 0.270101
0.342312 0.842612 0.270101
0.427455 0.842612 0.270101
0.553171 0.842612 0.270101
0.703807 0.842612 0.270101
0.845872 0.842612 0.270101
0.952484 0.842612 0.270101
0.986695 0.842612 0.270101
0.281187 0.951556 0.270101
0.297445 0.951556 0.270101
0.342312 0.951556 0.270101
0.427455 0.951556 0.270101
0.553171 0.951556 0.270101
0.703807 0.951556 0.270101
0.845872 0.951556 0.270101
0.952484 0.951556 0.270101
0.986695 0.951556 0.270101
0.281187 0.986695 0.270101
0.297445 0.986695 0.270101
0.342312 0.986695 0.270101
0.427455 0.986695 0.270101
0.553171 0.986695 0.270101
0.703807 0.986695 0.270101
0.845872 0.986695 0.270101
0.952484 0.986695 0.270101
0.986695 0.986695 0.270101
0.281187 0.270101 0.285706
0.297445 0.270101 0.285706
0.342312 0.270101 0.285706
0.427455 0.270101 0.285706
0.553171 0.270101 0.285706
0.703807 0.270101 0.285706
0.845872 0.270101 0.285706
0.952484 0.270101 0.285706
0.986695 0.270101 0.285706
0.281187 0.285706 0.285706
0.297445 0.285706 0.285706
0.342312 0.285706 0.285706
0.427455 0.285706 0.285706
0.553171 0.285706 0.285706
0.703807 0.285706 0.285706
0.845872 0.285706 0.285706
0.952484 0.285706 0.285706
0.986695 0.285706 0.285706
0.281187 0.329805 0.285706
0.297445 0.329805 0.285706
0.342312 0.329805 0.285706
0.427455 0.329805 0.285706
0.553171 0.329805 0.285706
0.703807 0.329805 0.285706
0.845872 0.329805 0.285706
0.952484 0.329805 0.285706
0.986695 0.329805 0.285706
0.281187 0.415320 0.285706
0.297445 0.415320 0.285706
0.342312 0.415320 0.285706
0.427455 0.415320 0.285706
0.553171 0.415320 0.285706
0.703807 0.415320 0.285706
0.845872 0.415320 0.285706
0.952484 0.415320 0.285706
0.986695 0.415320 0.285706
0.281187 0.543058 0.285706
0.297445 0.543058 0.285706
0.342312 0.543058 0.285706
0.427455 0.543058 0.285706
0.553171 0.543058 0.285706
0.703807 0.543058 0.285706
0.845872 0.543058 0.285706
0.952484 0.543058 0.285706
0.986695 0.543058 0.285706
0.281187 0.697001 0.285706
0.297445 0.697001 0.285706
0.342312 0.697001 0.285706
0.427455 0.697001 0.285706
0.553171 0.697001 0.285706
0.703807 0.697001 0.285706
0.845872 0.697001 0.285706
0.952484 0.697001 0.285706
0.986695 0.697001 0.285706
0.281187 0.842612 0.285706
0.297445 0.842612 0.285706
0.342312 0.842612 0.285706
0.427455 0.842612 0.285706
0.553171 0.842612 0.285706
0.703807 0.842612 0.285706
0.845872 0.842612 0.285706
0.952484 0.842612 0.285706
0.986695 0.842612 0.285706
0.281187 0.951556 0.285706
0.297445 0.951556 0.285706
0.342312 0.951556 0.285706
0.427455 0.951556 0.285706
0.553171 0.951556 0.285706
0.703807 0.951556 0.285706
0.845872 0.951556 0.285706
0.952484 0.951556 0.285706
0.986695 0.951556 0.285706
0.281187 0.986695 0.285706
0.297445 0.986695 0.285706
0.342312 0.986695 0.285706
0.427455 0.986695 0.285706
0.553171 0.986695 0.285706
0.703807 0.986695 0.285706
0.845872 0.986695 0.285706
0.952484 0.986695 0.285706
0.986695 0.986695 0.285706
0.281187 0.270101 0.329805
0.297445 0.270101 0.329805
0.342312 0.270101 0.329805
0.427455 0.270101 0.329805
0.553171 0.270101 0.329805
0.703807 0.270101 0.329805
0.845872 0.270101 0.329805
0.952484 0.270101 0.329805
0.986695 0.270101 0.329805
0.281187 0.285706 0.329805
0.297445 0.285706 0.329805
0.342312 0.285706 0.329805
0.427455 0.285706 0.329805
0.553171 0.285706 0.329805
0.703807 0.285706 0.329805
0.845872 0.285706 0.329805
0.952484 0.285706 0.329805
0.986695 0.285706 0.329805
0.281187 0.329805 0.329805
0.297445 0.329805 0.329805
0.342312 0.329805 0.329805
0.427455 0.329805 0.329805
0.553171 0.329805 0.329805
0.703807 0.329805 0.329805
0.845872 0.329805 0.329805
0.952484 0.329805 0.329805
0.986695 0.329805 0.329805
0.281187 0.415320 0.329805
0.297445 0.415320 0.329805
0.342312 0.415320 0.329805
0.427455 0.415320 0.329805
0.553171 0.415320 0.329805
0.703807 0.415320 0.329805
0.845872 0.415320 0.329805
0.952484 0.415320 0.329805
0.986695 0.415320 0.329805
0.281187 0.543058 0.329805
0.297445 0.543058 0.329805
0.342312 0.543058 0.329805
0.427455 0.543058 0.329805
0.553171 0.543058 0.329805
0.703807 0.543058 0.329805
0.845872 0.543058 0.329805
0.952484 0.543058 0.329805
0.986695 0.543058 0.329805
0.281187 0.697001 0.329805
0.297445 0.697001 0.329805
0.342312 0.697001 0.329805
0.427455 0.697001 0.329805
0.553171 0.697001 0.329805
0.703807 0.697001 0.329805
0.845872 0.697001 0.329805
0.952484 0.697001 0.329805
0.986695 0.697001 0.329805
0.281187 0.842612 0.329805
0.297445 0.842612 0.329805
0.342312 0.842612 0.329805
0.427455 0.842612 0.329805
0.553171 0.842612 0.329805
0.703807 0.842612 0.329805
0.845872 0.842612 0.329805
0.952484 0.842612 0.329805
0.986695 0.842612 0.329805
0.281187 0.951556 0.329805
0.297445 0.951556 0.329805
0.342312 0.951556 0.329805
0.427455 0.951556 0.329805
0.553171 0.951556 0.329805
0.703807 0.951556 0.329805
0.845872 0.951556 0.329805
0.952484 0.951556 0.329805
0.986695 0.951556 0.329805
0.281187 0.986695 0.329805
0.297445 0.986695 0.329805
0.342312 0.986695 0.329805
0.427455 0.986695 0.329805
0.553171 0.986695 0.329805
0.703807 0.986695 0.329805
0.845872 0.986695 0.329805
0.952484 0.986695 0.329805
0.986695 0.986695 0.329805
0.281187 0.270101 0.415320
0.297445 0.270101 0.415320
0.342312 0.270101 0.415320
0.427455 0.270101 0.415320
0.553171 0.270101 0.415320
0.703807 0.270101 0.415320
0.845872 0.270101 0.415320
0.952484 0.270101 0.415320
0.986695 0.270101 0.415320
0.281187 0.285706 0.415320
0.297445 0.285706 0.415320
0.342312 0.285706 0.415320
0.427455 0.285706 0.415320
0.553171 0.285706 0.415320
0.703807 0.285706 0.415320
0.845872 0.285706 0.415320
0.952484 0.285706 0.415320
0.986695 0.285706 0.415320
0.281187 0.329805 0.415320
0.297445 0.329805 0.415320
0.342312 0.329805 0.415320
0.427455 0.329805 0.415320
0.553171 0.329805 0.415320
0.703807 0.329805 0.415320
0.845872 0.329805 0.415320
0.952484 0.329805 0.415320
0.986695 0.329805 0.415320
0.281187 0.415320 0.415320
0.297445 0.415320 0.415320
0.342312 0.415320 0.415320
0.427455 0.415320 0.415320
0.553171 0.415320 0.415320
0.703807 0.415320 0.415320
0.845872 0.415320 0.415320
0.952484 0.415320 0.415320
0.986695 0.415320 0.415320
0.281187 0.543058 0.415320
0.297445 0.543058 0.415320
0.342312 0.543058 0.415320
0.427455 0.543058 0.415320
0.553171 0.543058 0.415320
0.703807 0.543058 0.415320
0.845872 0.543058 0.415320
0.952484 0.543058 0.415320
0.986695 0.543058 0.415320
0.281187 0.697001 0.415320
0.297445 0.697001 0.415320
0.342312 0.697001 0.415320
0.427455 0.697001 0.415320
0.553171 0.697001 0.415320
0.703807 0.697001 0.415320
0.845872 0.697001 0.415320
0.952484 0.697001 0.415320
0.986695 0.697001 0.415320
0.281187 0.842612 0.415320
0.297445 0.842612 0.415320
0.342312 0.842612 0.415320
0.427455 0.842612 0.415320
0.553171 0.842612 0.415320
0.703807 0.842612 0.415320
0.845872 0.842612 0.415320
0.952484 0.842612 0.415320
0.986695 0.842612 0.415320
0.281187 0.951556 0.415320
0.297445 0.951556 0.415320
0.342312 0.951556 0.415320
0.427455 0.951556 0.415320
0.553171 0.951556 0.415320
0.703807 0.951556 0.415320
0.845872 0.951556 0.415320
0.952484 0.951556 0.415320
0.986695 0.951556 0.415320
0.281187 0.986695 0.415320
0.297445 0.986695 0.415320
0.342312 0.986695 0.415320
0.427455 0.986695 0.415320
0.553171 0.986695 0.415320
0.703807 0.986695 0.415320
0.845872 0.986695 0.415320
0.952484 0.986695 0.415320
0.986695 0.986695 0.415320
0.281187 0.270101 0.543058
0.297445 0.270101 0.543058
0.342312 0.270101 0.543058
0.427455 0.270101 0.543058
0.553171 0.270101 0.543058
0.703807 0.270101 0.543058
0.845872 0.270101 0.543058
0.952484 0.270101 0.543058
0.986695 0.270101 0.543058
0.281187 0.285706 0.543058
0.297445 0.285706 0.543058
0.342312 0.285706 0.543058
0.427455 0.285706 0.543058
0.553171 0.285706 0.543058
0.703807 0.285706 0.543058
0.845872 0.285706 0.543058
0.952484 0.285706 0.543058
0.986695 0.285706 0.543058
0.281187 0.329805 0.543058
0.297445 0.329805 0.543058
0.342312 0.329805 0.543058
0.427455 0.329805 0.543058
0.553171 0.329805 0.543058
0.703807 0.329805 0.543058
0.845872 0.329805 0.543058
0.952484 0.329805 0.543058
0.986695 0.329805 0.543058
0.281187 0.415320 0.543058
0.297445 0.415320 0.543058
0.342312 0.415320 0.543058
0.427455 0.415320 0.543058
0.553171 0.415320 0.543058
0.703807 0.415320 0.543058
0.845872 0.415320 0.543058
0.952484 0.415320 0.543058
0.986695 0.415320 0.543058
0.281187 0.543058 0.543058
0.297445 0.543058 0.543058
0.342312 0.543058 0.543058
0.427455 0.543058 0.543058
0.553171 0.543058 0.543058
0.703807 0.543058 0.543058
0.845872 0.543058 0.543058
0.952484 0.543058 0.543058
0.986695 0.543058 0.543058
0.281187 0.697001 0.543058
0.297445 0.697001 0.543058
0.342312 0.697001 0.543058
0.427455 0.697001 0.543058
0.553171 0.697001 0.543058
0.703807 0.697001 0.543058
0.845872 0.697001 0.543058
0.952484 0.697001 0.543058
0.986695 0.697001 0.543058
0.281187 0.842612 0.543058
0.297445 0.842612 0.543058
0.342312 0.842612 0.543058
0.427455 0.842612 0.543058
0.553171 0.842612 0.543058
0.703807 0.842612 0.543058
0.845872 0.842612 0.543058
0.952484 0.842612 0.543058
0.986695 0.842612 0.543058
0.281187 0.951556 0.543058
0.297445 0.951556 0.543058
0.342312 0.951556 0.543058
0.427455 0.951556 0.543058
0.553171 0.951556 0.543058
0.703807 0.951556 0.543058
0.845872 0.951556 0.543058
0.952484 0.951556 0.543058
0.986695 0.951556 0.543058
0.281187 0.986695 0.543058
0.297445 0.986695 0.543058
0.342312 0.986695 0.543058
0.427455 0.986695 0.543058
0.553171 0.986695 0.543058
0.703807 0.986695 0.543058
0.845872 0.986695 0.543058
0.952484 0.986695 0.543058
0.986695 0.986695 0.543058
0.281187 0.270101 0.697001
0.297445 0.270101 0.697001
0.342312 0.270101 0.697001
0.427455 0.270101 0.697001
0.553171 0.270101 0.697001
0.703807 0.270101 0.697001
0.845872 0.270101 0.697001
0.952484 0.270101 0.697001
0.986695 0.270101 0.697001
0.281187 0.285706 0.697001
0.297445 0.285706 0.697001
0.342312 0.285706 0.697001
0.427455 0.285706 0.697001
0.553171 0.285706 0.697001
0.703807 0.285706 0.697001
0.845872 0.285706 0.697001
0.952484 0.285706 0.697001
0.986695 0.285706 0.697001
0.281187 0.329805 0.697001
0.297445 0.329805 0.697001
0.342312 0.329805 0.697001
0.427455 0.329805 0.697001
0.553171 0.329805 0.697001
0.703807 0.329805 0.697001
0.845872 0.329805 0.697001
0.952484 0.329805 0.697001
0.986695 0.329805 0.697001
0.281187 0.415320 0.697001
0.297445 0.415320 0.697001
0.342312 0.415320 0.697001
0.427455 0.415320 0.697001
0.553171 0.415320 0.697001
0.703807 0.415320 0.697001
0.845872 0.415320 0.697001
0.952484 0.415320 0.697001
0.986695 0.415320 0.697001
0.281187 0.543058 0.697001
0.297445 0.543058 0.697001
0.342312 0.543058 0.697001
0.427455 0.543058 0.697001
0.553171 0.543058 0.697001
0.703807 0.543058 0.697001
0.845872 0.543058 0.697001
0.952484 0.543058 0.697001
0.986695 0.543058 0.697001
0.281187 0.697001 0.697001
0.297445 0.697001 0.697001
0.342312 0.697001 0.697001
0.427455 0.697001 0.697001
0.553171 0.697001 0.697001
0.703807 0.697001 0.697001
0.845872 0.697001 0.697001
0.952484 0.697001 0.697001
0.986695 0.697001 0.697001
0.281187 0.842612 0.697001
0.297445 0.842612 0.697001
0.342312 0.842612 0.697001
0.427455 0.842612 0.697001
0.553171 0.842612 0.697001
0.703807 0.842612 0.697001
0.845872 0.842612 0.697001
0.952484 0.842612 0.697001
0.986695 0.842612 0.697001
0.281187 0.951556 0.697001
0.297445 0.951556 0.697001
0.342312 0.951556 0.697001
0.427455 0.951556 0.697001
0.553171 0.951556 0.697001
0.703807 0.951556 0.697001
0.845872 0.951556 0.697001
0.952484 0.951556 0.697001
0.986695 0.951556 0.697001
0.281187 0.986695 0.697001
0.297445 0.986695 0.697001
0.342312 0.986695 0.697001
0.427455 0.986695 0.697001
0.553171 0.986695 0.697001
0.703807 0.986695 0.697001
0.845872 0.986695 0.697001
0.952484 0.986695 0.697001
0.986695 0.986695 0.697001
0.281187 0.270101 0.842612
0.297445 0.270101 0.842612
0.342312 0.270101 0.842612
0.427455 0.270101 0.842612
0.553171 0.270101 0.842612
0.703807 0.270101 0.842612
0.845872 0.270101 0.842612
0.952484 0.270101 0.842612
0.986695 0.270101 0.842612
0.281187 0.285706 0.842612
0.297445 0.285706 0.842612
0.342312 0.285706 0.842612
0.427455 0.285706 0.842612
0.553171 0.285706 0.842612
0.703807 0.285706 0.842612
0.845872 0.285706 0.842612
0.952484 0.285706 0.842612
0.986695 0.285706 0.842612
0.281187 0.329805 0.842612
0.297445 0.329805 0.842612
0.342312 0.329805 0.842612
0.427455 0.329805 0.842612
0.553171 0.329805 0.842612
0.703807 0.329805 0.842612
0.845872 0.329805 0.842612
0.952484 0.329805 0.842612
0.986695 0.329805 0.842612
0.281187 0.415320 0.842612
0.297445 0.415320 0.842612
0.342312 0.415320 0.842612
0.427455 0.415320 0.842612
0.553171 0.415320 0.842612
0.703807 0.415320 0.842612
0.845872 0.415320 0.842612
0.952484 0.415320 0.842612
0.986695 0.415320 0.842612
0.281187 0.543058 0.842612
0.297445 0.543058 0.842612
0.342312 0.543058 0.842612
0.427455 0.543058 0.842612
0.553171 0.543058 0.842612
0.703807 0.543058 0.842612
0.845872 0.543058 0.842612
0.952484 0.543058 0.842612
0.986695 0.543058 0.842612
0.281187 0.697001 0.842612
0.297445 0.697001 0.842612
0.342312 0.697001 0.842612
0.427455 0.697001 0.842612
0.553171 0.697001 0.842612
0.703807 0.697001 0.842612
0.845872 0.697001 0.842612
0.952484 0.697001 0.842612
0.986695 0.697001 0.842612
0.281187 0.842612 0.842612
0.297445 0.842612 0.842612
0.342312 0.842612 0.842612
0.427455 0.842612 0.842612
0.553171 0.842612 0.842612
0.703807 0.842612 0.842612
0.845872 0.842612 0.842612
0.952484 0.842612 0.842612
0.986695 0.842612 0.842612
0.281187 0.951556 0.842612
0.297445 0.951556 0.842612
0.342312 0.951556 0.842612
0.427455 0.951556 0.842612
0.553171 0.951556 0.842612
0.703807 0.951556 0.842612
0.845872 0.951556 0.842612
0.952484 0.951556 0.842612
0.986695 0.951556 0.842612
0.281187 0.986695 0.842612
0.297445 0.986695 0.842612
0.342312 0.986695 0.842612
0.427455 0.986695 0.842612
0.553171 0.986695 0.842612
0.703807 0.986695 0.842612
0.845872 0.986695 0.842612
0.952484 0.986695 0.842612
0.986695 0.986695 0.842612
0.281187 0.270101 0.951556
0.297445 0.270101 0.951556
0.342312 0.270101 0.951556
0.427455 0.270101 0.951556
0.553171 0.270101 0.951556
0.703807 0.270101 0.951556
0.845872 0.270101 0.951556
0.952484 0.270101 0.951556
0.986695 0.270101 0.951556
0.281187 0.285706 0.951556
0.297445 0.285706 0.951556
0.342312 0.285706 0.951556
0.427455 0.285706 0.951556
0.553171 0.285706 0.951556
0.703807 0.285706 0.951556
0.845872 0.285706 0.951556
0.952484 0.285706 0.951556
0.986695 0.285706 0.951556
0.281187 0.329805 0.951556
0.297445 0.329805 0.951556
0.342312 0.329805 0.951556
0.427455 0.329805 0.951556
0.553171 0.329805 0.951556
0.703807 0.329805 0.951556
0.845872 0.329805 0.951556
0.952484 0.329805 0.951556
0.986695 0.329805 0.951556
0.281187 0.415320 0.951556
0.297445 0.415320 0.951556
0.342312 0.415320 0.951556
0.427455 0.415320 0.951556
0.553171 0.415320 0.951556
0.703807 0.415320 0.951556
0.845872 0.415320 0.951556
0.952484 0.415320 0.951556
0.986695 0.415320 0.951556
0.281187 0.543058 0.951556
0.297445 0.543058 0.951556
0.342312 0.543058 0.951556
0.427455 0.543058 0.951556
0.553171 0.543058 0.951556
0.703807 0.543058 0.951556
0.845872 0.543058 0.951556
0.952484 0.543058 0.951556
0.986695 0.543058 0.951556
0.281187 0.697001 0.951556
0.297445 0.697001 0.951556
0.342312 0.697001 0.951556
0.427455 0.697001 0.951556
0.553171 0.697001 0.951556
0.703807 0.697001 0.951556
0.845872 0.697001 0.951556
0.952484 0.697001 0.951556
0.986695 0.697001 0.951556
0.281187 0.842612 0.951556
0.297445 0.842612 0.951556
0.342312 0.842612 0.951556
0.427455 0.842612 0.951556
0.553171 0.842612 0.951556
0.703807 0.842612 0.951556
0.845872 0.842612 0.951556
0.952484 0.842612 0.951556
0.986695 0.842612 0.951556
0.281187 0.951556 0.951556
0.297445 0.951556 0.951556
0.342312 0.951556 0.951556
0.427455 0.951556 0.951556
0.553171 0.951556 0.951556
0.703807 0.951556 0.951556
0.845872 0.951556 0.951556
0.952484 0.951556 0.951556
0.986695 0.951556 0.951556
0.281187 0.986695 0.951556
0.297445 0.986695 0.951556
0.342312 0.986695 0.951556
0.427455 0.986695 0.951556
0.553171 0.986695 0.951556
0.703807 0.986695 0.951556
0.845872 0.986695 0.951556
0.952484 0.986695 0.951556
0.986695 0.986695 0.951556
0.281187 0.270101 0.986695
0.297445 0.270101 0.986695
0.342312 0.270101 0.986695
0.427455 0.270101 0.986695
0.553171 0.270101 0.986695
0.703807 0.270101 0.986695
0.845872 0.270101 0.986695
0.952484 0.270101 0.986695
0.986695 0.270101 0.986695
0.281187 0.285706 0.986695
0.297445 0.285706 0.986695
0.342312 0.285706 0.986695
0.427455 0.285706 0.986695
0.553171 0.285706 0.986695
0.703807 0.285706 0.986695
0.845872 0.285706 0.986695
0.952484 0.285706 0.986695
0.986695 0.285706 0.986695
0.281187 0.329805 0.986695
0.297445 0.329805 0.986695
0.342312 0.329805 0.986695
0.427455 0.329805 0.986695
0.553171 0.329805 0.986695
0.703807 0.329805 0.986695
0.845872 0.329805 0.986695
0.952484 0.329805 0.986695
0.986695 0.329805 0.986695
0.281187 0.415320 0.986695
0.297445 0.415320 0.986695
0.342312 0.415320 0.986695
0.427455 0.415320 0.986695
0.553171 0.415320 0.986695
0.703807 0.415320 0.986695
0.845872 0.415320 0.986695
0.952484 0.415320 0.986695
0.986695 0.415320 0.986695
0.281187 0.543058 0.986695
0.297445 0.543058 0.986695
0.342312 0.543058 0.986695
0.427455 0.543058 0.986695
0.553171 0.543058 0.986695
0.703807 0.543058 0.986695
0.845872 0.543058 0.986695
0.952484 0.543058 0.986695
0.986695 0.543058 0.986695
0.281187 0.697001 0.986695
0.297445 0.697001 0.986695
0.342312 0.697001 0.986695
0.427455 0.697001 0.986695
0.553171 0.697001 0.986695
0.703807 0.697001 0.986695
0.845872 0.697001 0.986695
0.952484 0.697001 0.986695
0.986695 0.697001 0.986695
0.281187 0.842612 0.986695
0.297445 0.842612 0.986695
0.342312 0.842612 0.986695
0.427455 0.842612 0.986695
0.553171 0.842612 0.986695
0.703807 0.842612 0.986695
0.845872 0.842612 0.986695
0.952484 0.842612 0.986695
0.986695 0.842612 0.986695
0.281187 0.951556 0.986695
0.297445 0.951556 0.986695
0.342312 0.951556 0.986695
0.427455 0.951556 0.986695
0.553171 0.951556 0.986695
0.703807 0.951556 0.986695
0.845872 0.951556 0.986695
0.952484 0.951556 0.986695
0.986695 0.951556 0.986695
0.281187 0.986695 0.986695
0.297445 0.986695 0.986695
0.342312 0.986695 0.986695
0.427455 0.986695 0.986695
0.553171 0.986695 0.986695
0.703807 0.986695 0.986695
0.845872 0.986695 0.986695
0.952484 0.986695 0.986695
0.986695 0.986695 0.986695
