app/src/main/assets/luts/portrait_soft_skin.cube
# V-Cam procedural LUT — portrait_soft_skin
# Generated by LutBaker. Do not edit by hand.
TITLE "V-Cam portrait_soft_skin"
LUT_3D_SIZE 5
DOMAIN_MIN 0.0 0.0 0.0
DOMAIN_MAX 1.0 1.0 1.0
0.138115 0.088163 0.069649
0.364886 0.091676 0.073163
0.591657 0.095190 0.076676
0.818428 0.098703 0.080190
1.000000 0.102216 0.083703
0.144948 0.316156 0.076482
0.371719 0.319669 0.079995
0.598490 0.323182 0.083509
0.825261 0.326696 0.087022
1.000000 0.330209 0.090536
0.151780 0.544148 0.083315
0.378551 0.547662 0.086828
0.605322 0.551175 0.090342
0.832093 0.554688 0.093855
1.000000 0.558202 0.097368
0.158613 0.772141 0.090147
0.385384 0.775654 0.093661
0.612155 0.779168 0.097174
0.838926 0.782681 0.100688
1.000000 0.786195 0.104201
0.165446 1.000000 0.096980
0.392217 1.000000 0.100493
0.618988 1.000000 0.104007
0.845759 1.000000 0.107520
1.000000 1.000000 0.111034
0.139418 0.089466 0.288095
0.366189 0.092979 0.291608
0.592960 0.096493 0.295122
0.819731 0.100006 0.298635
1.000000 0.103519 0.302148
0.146251 0.317459 0.294928
0.373022 0.320972 0.298441
0.599792 0.324485 0.301954
0.826563 0.327999 0.305468
1.000000 0.331512 0.308981
0.153083 0.545451 0.301760
0.379854 0.548965 0.305274
0.606625 0.552478 0.308787
0.833396 0.555991 0.312300
1.000000 0.559505 0.315814
0.159916 0.773444 0.308593
0.386687 0.776957 0.312106
0.613458 0.780471 0.315620
0.840229 0.783984 0.319133
1.000000 0.787497 0.322646
0.166749 1.000000 0.315426
0.393520 1.000000 0.318939
0.620291 1.000000 0.322452
0.847062 1.000000 0.325966
1.000000 1.000000 0.329479
0.140745 0.090793 0.510628
0.367516 0.094306 0.514141
0.594287 0.097820 0.517654
0.821058 0.101333 0.521168
1.000000 0.104847 0.524681
0.147578 0.318786 0.517460
0.374349 0.322299 0.520974
0.601120 0.325813 0.524487
0.827891 0.329326 0.528001
1.000000 0.332839 0.531514
0.154411 0.546778 0.524293
0.381182 0.550292 0.527806
0.607952 0.553805 0.531320
0.834723 0.557319 0.534833
1.000000 0.560832 0.538347
0.161243 0.774771 0.531126
0.388014 0.778284 0.534639
0.614785 0.781798 0.538153
0.841556 0.785311 0.541666
1.000000 0.788825 0.545179
0.168076 1.000000 0.537958
0.394847 1.000000 0.541472
0.621618 1.000000 0.544985
0.848389 1.000000 0.548499
1.000000 1.000000 0.552012
0.142072 0.092120 0.733161
0.368843 0.095634 0.736674
0.595614 0.099147 0.740187
0.822385 0.102660 0.743701
1.000000 0.106174 0.747214
0.148905 0.320113 0.739993
0.375676 0.323626 0.743507
0.602447 0.327140 0.747020
0.829218 0.330653 0.750533
1.000000 0.334166 0.754047
0.155738 0.548106 0.746826
0.382509 0.551619 0.750339
0.609280 0.555132 0.753853
0.836051 0.558646 0.757366
1.000000 0.562159 0.760880
0.162570 0.776098 0.753659
0.389341 0.779612 0.757172
0.616112 0.783125 0.760685
0.842883 0.786638 0.764199
1.000000 0.790152 0.767712
0.169403 1.000000 0.760491
0.396174 1.000000 0.764005
0.622945 1.000000 0.767518
0.849716 1.000000 0.771031
1.000000 1.000000 0.774545
0.143400 0.093448 0.955693
0.370171 0.096961 0.959207
0.596942 0.100474 0.962720
0.823713 0.103988 0.966234
1.000000 0.107501 0.969747
0.150232 0.321440 0.962526
0.377003 0.324954 0.966039
0.603774 0.328467 0.969553
0.830545 0.331980 0.973066
1.000000 0.335494 0.976580
0.157065 0.549433 0.969359
0.383836 0.552946 0.972872
0.610607 0.556460 0.976385
0.837378 0.559973 0.979899
1.000000 0.563486 0.983412
0.163898 0.777426 0.976191
0.390669 0.780939 0.979705
0.617440 0.784452 0.983218
0.844211 0.787966 0.986732
1.000000 0.791479 0.990245
0.170730 1.000000 0.983024
0.397501 1.000000 0.986538
0.624272 1.000000 0.990051
0.851043 1.000000 0.993564
1.000000 1.000000 0.997078
