app/src/main/assets/luts/portrait_clean_bright.cube
# V-Cam procedural LUT — portrait_clean_bright
# Generated by LutBaker. Do not edit by hand.
TITLE "V-Cam portrait_clean_bright"
LUT_3D_SIZE 5
DOMAIN_MIN 0.0 0.0 0.0
DOMAIN_MAX 1.0 1.0 1.0
0.071915 0.050495 0.050495
0.335853 0.046683 0.046683
0.596599 0.042871 0.042871
0.849979 0.039058 0.039058
1.000000 0.035246 0.035246
0.064431 0.310761 0.043011
0.328369 0.306948 0.039199
0.589414 0.303136 0.035386
0.842794 0.299324 0.031574
1.000000 0.295512 0.027762
0.056947 0.568986 0.035527
0.320884 0.565326 0.031714
0.582229 0.561666 0.027902
0.835609 0.558006 0.024090
1.000000 0.554346 0.020278
0.049462 0.818841 0.028042
0.313400 0.815181 0.024230
0.575044 0.811521 0.020418
0.828425 0.807861 0.020000
1.000000 0.804202 0.020000
0.041978 1.000000 0.020558
0.305916 1.000000 0.020000
0.567859 1.000000 0.020000
0.821240 1.000000 0.020000
1.000000 1.000000 0.020000
0.070578 0.049158 0.295488
0.334516 0.045346 0.291676
0.595315 0.041533 0.287863
0.848695 0.037721 0.284051
1.000000 0.033909 0.280239
0.063094 0.309424 0.288004
0.327031 0.305611 0.284191
0.588130 0.301799 0.280379
0.841511 0.297987 0.276567
1.000000 0.294175 0.272755
0.055609 0.567702 0.280519
0.319547 0.564042 0.276707
0.580945 0.560382 0.272895
0.834326 0.556722 0.269083
1.000000 0.553063 0.265270
0.048125 0.817557 0.273035
0.312063 0.813897 0.269223
0.573761 0.810237 0.265411
0.827141 0.806578 0.261598
1.000000 0.802918 0.257786
0.040641 1.000000 0.265551
0.304579 1.000000 0.261739
0.566576 1.000000 0.257926
0.819956 1.000000 0.254114
1.000000 1.000000 0.250302
0.069124 0.047704 0.560113
0.333062 0.043892 0.556453
0.593920 0.040080 0.552793
0.847300 0.036268 0.549134
1.000000 0.032455 0.545474
0.061640 0.307970 0.552928
0.325578 0.304158 0.549268
0.586735 0.300346 0.545608
0.840115 0.296533 0.541949
1.000000 0.292721 0.538289
0.054156 0.566306 0.545743
0.318094 0.562647 0.542083
0.579550 0.558987 0.538424
0.832930 0.555327 0.534764
1.000000 0.551667 0.531104
0.046672 0.816162 0.538558
0.310609 0.812502 0.534898
0.572365 0.808842 0.531239
0.825745 0.805182 0.527579
1.000000 0.801522 0.523919
0.039187 1.000000 0.531373
0.303125 1.000000 0.527714
0.565180 1.000000 0.524054
0.818561 1.000000 0.520394
1.000000 1.000000 0.516598
0.067671 0.046251 0.815758
0.331609 0.042439 0.812098
0.592524 0.038626 0.808438
0.845905 0.034814 0.804778
1.000000 0.031002 0.801119
0.060187 0.306516 0.808573
0.324124 0.302704 0.804913
0.585340 0.298892 0.801253
0.838720 0.295080 0.797593
1.000000 0.291268 0.793934
0.052702 0.564911 0.801388
0.316640 0.561251 0.797728
0.578155 0.557592 0.794068
0.831535 0.553932 0.790409
1.000000 0.550272 0.786749
0.045218 0.814766 0.794203
0.309156 0.811106 0.790543
0.570970 0.807447 0.786883
0.824350 0.803787 0.783224
1.000000 0.800127 0.779564
0.037734 1.000000 0.787018
0.301672 1.000000 0.783358
0.563785 1.000000 0.779699
0.817165 1.000000 0.776039
1.000000 1.000000 0.772379
0.066217 0.044797 1.000000
0.330155 0.040985 1.000000
0.591129 0.037173 1.000000
0.844509 0.033361 1.000000
1.000000 0.029548 1.000000
0.058733 0.305063 1.000000
0.322671 0.301251 1.000000
0.583944 0.297439 1.000000
0.837325 0.293626 1.000000
1.000000 0.289814 1.000000
0.051249 0.563516 1.000000
0.315187 0.559856 1.000000
0.576759 0.556196 1.000000
0.830140 0.552536 1.000000
1.000000 0.548877 1.000000
0.043765 0.813371 1.000000
0.307702 0.809711 1.000000
0.569574 0.806051 1.000000
0.822955 0.802392 1.000000
1.000000 0.798732 1.000000
0.036280 1.000000 1.000000
0.300218 1.000000 1.000000
0.562390 1.000000 1.000000
0.815770 1.000000 1.000000
1.000000 1.000000 1.000000
