app/src/main/assets/luts/portrait_studio_glow.cube
# V-Cam procedural LUT — portrait_studio_glow
# Generated by LutBaker. Do not edit by hand.
TITLE "V-Cam portrait_studio_glow"
LUT_3D_SIZE 5
DOMAIN_MIN 0.0 0.0 0.0
DOMAIN_MAX 1.0 1.0 1.0
0.281187 0.270101 0.270101
0.342312 0.270101 0.270101
0.553171 0.270101 0.270101
0.845872 0.270101 0.270101
0.986695 0.270101 0.270101
0.281187 0.329805 0.270101
0.342312 0.329805 0.270101
0.553171 0.329805 0.270101
0.845872 0.329805 0.270101
0.986695 0.329805 0.270101
0.281187 0.543058 0.270101
0.342312 0.543058 0.270101
0.553171 0.543058 0.270101
0.845872 0.543058 0.270101
0.986695 0.543058 0.270101
0.281187 0.842612 0.270101
0.342312 0.842612 0.270101
0.553171 0.842612 0.270101
0.845872 0.842612 0.270101
0.986695 0.842612 0.270101
0.281187 0.986695 0.270101
0.342312 0.986695 0.270101
0.553171 0.986695 0.270101
0.845872 0.986695 0.270101
0.986695 0.986695 0.270101
0.281187 0.270101 0.329805
0.342312 0.270101 0.329805
0.553171 0.270101 0.329805
0.845872 0.270101 0.329805
0.986695 0.270101 0.329805
0.281187 0.329805 0.329805
0.342312 0.329805 0.329805
0.553171 0.329805 0.329805
0.845872 0.329805 0.329805
0.986695 0.329805 0.329805
0.281187 0.543058 0.329805
0.342312 0.543058 0.329805
0.553171 0.543058 0.329805
0.845872 0.543058 0.329805
0.986695 0.543058 0.329805
0.281187 0.842612 0.329805
0.342312 0.842612 0.329805
0.553171 0.842612 0.329805
0.845872 0.842612 0.329805
0.986695 0.842612 0.329805
0.281187 0.986695 0.329805
0.342312 0.986695 0.329805
0.553171 0.986695 0.329805
0.845872 0.986695 0.329805
0.986695 0.986695 0.329805
0.281187 0.270101 0.543058
0.342312 0.270101 0.543058
0.553171 0.270101 0.543058
0.845872 0.270101 0.543058
0.986695 0.270101 0.543058
0.281187 0.329805 0.543058
0.342312 0.329805 0.543058
0.553171 0.329805 0.543058
0.845872 0.329805 0.543058
0.986695 0.329805 0.543058
0.281187 0.543058 0.543058
0.342312 0.543058 0.543058
0.553171 0.543058 0.543058
0.845872 0.543058 0.543058
0.986695 0.543058 0.543058
0.281187 0.842612 0.543058
0.342312 0.842612 0.543058
0.553171 0.842612 0.543058
0.845872 0.842612 0.543058
0.986695 0.842612 0.543058
0.281187 0.986695 0.543058
0.342312 0.986695 0.543058
0.553171 0.986695 0.543058
0.845872 0.986695 0.543058
0.986695 0.986695 0.543058
0.281187 0.270101 0.842612
0.342312 0.270101 0.842612
0.553171 0.270101 0.842612
0.845872 0.270101 0.842612
0.986695 0.270101 0.842612
0.281187 0.329805 0.842612
0.342312 0.329805 0.842612
0.553171 0.329805 0.842612
0.845872 0.329805 0.842612
0.986695 0.329805 0.842612
0.281187 0.543058 0.842612
0.342312 0.543058 0.842612
0.553171 0.543058 0.842612
0.845872 0.543058 0.842612
0.986695 0.543058 0.842612
0.281187 0.842612 0.842612
0.342312 0.842612 0.842612
0.553171 0.842612 0.842612
0.845872 0.842612 0.842612
0.986695 0.842612 0.842612
0.281187 0.986695 0.842612
0.342312 0.986695 0.842612
0.553171 0.986695 0.842612
0.845872 0.986695 0.842612
0.986695 0.986695 0.842612
0.281187 0.270101 0.986695
0.342312 0.270101 0.986695
0.553171 0.270101 0.986695
0.845872 0.270101 0.986695
0.986695 0.270101 0.986695
0.281187 0.329805 0.986695
0.342312 0.329805 0.986695
0.553171 0.329805 0.986695
0.845872 0.329805 0.986695
0.986695 0.329805 0.986695
0.281187 0.543058 0.986695
0.342312 0.543058 0.986695
0.553171 0.543058 0.986695
0.845872 0.543058 0.986695
0.986695 0.543058 0.986695
0.281187 0.842612 0.986695
0.342312 0.842612 0.986695
0.553171 0.842612 0.986695
0.845872 0.842612 0.986695
0.986695 0.842612 0.986695
0.281187 0.986695 0.986695
0.342312 0.986695 0.986695
0.553171 0.986695 0.986695
0.845872 0.986695 0.986695
0.986695 0.986695 0.986695
