app/src/main/assets/luts/portrait_warm.cube
# V-Cam procedural LUT — portrait_warm
# Generated by LutBaker. Do not edit by hand.
TITLE "V-Cam portrait_warm"
LUT_3D_SIZE 33
DOMAIN_MIN 0.0 0.0 0.0
DOMAIN_MAX 1.0 1.0 1.0
0.000000 0.000000 0.000000
0.000185 0.000000 0.000000
0.001013 0.000000 0.000000
0.003354 0.000000 0.000000
0.008616 0.000000 0.000000
0.018813 0.000000 0.000000
0.036638 0.000000 0.000000
0.061692 0.000000 0.000000
0.089609 0.000000 0.000000
0.120263 0.000000 0.000000
0.153559 0.000000 0.000000
0.189383 0.000000 0.000000
0.227607 0.000000 0.000000
0.268084 0.000000 0.000000
0.310649 0.000000 0.000000
0.355111 0.000000 0.000000
0.401259 0.000000 0.000000
0.448852 0.000000 0.000000
0.497620 0.000000 0.000000
0.547257 0.000000 0.000000
0.597418 0.000000 0.000000
0.647714 0.000000 0.000000
0.697701 0.000000 0.000000
0.746859 0.000000 0.000000
0.794530 0.000000 0.000000
0.840041 0.000000 0.000000
0.882559 0.000000 0.000000
0.921088 0.000000 0.000000
0.954418 0.000000 0.000000
0.981057 0.000000 0.000000
0.999116 0.000000 0.000000
1.000000 0.000000 0.000000
1.000000 0.000000 0.000000
0.000000 0.000165 0.000000
0.000185 0.000165 0.000000
0.001013 0.000165 0.000000
0.003354 0.000165 0.000000
0.008616 0.000165 0.000000
0.018813 0.000165 0.000000
0.036638 0.000164 0.000000
0.061692 0.000163 0.000000
0.089609 0.000159 0.000000
0.120263 0.000151 0.000000
0.153559 0.000133 0.000000
0.189383 0.000097 0.000000
0.227607 0.000028 0.000000
0.268084 0.000000 0.000000
0.310649 0.000000 0.000000
0.355111 0.000000 0.000000
0.401259 0.000000 0.000000
0.448852 0.000000 0.000000
0.497620 0.000000 0.000000
0.547257 0.000000 0.000000
0.597418 0.000000 0.000000
0.647714 0.000000 0.000000
0.697701 0.000000 0.000000
0.746859 0.000000 0.000000
0.794530 0.000000 0.000000
0.840041 0.000000 0.000000
0.882559 0.000000 0.000000
0.921088 0.000000 0.000000
0.954418 0.000000 0.000000
0.981057 0.000000 0.000000
0.999116 0.000000 0.000000
1.000000 0.000000 0.000000
1.000000 0.000000 0.000000
0.000000 0.000913 0.000000
0.000185 0.000913 0.000000
0.001013 0.000913 0.000000
0.003354 0.000913 0.000000
0.008616 0.000913 0.000000
0.018813 0.000913 0.000000
0.036638 0.000913 0.000000
0.061692 0.000911 0.000000
0.089609 0.000908 0.000000
0.120263 0.000899 0.000000
0.153559 0.000881 0.000000
0.189382 0.000845 0.000000
0.227607 0.000777 0.000000
0.268084 0.000655 0.000000
0.310649 0.000449 0.000000
0.355111 0.000112 0.000000
0.401259 0.000000 0.000000
0.448852 0.000000 0.000000
0.497620 0.000000 0.000000
0.547257 0.000000 0.000000
0.597418 0.000000 0.000000
0.647714 0.000000 0.000000
0.697701 0.000000 0.000000
0.746859 0.000000 0.000000
0.794530 0.000000 0.000000
0.840041 0.000000 0.000000
0.882559 0.000000 0.000000
0.921087 0.000000 0.000000
0.954417 0.000000 0.000000
0.981057 0.000000 0.000000
0.999116 0.000000 0.000000
1.000000 0.000000 0.000000
1.000000 0.000000 0.000000
0.000000 0.003034 0.000000
0.000185 0.003034 0.000000
0.001013 0.003034 0.000000
0.003354 0.003034 0.000000
0.008616 0.003034 0.000000
0.018813 0.003034 0.000000
0.036638 0.003033 0.000000
0.061692 0.003032 0.000000
0.089609 0.003029 0.000000
0.120263 0.003020 0.000000
0.153558 0.003003 0.000000
0.189382 0.002967 0.000000
0.227606 0.002899 0.000000
0.268084 0.002777 0.000000
0.310648 0.002571 0.000000
0.355111 0.002235 0.000000
0.401259 0.001709 0.000000
0.448852 0.000912 0.000000
0.497619 0.000000 0.000000
0.547256 0.000000 0.000000
0.597417 0.000000 0.000000
0.647713 0.000000 0.000000
0.697700 0.000000 0.000000
0.746858 0.000000 0.000000
0.794529 0.000000 0.000000
0.840040 0.000000 0.000000
0.882558 0.000000 0.000000
0.921086 0.000000 0.000000
0.954416 0.000000 0.000000
0.981056 0.000000 0.000000
0.999115 0.000000 0.000000
1.000000 0.000000 0.000000
1.000000 0.000000 0.000000
0.000000 0.007808 0.000000
0.000185 0.007808 0.000000
0.001013 0.007808 0.000000
0.003354 0.007808 0.000000
0.008616 0.007808 0.000000
0.018813 0.007808 0.000000
0.036638 0.007807 0.000000
0.061691 0.007806 0.000000
0.089609 0.007803 0.000000
0.120263 0.007795 0.000000
0.153558 0.007777 0.000000
0.189382 0.007741 0.000000
0.227606 0.007674 0.000000
0.268083 0.007553 0.000000
0.310648 0.007348 0.000000
0.355110 0.007013 0.000000
0.401258 0.006488 0.000000
0.448851 0.005693 0.000000
0.497618 0.004525 0.000000
0.547255 0.002855 0.000000
0.597416 0.000520 0.000000
0.647712 0.000000 0.000000
0.697698 0.000000 0.000000
0.746857 0.000000 0.000000
0.794527 0.000000 0.000000
0.840039 0.000000 0.000000
0.882557 0.000000 0.000000
0.921085 0.000000 0.000000
0.954415 0.000000 0.000000
0.981054 0.000000 0.000000
0.999113 0.000000 0.000000
1.000000 0.000000 0.000000
1.000000 0.000000 0.000000
0.000000 0.017066 0.000000
0.000185 0.017066 0.000000
0.001013 0.017066 0.000000
0.003354 0.017066 0.000000
0.008616 0.017066 0.000000
0.018812 0.017066 0.000000
0.036637 0.017066 0.000000
0.061691 0.017065 0.000000
0.089608 0.017062 0.000000
0.120262 0.017054 0.000000
0.153557 0.017037 0.000000
0.189381 0.017002 0.000000
0.227605 0.016935 0.000000
0.268082 0.016816 0.000000
0.310646 0.016612 0.000000
0.355109 0.016279 0.000000
0.401256 0.015756 0.000000
0.448849 0.014964 0.000000
0.497616 0.013800 0.000000
0.547253 0.012133 0.000000
0.597413 0.009804 0.000000
0.647709 0.006610 0.000000
0.697695 0.002313 0.000000
0.746854 0.000000 0.000000
0.794524 0.000000 0.000000
0.840036 0.000000 0.000000
0.882553 0.000000 0.000000
0.921081 0.000000 0.000000
0.954411 0.000000 0.000000
0.981050 0.000000 0.000000
0.999110 0.000000 0.000000
1.000000 0.000000 0.000000
1.000000 0.000000 0.000000
0.000000 0.033263 0.000000
0.000184 0.033263 0.000000
0.001012 0.033263 0.000000
0.003353 0.033263 0.000000
0.008616 0.033263 0.000000
0.018812 0.033263 0.000000
0.036637 0.033262 0.000000
0.061690 0.033262 0.000000
0.089607 0.033259 0.000000
0.120261 0.033252 0.000000
0.153556 0.033236 0.000000
0.189379 0.033202 0.000000
0.227603 0.033137 0.000000
0.268080 0.033020 0.000000
0.310644 0.032819 0.000000
0.355106 0.032489 0.000000
0.401253 0.031971 0.000000
0.448846 0.031184 0.000000
0.497613 0.030025 0.000000
0.547249 0.028366 0.000000
0.597409 0.026044 0.000000
0.647704 0.022860 0.000000
0.697690 0.018572 0.000000
0.746849 0.012996 0.000000
0.794519 0.006555 0.000000
0.840030 0.000000 0.000000
0.882548 0.000000 0.000000
0.921075 0.000000 0.000000
0.954405 0.000000 0.000000
0.981044 0.000000 0.000000
0.999103 0.000000 0.000000
1.000000 0.000000 0.000000
1.000000 0.000000 0.000000
0.000000 0.057117 0.000000
0.000182 0.057117 0.000000
0.001010 0.057117 0.000000
0.003351 0.057117 0.000000
0.008614 0.057117 0.000000
0.018810 0.057117 0.000000
0.036636 0.057117 0.000000
0.061689 0.057116 0.000000
0.089606 0.057115 0.000000
0.120260 0.057110 0.000000
0.153554 0.057098 0.000000
0.189377 0.057074 0.000000
0.227600 0.057025 0.000000
0.268077 0.056935 0.000000
0.310640 0.056780 0.000000
0.355102 0.056524 0.000000
0.401249 0.056119 0.000000
0.448840 0.055497 0.000000
0.497607 0.054571 0.000000
0.547242 0.053224 0.000000
0.597402 0.051296 0.000000
0.647697 0.048566 0.000000
0.697682 0.044720 0.000000
0.746841 0.039364 0.000000
0.794511 0.032939 0.000000
0.840021 0.025404 0.000000
0.882538 0.016940 0.000000
0.921066 0.007927 0.000000
0.954395 0.000000 0.000000
0.981034 0.000000 0.000000
0.999093 0.000000 0.000000
1.000000 0.000000 0.000000
1.000000 0.000000 0.000000
0.000000 0.083976 0.000000
0.000176 0.083976 0.000000
0.001005 0.083976 0.000000
0.003346 0.083976 0.000000
0.008608 0.083976 0.000000
0.018805 0.083976 0.000000
0.036632 0.083975 0.000000
0.061687 0.083974 0.000000
0.089604 0.083973 0.000000
0.120257 0.083971 0.000000
0.153551 0.083963 0.000000
0.189373 0.083947 0.000000
0.227596 0.083913 0.000000
0.268072 0.083850 0.000000
0.310635 0.083740 0.000000
0.355095 0.083556 0.000000
0.401241 0.083262 0.000000
0.448832 0.082813 0.000000
0.497598 0.082144 0.000000
0.547232 0.081173 0.000000
0.597391 0.079794 0.000000
0.647685 0.077866 0.000000
0.697669 0.075201 0.000000
0.746829 0.071598 0.000000
0.794498 0.067257 0.000000
0.840008 0.061870 0.000000
0.882524 0.055371 0.000000
0.921051 0.047799 0.000000
0.954380 0.039409 0.000000
0.981018 0.031443 0.000000
0.999077 0.025591 0.000000
1.000000 0.023216 0.000000
1.000000 0.023213 0.000000
0.000000 0.113479 0.000000
0.000162 0.113479 0.000000
0.000991 0.113479 0.000000
0.003332 0.113479 0.000000
0.008595 0.113479 0.000000
0.018793 0.113479 0.000000
0.036620 0.113478 0.000000
0.061680 0.113477 0.000000
0.089600 0.113476 0.000000
0.120253 0.113474 0.000000
0.153546 0.113470 0.000000
0.189368 0.113459 0.000000
0.227590 0.113436 0.000000
0.268065 0.113392 0.000000
0.310626 0.113312 0.000000
0.355086 0.113177 0.000000
0.401231 0.112960 0.000000
0.448821 0.112626 0.000000
0.497585 0.112127 0.000000
0.547218 0.111404 0.000000
0.597375 0.110379 0.000000
0.647668 0.108951 0.000000
0.697651 0.106993 0.000000
0.746812 0.104372 0.000000
0.794479 0.101278 0.000000
0.839988 0.097531 0.000000
0.882504 0.093159 0.000000
0.921030 0.088291 0.000000
0.954358 0.083217 0.000000
0.980995 0.078455 0.000000
0.999054 0.074798 0.000000
1.000000 0.073271 0.000000
1.000000 0.073270 0.000000
0.000000 0.145539 0.000000
0.000133 0.145539 0.000000
0.000962 0.145539 0.000000
0.003303 0.145539 0.000000
0.008567 0.145539 0.000000
0.018765 0.145538 0.000000
0.036594 0.145538 0.000000
0.061662 0.145537 0.000000
0.089589 0.145535 0.000000
0.120247 0.145532 0.000000
0.153540 0.145529 0.000000
0.189360 0.145523 0.000000
0.227581 0.145508 0.000000
0.268055 0.145477 0.000000
0.310615 0.145419 0.000000
0.355073 0.145319 0.000000
0.401216 0.145157 0.000000
0.448804 0.144904 0.000000
0.497566 0.144525 0.000000
0.547198 0.143974 0.000000
0.597353 0.143191 0.000000
0.647644 0.142102 0.000000
0.697625 0.140612 0.000000
0.746787 0.138618 0.000000
0.794453 0.136293 0.000000
0.839961 0.133509 0.000000
0.882475 0.130305 0.000000
0.921000 0.126802 0.000000
0.954327 0.123225 0.000000
0.980964 0.119942 0.000000
0.999022 0.117473 0.000000
1.000000 0.116457 0.000000
1.000000 0.116456 0.000000
0.000000 0.180052 0.000000
0.000075 0.180052 0.000000
0.000903 0.180052 0.000000
0.003245 0.180052 0.000000
0.008509 0.180052 0.000000
0.018709 0.180051 0.000000
0.036540 0.180051 0.000000
0.061625 0.180049 0.000000
0.089564 0.180047 0.000000
0.120231 0.180044 0.000000
0.153530 0.180040 0.000000
0.189350 0.180035 0.000000
0.227569 0.180026 0.000000
0.268041 0.180005 0.000000
0.310599 0.179964 0.000000
0.355055 0.179891 0.000000
0.401196 0.179769 0.000000
0.448782 0.179576 0.000000
0.497542 0.179285 0.000000
0.547170 0.178858 0.000000
0.597323 0.178250 0.000000
0.647611 0.177401 0.000000
0.697590 0.176240 0.000000
0.746753 0.174679 0.000000
0.794418 0.172874 0.000000
0.839923 0.170723 0.000000
0.882436 0.168266 0.000000
0.920959 0.165601 0.000000
0.954285 0.162906 0.000000
0.980921 0.160457 0.000000
0.998978 0.158632 0.000000
1.000000 0.157884 0.000000
1.000000 0.157883 0.000000
0.000000 0.216901 0.000000
0.000000 0.216901 0.000000
0.000794 0.216901 0.000000
0.003136 0.216900 0.000000
0.008401 0.216900 0.000000
0.018602 0.216900 0.000000
0.036436 0.216899 0.000000
0.061551 0.216897 0.000000
0.089513 0.216895 0.000000
0.120196 0.216892 0.000000
0.153507 0.216887 0.000000
0.189336 0.216881 0.000000
0.227554 0.216873 0.000000
0.268023 0.216860 0.000000
0.310579 0.216832 0.000000
0.355032 0.216779 0.000000
0.401170 0.216688 0.000000
0.448753 0.216542 0.000000
0.497509 0.216316 0.000000
0.547135 0.215983 0.000000
0.597284 0.215505 0.000000
0.647568 0.214835 0.000000
0.697544 0.213915 0.000000
0.746704 0.212676 0.000000
0.794371 0.211233 0.000000
0.839874 0.209530 0.000000
0.882384 0.207589 0.000000
0.920905 0.205493 0.000000
0.954229 0.203384 0.000000
0.980864 0.201477 0.000000
0.998920 0.200062 0.000000
1.000000 0.199484 0.000000
1.000000 0.199483 0.000000
0.000000 0.255949 0.000000
0.000000 0.255949 0.000000
0.000599 0.255949 0.000000
0.002942 0.255949 0.000000
0.008208 0.255949 0.000000
0.018411 0.255948 0.000000
0.036248 0.255947 0.000000
0.061415 0.255945 0.000000
0.089418 0.255943 0.000000
0.120129 0.255939 0.000000
0.153460 0.255934 0.000000
0.189305 0.255927 0.000000
0.227533 0.255917 0.000000
0.268001 0.255907 0.000000
0.310553 0.255889 0.000000
0.355003 0.255852 0.000000
0.401137 0.255786 0.000000
0.448716 0.255675 0.000000
0.497468 0.255501 0.000000
0.547089 0.255241 0.000000
0.597233 0.254863 0.000000
0.647513 0.254329 0.000000
0.697484 0.253593 0.000000
0.746640 0.252597 0.000000
0.794310 0.251423 0.000000
0.839810 0.250049 0.000000
0.882318 0.248486 0.000000
0.920836 0.246800 0.000000
0.954158 0.245108 0.000000
0.980790 0.243581 0.000000
0.998845 0.242451 0.000000
1.000000 0.241990 0.000000
1.000000 0.241989 0.000000
0.000000 0.297045 0.000000
0.000000 0.297045 0.000000
0.000270 0.297045 0.000000
0.002613 0.297045 0.000000
0.007881 0.297045 0.000000
0.018087 0.297044 0.000000
0.035928 0.297043 0.000000
0.061182 0.297041 0.000000
0.089251 0.297038 0.000000
0.120008 0.297034 0.000000
0.153373 0.297028 0.000000
0.189243 0.297020 0.000000
0.227491 0.297009 0.000000
0.267973 0.296996 0.000000
0.310522 0.296981 0.000000
0.354967 0.296957 0.000000
0.401096 0.296911 0.000000
0.448670 0.296829 0.000000
0.497416 0.296697 0.000000
0.547031 0.296494 0.000000
0.597170 0.296195 0.000000
0.647443 0.295769 0.000000
0.697408 0.295176 0.000000
0.746558 0.294370 0.000000
0.794234 0.293401 0.000000
0.839730 0.292278 0.000000
0.882234 0.291001 0.000000
0.920749 0.289623 0.000000
0.954068 0.288241 0.000000
0.980698 0.286996 0.000000
0.998751 0.286075 0.000000
1.000000 0.285699 0.000000
1.000000 0.285699 0.000000
0.000000 0.340015 0.000000
0.000000 0.340015 0.000000
0.000000 0.340015 0.000000
0.002084 0.340015 0.000000
0.007353 0.340015 0.000000
0.017562 0.340014 0.000000
0.035409 0.340013 0.000000
0.060800 0.340011 0.000000
0.088976 0.340007 0.000000
0.119807 0.340003 0.000000
0.153224 0.339996 0.000000
0.189133 0.339987 0.000000
0.227412 0.339975 0.000000
0.267918 0.339960 0.000000
0.310484 0.339942 0.000000
0.354924 0.339921 0.000000
0.401047 0.339891 0.000000
0.448614 0.339833 0.000000
0.497354 0.339734 0.000000
0.546962 0.339579 0.000000
0.597093 0.339344 0.000000
0.647358 0.339005 0.000000
0.697315 0.338527 0.000000
0.746457 0.337872 0.000000
0.794140 0.337064 0.000000
0.839631 0.336139 0.000000
0.882130 0.335084 0.000000
0.920641 0.333945 0.000000
0.953956 0.332802 0.000000
0.980584 0.331772 0.000000
0.998635 0.331011 0.000000
1.000000 0.330700 0.000000
1.000000 0.330700 0.000000
0.000000 0.384664 0.000000
0.000000 0.384664 0.000000
0.000000 0.384664 0.000000
0.001264 0.384664 0.000000
0.006535 0.384664 0.000000
0.016747 0.384663 0.000000
0.034601 0.384661 0.000000
0.060199 0.384659 0.000000
0.088543 0.384655 0.000000
0.119486 0.384650 0.000000
0.152984 0.384643 0.000000
0.188953 0.384633 0.000000
0.227277 0.384620 0.000000
0.267819 0.384603 0.000000
0.310414 0.384583 0.000000
0.354874 0.384557 0.000000
0.400990 0.384531 0.000000
0.448549 0.384493 0.000000
0.497280 0.384422 0.000000
0.546879 0.384306 0.000000
0.597000 0.384124 0.000000
0.647256 0.383856 0.000000
0.697202 0.383473 0.000000
0.746334 0.382942 0.000000
0.794026 0.382263 0.000000
0.839511 0.381496 0.000000
0.882004 0.380619 0.000000
0.920510 0.379669 0.000000
0.953821 0.378715 0.000000
0.980445 0.377855 0.000000
0.998494 0.377219 0.000000
1.000000 0.376959 0.000000
1.000000 0.376959 0.000000
0.000000 0.430772 0.000000
0.000000 0.430772 0.000000
0.000000 0.430772 0.000000
0.000042 0.430772 0.000000
0.005315 0.430771 0.000000
0.015532 0.430770 0.000000
0.033392 0.430769 0.000000
0.059290 0.430766 0.000000
0.087887 0.430762 0.000000
0.118999 0.430756 0.000000
0.152616 0.430748 0.000000
0.188672 0.430737 0.000000
0.227062 0.430723 0.000000
0.267656 0.430705 0.000000
0.310293 0.430682 0.000000
0.354787 0.430654 0.000000
0.400926 0.430622 0.000000
0.448474 0.430588 0.000000
0.497196 0.430541 0.000000
0.546783 0.430457 0.000000
0.596893 0.430321 0.000000
0.647135 0.430113 0.000000
0.697069 0.429809 0.000000
0.746187 0.429381 0.000000
0.793890 0.428808 0.000000
0.839368 0.428171 0.000000
0.881854 0.427438 0.000000
0.920354 0.426643 0.000000
0.953660 0.425841 0.000000
0.980280 0.425117 0.000000
0.998326 0.424581 0.000000
1.000000 0.424362 0.000000
1.000000 0.424362 0.000000
0.000000 0.478091 0.000000
0.000000 0.478091 0.000000
0.000000 0.478090 0.000000
0.000000 0.478090 0.000000
0.003556 0.478090 0.000000
0.013778 0.478089 0.000000
0.031648 0.478087 0.000000
0.057957 0.478084 0.000000
0.086927 0.478080 0.000000
0.118285 0.478073 0.000000
0.152074 0.478064 0.000000
0.188254 0.478052 0.000000
0.226739 0.478037 0.000000
0.267406 0.478017 0.000000
0.310101 0.477992 0.000000
0.354643 0.477962 0.000000
0.400821 0.477926 0.000000
0.448394 0.477884 0.000000
0.497101 0.477843 0.000000
0.546675 0.477787 0.000000
0.596770 0.477689 0.000000
0.646997 0.477532 0.000000
0.696914 0.477296 0.000000
0.746016 0.476955 0.000000
0.793719 0.476481 0.000000
0.839199 0.475944 0.000000
0.881678 0.475331 0.000000
0.920171 0.474662 0.000000
0.953471 0.473985 0.000000
0.980086 0.473373 0.000000
0.998129 0.472919 0.000000
1.000000 0.472733 0.000000
1.000000 0.472733 0.000000
0.000000 0.526341 0.000000
0.000000 0.526341 0.000000
0.000000 0.526341 0.000000
0.000000 0.526341 0.000000
0.001099 0.526340 0.000000
0.011327 0.526339 0.000000
0.029206 0.526337 0.000000
0.056051 0.526334 0.000000
0.085563 0.526329 0.000000
0.117272 0.526322 0.000000
0.151302 0.526313 0.000000
0.187656 0.526300 0.000000
0.226271 0.526283 0.000000
0.267039 0.526261 0.000000
0.309814 0.526234 0.000000
0.354420 0.526201 0.000000
0.400652 0.526162 0.000000
0.448270 0.526117 0.000000
0.497003 0.526065 0.000000
0.546557 0.526015 0.000000
0.596634 0.525950 0.000000
0.646842 0.525837 0.000000
0.696739 0.525659 0.000000
0.745820 0.525394 0.000000
0.793501 0.525016 0.000000
0.839005 0.524556 0.000000
0.881474 0.524042 0.000000
0.919959 0.523479 0.000000
0.953252 0.522907 0.000000
0.979861 0.522388 0.000000
0.997901 0.522001 0.000000
1.000000 0.521844 0.000000
1.000000 0.521843 0.000000
0.000000 0.575209 0.000000
0.000000 0.575209 0.000000
0.000000 0.575209 0.000000
0.000000 0.575208 0.000000
0.000000 0.575208 0.000000
0.007992 0.575207 0.000000
0.025882 0.575205 0.000000
0.053376 0.575201 0.000000
0.083670 0.575196 0.000000
0.115871 0.575189 0.000000
0.150234 0.575178 0.000000
0.186826 0.575164 0.000000
0.225619 0.575146 0.000000
0.266522 0.575123 0.000000
0.309403 0.575093 0.000000
0.354096 0.575058 0.000000
0.400398 0.575016 0.000000
0.448075 0.574966 0.000000
0.496858 0.574910 0.000000
0.546439 0.574846 0.000000
0.596489 0.574788 0.000000
0.646674 0.574714 0.000000
0.696546 0.574587 0.000000
0.745601 0.574388 0.000000
0.793256 0.574095 0.000000
0.838783 0.573704 0.000000
0.881243 0.573276 0.000000
0.919718 0.572802 0.000000
0.953003 0.572318 0.000000
0.979606 0.571877 0.000000
0.997641 0.571548 0.000000
1.000000 0.571413 0.000000
1.000000 0.571413 0.000000
0.000000 0.624339 0.000000
0.000000 0.624339 0.000000
0.000000 0.624339 0.000000
0.000000 0.624338 0.000000
0.000000 0.624338 0.000000
0.003559 0.624337 0.000000
0.021461 0.624334 0.000000
0.049665 0.624331 0.000000
0.081090 0.624325 0.000000
0.113974 0.624317 0.000000
0.148791 0.624306 0.000000
0.185704 0.624291 0.000000
0.224732 0.624272 0.000000
0.265815 0.624246 0.000000
0.308837 0.624215 0.000000
0.353643 0.624177 0.000000
0.400037 0.624131 0.000000
0.447790 0.624078 0.000000
0.496638 0.624017 0.000000
0.546274 0.623948 0.000000
0.596351 0.623872 0.000000
0.646499 0.623806 0.000000
0.696342 0.623723 0.000000
0.745364 0.623583 0.000000
0.792986 0.623365 0.000000
0.838524 0.623048 0.000000
0.880983 0.622689 0.000000
0.919448 0.622292 0.000000
0.952724 0.621883 0.000000
0.979320 0.621508 0.000000
0.997350 0.621227 0.000000
1.000000 0.621113 0.000000
1.000000 0.621112 0.000000
0.000000 0.673329 0.000000
0.000000 0.673329 0.000000
0.000000 0.673329 0.000000
0.000000 0.673329 0.000000
0.000000 0.673328 0.000000
0.000000 0.673327 0.000000
0.015694 0.673325 0.000000
0.044525 0.673321 0.000000
0.077610 0.673315 0.000000
0.111445 0.673306 0.000000
0.146877 0.673294 0.000000
0.184217 0.673278 0.000000
0.223555 0.673257 0.000000
0.264873 0.673230 0.000000
0.308077 0.673197 0.000000
0.353028 0.673156 0.000000
0.399540 0.673107 0.000000
0.447392 0.673049 0.000000
0.496321 0.672983 0.000000
0.546027 0.672909 0.000000
0.596165 0.672827 0.000000
0.646338 0.672738 0.000000
0.696133 0.672664 0.000000
0.745117 0.672576 0.000000
0.792698 0.672424 0.000000
0.838195 0.672190 0.000000
0.880697 0.671887 0.000000
0.919151 0.671555 0.000000
0.952416 0.671211 0.000000
0.979004 0.670893 0.000000
0.997029 0.670654 0.000000
1.000000 0.670556 0.000000
1.000000 0.670556 0.000000
0.000000 0.721724 0.000000
0.000000 0.721724 0.000000
0.000000 0.721724 0.000000
0.000000 0.721723 0.000000
0.000000 0.721722 0.000000
0.000000 0.721721 0.000000
0.008292 0.721719 0.000000
0.037342 0.721714 0.000000
0.072941 0.721708 0.000000
0.108109 0.721699 0.000000
0.144371 0.721686 0.000000
0.182275 0.721669 0.000000
0.222019 0.721647 0.000000
0.263640 0.721618 0.000000
0.307079 0.721582 0.000000
0.352215 0.721538 0.000000
0.398877 0.721486 0.000000
0.446853 0.721424 0.000000
0.495886 0.721353 0.000000
0.545680 0.721273 0.000000
0.595893 0.721185 0.000000
0.646132 0.721088 0.000000
0.695948 0.720986 0.000000
0.744870 0.720906 0.000000
0.792404 0.720814 0.000000
0.837850 0.720654 0.000000
0.880386 0.720416 0.000000
0.918828 0.720142 0.000000
0.952083 0.719853 0.000000
0.978662 0.719584 0.000000
0.996681 0.719381 0.000000
1.000000 0.719297 0.000000
1.000000 0.719297 0.000000
0.000000 0.768999 0.000000
0.000000 0.768999 0.000000
0.000000 0.768999 0.000000
0.000000 0.768999 0.000000
0.000000 0.768998 0.000000
0.000000 0.768996 0.000000
0.000000 0.768994 0.000000
0.028006 0.768989 0.000000
0.066662 0.768983 0.000000
0.103739 0.768973 0.000000
0.141125 0.768960 0.000000
0.179772 0.768941 0.000000
0.220042 0.768918 0.000000
0.262052 0.768887 0.000000
0.305789 0.768849 0.000000
0.351160 0.768802 0.000000
0.398011 0.768746 0.000000
0.446142 0.768680 0.000000
0.495304 0.768604 0.000000
0.545208 0.768518 0.000000
0.595515 0.768422 0.000000
0.645836 0.768317 0.000000
0.695723 0.768206 0.000000
0.744661 0.768089 0.000000
0.792115 0.768005 0.000000
0.837516 0.767915 0.000000
0.880006 0.767753 0.000000
0.918484 0.767530 0.000000
0.951728 0.767290 0.000000
0.978298 0.767064 0.000000
0.996311 0.766892 0.000000
1.000000 0.766821 0.000000
1.000000 0.766821 0.000000
0.000000 0.814553 0.000000
0.000000 0.814553 0.000000
0.000000 0.814553 0.000000
0.000000 0.814552 0.000000
0.000000 0.814551 0.000000
0.000000 0.814550 0.000000
0.000000 0.814547 0.000000
0.016381 0.814542 0.000000
0.058141 0.814535 0.000000
0.098041 0.814525 0.000000
0.136965 0.814511 0.000000
0.176589 0.814492 0.000000
0.217536 0.814466 0.000000
0.260041 0.814434 0.000000
0.304153 0.814393 0.000000
0.349817 0.814344 0.000000
0.396904 0.814284 0.000000
0.445226 0.814214 0.000000
0.494549 0.814132 0.000000
0.544587 0.814039 0.000000
0.595010 0.813936 0.000000
0.645431 0.813823 0.000000
0.695405 0.813702 0.000000
0.744418 0.813588 0.000000
0.791894 0.813466 0.000000
0.837207 0.813379 0.000000
0.879632 0.813280 0.000000
0.918126 0.813119 0.000000
0.951358 0.812921 0.000000
0.977919 0.812731 0.000000
0.995925 0.812586 0.000000
1.000000 0.812526 0.000000
1.000000 0.812526 0.000000
0.000000 0.857681 0.000000
0.000000 0.857681 0.000000
0.000000 0.857681 0.000000
0.000000 0.857680 0.000000
0.000000 0.857679 0.000000
0.000000 0.857678 0.000000
0.000000 0.857675 0.000000
0.002212 0.857670 0.000000
0.046350 0.857662 0.000000
0.090659 0.857652 0.000000
0.131705 0.857637 0.000000
0.172612 0.857616 0.000000
0.214422 0.857590 0.000000
0.257547 0.857555 0.000000
0.302124 0.857512 0.000000
0.348149 0.857460 0.000000
0.395523 0.857396 0.000000
0.444079 0.857321 0.000000
0.493595 0.857234 0.000000
0.543797 0.857135 0.000000
0.594347 0.857031 0.000000
0.644870 0.856926 0.000000
0.694945 0.856809 0.000000
0.744062 0.856680 0.000000
