app/src/main/assets/luts/travel_city_clear.cube
# V-Cam procedural LUT — travel_city_clear
# Generated by LutBaker. Do not edit by hand.
TITLE "V-Cam travel_city_clear"
LUT_3D_SIZE 33
DOMAIN_MIN 0.0 0.0 0.0
DOMAIN_MAX 1.0 1.0 1.0
0.000000 0.000000 0.000000
0.000027 0.000000 0.000000
0.000510 0.000000 0.000000
0.002253 0.000000 0.000000
0.006524 0.000000 0.000000
0.015149 0.000000 0.000000
0.030579 0.000000 0.000000
0.054252 0.000000 0.000000
0.081256 0.000000 0.000000
0.110890 0.000000 0.000000
0.143070 0.000000 0.000000
0.177696 0.000000 0.000000
0.214655 0.000000 0.000000
0.253814 0.000000 0.000000
0.295023 0.000000 0.000000
0.338112 0.000000 0.000000
0.382889 0.000000 0.000000
0.429138 0.000000 0.000000
0.476616 0.000000 0.000000
0.525049 0.000000 0.000000
0.574129 0.000000 0.000000
0.623507 0.000000 0.000000
0.672792 0.000000 0.000000
0.721535 0.000000 0.000000
0.769173 0.000000 0.000000
0.815087 0.000000 0.000000
0.858577 0.000000 0.000000
0.898795 0.000000 0.000000
0.934723 0.000000 0.000000
0.965126 0.000000 0.000000
0.988471 0.000000 0.000000
1.000000 0.000000 0.000000
1.000000 0.000000 0.000000
0.000000 0.000027 0.000000
0.000027 0.000027 0.000000
0.000510 0.000027 0.000000
0.002253 0.000027 0.000000
0.006524 0.000027 0.000000
0.015149 0.000027 0.000000
0.030579 0.000027 0.000000
0.054252 0.000026 0.000000
0.081256 0.000023 0.000000
0.110890 0.000017 0.000000
0.143070 0.000002 0.000000
0.177696 0.000000 0.000000
0.214655 0.000000 0.000000
0.253814 0.000000 0.000000
0.295023 0.000000 0.000000
0.338112 0.000000 0.000000
0.382889 0.000000 0.000000
0.429138 0.000000 0.000000
0.476616 0.000000 0.000000
0.525049 0.000000 0.000000
0.574129 0.000000 0.000000
0.623507 0.000000 0.000000
0.672792 0.000000 0.000000
0.721535 0.000000 0.000000
0.769173 0.000000 0.000000
0.815087 0.000000 0.000000
0.858577 0.000000 0.000000
0.898795 0.000000 0.000000
0.934723 0.000000 0.000000
0.965126 0.000000 0.000000
0.988471 0.000000 0.000000
1.000000 0.000000 0.000000
1.000000 0.000000 0.000000
0.000000 0.000512 0.000000
0.000027 0.000512 0.000000
0.000510 0.000512 0.000000
0.002253 0.000512 0.000000
0.006524 0.000512 0.000000
0.015149 0.000512 0.000000
0.030579 0.000512 0.000000
0.054252 0.000511 0.000000
0.081256 0.000508 0.000000
0.110890 0.000502 0.000000
0.143069 0.000487 0.000000
0.177696 0.000458 0.000000
0.214655 0.000403 0.000000
0.253814 0.000304 0.000000
0.295023 0.000135 0.000000
0.338112 0.000000 0.000000
0.382889 0.000000 0.000000
0.429138 0.000000 0.000000
0.476616 0.000000 0.000000
0.525049 0.000000 0.000000
0.574128 0.000000 0.000000
0.623507 0.000000 0.000000
0.672792 0.000000 0.000000
0.721535 0.000000 0.000000
0.769173 0.000000 0.000000
0.815087 0.000000 0.000000
0.858577 0.000000 0.000000
0.898794 0.000000 0.000000
0.934723 0.000000 0.000000
0.965126 0.000000 0.000000
0.988470 0.000000 0.000000
1.000000 0.000000 0.000000
1.000000 0.000000 0.000000
0.000000 0.002261 0.000000
0.000027 0.002261 0.000000
0.000510 0.002261 0.000000
0.002253 0.002261 0.000000
0.006524 0.002261 0.000000
0.015149 0.002261 0.000000
0.030579 0.002261 0.000000
0.054252 0.002260 0.000000
0.081256 0.002257 0.000000
0.110890 0.002251 0.000000
0.143069 0.002237 0.000000
0.177696 0.002208 0.000000
0.214655 0.002153 0.000000
0.253814 0.002054 0.000000
0.295023 0.001885 0.000000
0.338111 0.001607 0.000000
0.382888 0.001170 0.000000
0.429137 0.000504 0.000000
0.476615 0.000000 0.000000
0.525048 0.000000 0.000000
0.574128 0.000000 0.000000
0.623507 0.000000 0.000000
0.672791 0.000000 0.000000
0.721534 0.000000 0.000000
0.769172 0.000000 0.000000
0.815086 0.000000 0.000000
0.858576 0.000000 0.000000
0.898794 0.000000 0.000000
0.934722 0.000000 0.000000
0.965125 0.000000 0.000000
0.988470 0.000000 0.000000
1.000000 0.000000 0.000000
1.000000 0.000000 0.000000
0.000000 0.006546 0.000000
0.000027 0.006546 0.000000
0.000510 0.006546 0.000000
0.002253 0.006546 0.000000
0.006524 0.006546 0.000000
0.015149 0.006546 0.000000
0.030579 0.006546 0.000000
0.054252 0.006545 0.000000
0.081256 0.006542 0.000000
0.110889 0.006536 0.000000
0.143069 0.006522 0.000000
0.177696 0.006494 0.000000
0.214654 0.006439 0.000000
0.253813 0.006341 0.000000
0.295022 0.006172 0.000000
0.338111 0.005895 0.000000
0.382888 0.005459 0.000000
0.429137 0.004795 0.000000
0.476614 0.003815 0.000000
0.525047 0.002406 0.000000
0.574127 0.000432 0.000000
0.623505 0.000000 0.000000
0.672790 0.000000 0.000000
0.721533 0.000000 0.000000
0.769171 0.000000 0.000000
0.815085 0.000000 0.000000
0.858575 0.000000 0.000000
0.898792 0.000000 0.000000
0.934720 0.000000 0.000000
0.965124 0.000000 0.000000
0.988468 0.000000 0.000000
1.000000 0.000000 0.000000
1.000000 0.000000 0.000000
0.000000 0.015198 0.000000
0.000027 0.015198 0.000000
0.000510 0.015198 0.000000
0.002253 0.015198 0.000000
0.006524 0.015198 0.000000
0.015149 0.015198 0.000000
0.030578 0.015198 0.000000
0.054252 0.015197 0.000000
0.081255 0.015195 0.000000
0.110889 0.015189 0.000000
0.143068 0.015175 0.000000
0.177695 0.015147 0.000000
0.214654 0.015093 0.000000
0.253812 0.014996 0.000000
0.295021 0.014829 0.000000
0.338109 0.014554 0.000000
0.382886 0.014120 0.000000
0.429135 0.013458 0.000000
0.476613 0.012480 0.000000
0.525045 0.011076 0.000000
0.574125 0.009105 0.000000
0.623503 0.006396 0.000000
0.672787 0.002741 0.000000
0.721530 0.000000 0.000000
0.769168 0.000000 0.000000
0.815082 0.000000 0.000000
0.858572 0.000000 0.000000
0.898789 0.000000 0.000000
0.934717 0.000000 0.000000
0.965120 0.000000 0.000000
0.988465 0.000000 0.000000
1.000000 0.000000 0.000000
1.000000 0.000000 0.000000
0.000000 0.030675 0.000000
0.000026 0.030675 0.000000
0.000509 0.030675 0.000000
0.002252 0.030675 0.000000
0.006524 0.030675 0.000000
0.015149 0.030675 0.000000
0.030578 0.030674 0.000000
0.054251 0.030674 0.000000
0.081254 0.030672 0.000000
0.110888 0.030666 0.000000
0.143067 0.030654 0.000000
0.177694 0.030627 0.000000
0.214652 0.030575 0.000000
0.253810 0.030479 0.000000
0.295019 0.030314 0.000000
0.338107 0.030042 0.000000
0.382883 0.029612 0.000000
0.429132 0.028954 0.000000
0.476609 0.027982 0.000000
0.525042 0.026583 0.000000
0.574121 0.024619 0.000000
0.623499 0.021919 0.000000
0.672782 0.018272 0.000000
0.721525 0.013431 0.000000
0.769163 0.007555 0.000000
0.815077 0.000724 0.000000
0.858567 0.000000 0.000000
0.898784 0.000000 0.000000
0.934712 0.000000 0.000000
0.965114 0.000000 0.000000
0.988459 0.000000 0.000000
1.000000 0.000000 0.000000
1.000000 0.000000 0.000000
0.000000 0.054392 0.000000
0.000024 0.054392 0.000000
0.000507 0.054392 0.000000
0.002250 0.054392 0.000000
0.006522 0.054392 0.000000
0.015147 0.054392 0.000000
0.030577 0.054391 0.000000
0.054250 0.054391 0.000000
0.081253 0.054390 0.000000
0.110886 0.054386 0.000000
0.143065 0.054377 0.000000
0.177691 0.054356 0.000000
0.214649 0.054316 0.000000
0.253807 0.054241 0.000000
0.295015 0.054109 0.000000
0.338103 0.053891 0.000000
0.382879 0.053543 0.000000
0.429127 0.053008 0.000000
0.476604 0.052206 0.000000
0.525036 0.051037 0.000000
0.574114 0.049362 0.000000
0.623491 0.046992 0.000000
0.672775 0.043661 0.000000
0.721517 0.038969 0.000000
0.769156 0.033101 0.000000
0.815069 0.026287 0.000000
0.858558 0.018461 0.000000
0.898775 0.009872 0.000000
0.934702 0.000965 0.000000
0.965105 0.000000 0.000000
0.988449 0.000000 0.000000
1.000000 0.000000 0.000000
1.000000 0.000000 0.000000
0.000000 0.081427 0.000000
0.000019 0.081427 0.000000
0.000502 0.081427 0.000000
0.002245 0.081427 0.000000
0.006517 0.081426 0.000000
0.015142 0.081426 0.000000
0.030573 0.081426 0.000000
0.054248 0.081425 0.000000
0.081251 0.081424 0.000000
0.110884 0.081422 0.000000
0.143062 0.081417 0.000000
0.177688 0.081403 0.000000
0.214645 0.081376 0.000000
0.253803 0.081323 0.000000
0.295010 0.081231 0.000000
0.338097 0.081076 0.000000
0.382872 0.080827 0.000000
0.429119 0.080442 0.000000
0.476595 0.079868 0.000000
0.525026 0.079032 0.000000
0.574104 0.077842 0.000000
0.623480 0.076176 0.000000
0.672763 0.073874 0.000000
0.721504 0.070720 0.000000
0.769144 0.066718 0.000000
0.815056 0.061831 0.000000
0.858544 0.055837 0.000000
0.898760 0.048686 0.000000
0.934688 0.040455 0.000000
0.965090 0.031936 0.000000
0.988434 0.024721 0.000000
1.000000 0.019983 0.000000
1.000000 0.018847 0.000000
0.000000 0.111093 0.000000
0.000006 0.111093 0.000000
0.000489 0.111093 0.000000
0.002232 0.111093 0.000000
0.006504 0.111093 0.000000
0.015130 0.111093 0.000000
0.030562 0.111092 0.000000
0.054240 0.111091 0.000000
0.081247 0.111090 0.000000
0.110880 0.111088 0.000000
0.143058 0.111085 0.000000
0.177683 0.111077 0.000000
0.214639 0.111059 0.000000
0.253796 0.111022 0.000000
0.295002 0.110956 0.000000
0.338088 0.110843 0.000000
0.382862 0.110660 0.000000
0.429108 0.110377 0.000000
0.476583 0.109952 0.000000
0.525013 0.109333 0.000000
0.574089 0.108452 0.000000
0.623464 0.107224 0.000000
0.672745 0.105538 0.000000
0.721485 0.103254 0.000000
0.769126 0.100392 0.000000
0.815037 0.096983 0.000000
0.858525 0.092927 0.000000
0.898740 0.088284 0.000000
0.934666 0.083233 0.000000
0.965068 0.078133 0.000000
0.988411 0.073587 0.000000
1.000000 0.070475 0.000000
1.000000 0.069712 0.000000
0.000000 0.143307 0.000000
0.000000 0.143307 0.000000
0.000461 0.143307 0.000000
0.002205 0.143307 0.000000
0.006477 0.143307 0.000000
0.015104 0.143306 0.000000
0.030536 0.143306 0.000000
0.054221 0.143305 0.000000
0.081235 0.143303 0.000000
0.110873 0.143301 0.000000
0.143052 0.143298 0.000000
0.177676 0.143294 0.000000
0.214631 0.143282 0.000000
0.253786 0.143257 0.000000
0.294991 0.143209 0.000000
0.338076 0.143127 0.000000
0.382848 0.142991 0.000000
0.429093 0.142778 0.000000
0.476566 0.142457 0.000000
0.524994 0.141988 0.000000
0.574068 0.141319 0.000000
0.623441 0.140385 0.000000
0.672721 0.139106 0.000000
0.721459 0.137380 0.000000
0.769101 0.135224 0.000000
0.815011 0.132690 0.000000
0.858497 0.129715 0.000000
0.898711 0.126365 0.000000
0.934636 0.122792 0.000000
0.965037 0.119267 0.000000
0.988380 0.116200 0.000000
1.000000 0.114142 0.000000
1.000000 0.113643 0.000000
0.000000 0.177967 0.000000
0.000000 0.177967 0.000000
0.000405 0.177967 0.000000
0.002148 0.177967 0.000000
0.006421 0.177967 0.000000
0.015049 0.177967 0.000000
0.030483 0.177966 0.000000
0.054180 0.177965 0.000000
0.081208 0.177963 0.000000
0.110856 0.177961 0.000000
0.143042 0.177957 0.000000
0.177666 0.177952 0.000000
0.214620 0.177946 0.000000
0.253773 0.177929 0.000000
0.294977 0.177896 0.000000
0.338059 0.177836 0.000000
0.382830 0.177735 0.000000
0.429072 0.177574 0.000000
0.476542 0.177329 0.000000
0.524968 0.176967 0.000000
0.574040 0.176450 0.000000
0.623410 0.175725 0.000000
0.672687 0.174732 0.000000
0.721423 0.173392 0.000000
0.769066 0.171712 0.000000
0.814975 0.169757 0.000000
0.858459 0.167475 0.000000
0.898672 0.164926 0.000000
0.934595 0.162233 0.000000
0.964995 0.159603 0.000000
0.988337 0.157337 0.000000
1.000000 0.155829 0.000000
1.000000 0.155465 0.000000
0.000000 0.214958 0.000000
0.000000 0.214958 0.000000
0.000298 0.214958 0.000000
0.002042 0.214958 0.000000
0.006315 0.214958 0.000000
0.014944 0.214958 0.000000
0.030381 0.214957 0.000000
0.054100 0.214955 0.000000
0.081153 0.214953 0.000000
0.110818 0.214950 0.000000
0.143016 0.214946 0.000000
0.177651 0.214941 0.000000
0.214605 0.214933 0.000000
0.253757 0.214924 0.000000
0.294957 0.214902 0.000000
0.338037 0.214860 0.000000
0.382805 0.214785 0.000000
0.429044 0.214664 0.000000
0.476512 0.214475 0.000000
0.524934 0.214195 0.000000
0.574002 0.213790 0.000000
0.623369 0.213220 0.000000
0.672643 0.212436 0.000000
0.721375 0.211376 0.000000
0.769021 0.210036 0.000000
0.814927 0.208490 0.000000
0.858409 0.206690 0.000000
0.898619 0.204686 0.000000
0.934541 0.202579 0.000000
0.964939 0.200532 0.000000
0.988280 0.198777 0.000000
1.000000 0.197614 0.000000
1.000000 0.197334 0.000000
0.000000 0.254146 0.000000
0.000000 0.254146 0.000000
0.000107 0.254146 0.000000
0.001851 0.254146 0.000000
0.006125 0.254146 0.000000
0.014756 0.254145 0.000000
0.030196 0.254144 0.000000
0.053953 0.254143 0.000000
0.081050 0.254140 0.000000
0.110745 0.254137 0.000000
0.142965 0.254132 0.000000
0.177616 0.254126 0.000000
0.214583 0.254118 0.000000
0.253735 0.254107 0.000000
0.294933 0.254094 0.000000
0.338010 0.254065 0.000000
0.382774 0.254012 0.000000
0.429009 0.253921 0.000000
0.476472 0.253777 0.000000
0.524890 0.253559 0.000000
0.573954 0.253241 0.000000
0.623317 0.252790 0.000000
0.672586 0.252165 0.000000
0.721313 0.251316 0.000000
0.768963 0.250228 0.000000
0.814865 0.248984 0.000000
0.858345 0.247536 0.000000
0.898552 0.245926 0.000000
0.934471 0.244237 0.000000
0.964867 0.242599 0.000000
0.988206 0.241199 0.000000
1.000000 0.240274 0.000000
1.000000 0.240051 0.000000
0.000000 0.295378 0.000000
0.000000 0.295378 0.000000
0.000000 0.295378 0.000000
0.001528 0.295378 0.000000
0.005803 0.295378 0.000000
0.014436 0.295377 0.000000
0.029880 0.295376 0.000000
0.053699 0.295375 0.000000
0.080869 0.295372 0.000000
0.110615 0.295368 0.000000
0.142871 0.295363 0.000000
0.177548 0.295356 0.000000
0.214536 0.295346 0.000000
0.253705 0.295334 0.000000
0.294903 0.295319 0.000000
0.337976 0.295302 0.000000
0.382735 0.295265 0.000000
0.428965 0.295199 0.000000
0.476424 0.295091 0.000000
0.524836 0.294923 0.000000
0.573894 0.294673 0.000000
0.623251 0.294315 0.000000
0.672513 0.293814 0.000000
0.721235 0.293130 0.000000
0.768889 0.292235 0.000000
0.814788 0.291221 0.000000
0.858263 0.290040 0.000000
0.898467 0.288726 0.000000
0.934383 0.287349 0.000000
0.964777 0.286014 0.000000
0.988113 0.284875 0.000000
1.000000 0.284122 0.000000
1.000000 0.283941 0.000000
0.000000 0.338483 0.000000
0.000000 0.338483 0.000000
0.000000 0.338483 0.000000
0.001004 0.338483 0.000000
0.005281 0.338482 0.000000
0.013916 0.338482 0.000000
0.029365 0.338480 0.000000
0.053283 0.338479 0.000000
0.080572 0.338476 0.000000
0.110397 0.338471 0.000000
0.142709 0.338465 0.000000
0.177429 0.338457 0.000000
0.214449 0.338447 0.000000
0.253643 0.338433 0.000000
0.294862 0.338416 0.000000
0.337935 0.338396 0.000000
0.382688 0.338373 0.000000
0.428913 0.338328 0.000000
0.476364 0.338249 0.000000
0.524769 0.338121 0.000000
0.573820 0.337927 0.000000
0.623169 0.337644 0.000000
0.672424 0.337243 0.000000
0.721139 0.336690 0.000000
0.768798 0.335947 0.000000
0.814692 0.335113 0.000000
0.858162 0.334140 0.000000
0.898362 0.333056 0.000000
0.934274 0.331918 0.000000
0.964664 0.330816 0.000000
0.987999 0.329875 0.000000
1.000000 0.329253 0.000000
1.000000 0.329104 0.000000
0.000000 0.383264 0.000000
0.000000 0.383264 0.000000
0.000000 0.383264 0.000000
0.000192 0.383264 0.000000
0.004470 0.383263 0.000000
0.013109 0.383263 0.000000
0.028562 0.383262 0.000000
0.052626 0.383259 0.000000
0.080102 0.383256 0.000000
0.110051 0.383252 0.000000
0.142450 0.383245 0.000000
0.177233 0.383236 0.000000
0.214302 0.383224 0.000000
0.253534 0.383209 0.000000
0.294784 0.383190 0.000000
0.337881 0.383167 0.000000
0.382634 0.383140 0.000000
0.428851 0.383112 0.000000
0.476294 0.383057 0.000000
0.524691 0.382963 0.000000
0.573732 0.382815 0.000000
0.623072 0.382593 0.000000
0.672317 0.382274 0.000000
0.721021 0.381828 0.000000
0.768673 0.381221 0.000000
0.814575 0.380519 0.000000
0.858040 0.379712 0.000000
0.898234 0.378811 0.000000
0.934142 0.377863 0.000000
0.964528 0.376943 0.000000
0.987859 0.376158 0.000000
1.000000 0.375639 0.000000
1.000000 0.375514 0.000000
0.000000 0.429502 0.000000
0.000000 0.429502 0.000000
0.000000 0.429502 0.000000
0.000000 0.429502 0.000000
0.003258 0.429502 0.000000
0.011900 0.429501 0.000000
0.027361 0.429500 0.000000
0.051630 0.429497 0.000000
0.079389 0.429494 0.000000
0.109524 0.429489 0.000000
0.142053 0.429481 0.000000
0.176930 0.429472 0.000000
0.214069 0.429459 0.000000
0.253357 0.429442 0.000000
0.294650 0.429421 0.000000
0.337784 0.429396 0.000000
0.382566 0.429366 0.000000
0.428780 0.429331 0.000000
0.476214 0.429296 0.000000
0.524600 0.429230 0.000000
0.573630 0.429121 0.000000
0.622958 0.428951 0.000000
0.672190 0.428701 0.000000
0.720881 0.428344 0.000000
0.768520 0.427852 0.000000
0.814436 0.427256 0.000000
0.857894 0.426584 0.000000
0.898082 0.425831 0.000000
0.933984 0.425036 0.000000
0.964365 0.424263 0.000000
0.987693 0.423603 0.000000
1.000000 0.423166 0.000000
1.000000 0.423061 0.000000
0.000000 0.476950 0.000000
0.000000 0.476950 0.000000
0.000000 0.476950 0.000000
0.000000 0.476950 0.000000
0.001508 0.476950 0.000000
0.010155 0.476949 0.000000
0.025623 0.476947 0.000000
0.050163 0.476945 0.000000
0.078344 0.476941 0.000000
0.108751 0.476935 0.000000
0.141467 0.476927 0.000000
0.176479 0.476916 0.000000
0.213719 0.476902 0.000000
0.253085 0.476884 0.000000
0.294440 0.476861 0.000000
0.337624 0.476834 0.000000
0.382448 0.476801 0.000000
0.428697 0.476762 0.000000
0.476125 0.476718 0.000000
0.524498 0.476676 0.000000
0.573514 0.476600 0.000000
0.622827 0.476474 0.000000
0.672043 0.476282 0.000000
0.720719 0.476002 0.000000
0.768341 0.475607 0.000000
0.814272 0.475101 0.000000
0.857722 0.474541 0.000000
0.897903 0.473909 0.000000
0.933799 0.473240 0.000000
0.964174 0.472588 0.000000
0.987498 0.472029 0.000000
1.000000 0.471659 0.000000
1.000000 0.471570 0.000000
0.000000 0.525328 0.000000
0.000000 0.525328 0.000000
0.000000 0.525328 0.000000
0.000000 0.525328 0.000000
0.000000 0.525327 0.000000
0.007712 0.525326 0.000000
0.023188 0.525325 0.000000
0.048055 0.525322 0.000000
0.076855 0.525318 0.000000
0.107653 0.525312 0.000000
0.140633 0.525303 0.000000
0.175834 0.525291 0.000000
0.213215 0.525276 0.000000
0.252687 0.525256 0.000000
0.294127 0.525232 0.000000
0.337380 0.525201 0.000000
0.382260 0.525166 0.000000
0.428556 0.525123 0.000000
0.476024 0.525075 0.000000
0.524387 0.525021 0.000000
0.573387 0.524972 0.000000
0.622681 0.524885 0.000000
0.671879 0.524743 0.000000
0.720533 0.524528 0.000000
0.768135 0.524217 0.000000
0.814083 0.523791 0.000000
0.857524 0.523324 0.000000
0.897696 0.522795 0.000000
0.933584 0.522230 0.000000
0.963953 0.521679 0.000000
0.987272 0.521204 0.000000
1.000000 0.520890 0.000000
1.000000 0.520814 0.000000
0.000000 0.574321 0.000000
0.000000 0.574321 0.000000
0.000000 0.574320 0.000000
0.000000 0.574320 0.000000
0.000000 0.574320 0.000000
0.004384 0.574319 0.000000
0.019870 0.574317 0.000000
0.045079 0.574314 0.000000
0.074783 0.574310 0.000000
0.106132 0.574303 0.000000
0.139479 0.574294 0.000000
0.174939 0.574281 0.000000
0.212511 0.574264 0.000000
0.252129 0.574243 0.000000
0.293683 0.574217 0.000000
0.337026 0.574184 0.000000
0.381981 0.574145 0.000000
0.428339 0.574099 0.000000
0.475859 0.574047 0.000000
0.524268 0.573988 0.000000
0.573252 0.573922 0.000000
0.622525 0.573867 0.000000
0.671699 0.573770 0.000000
0.720328 0.573612 0.000000
0.767904 0.573375 0.000000
0.813834 0.573036 0.000000
0.857298 0.572636 0.000000
0.897460 0.572192 0.000000
0.933340 0.571717 0.000000
0.963702 0.571249 0.000000
0.987015 0.570846 0.000000
1.000000 0.570578 0.000000
1.000000 0.570514 0.000000
0.000000 0.623573 0.000000
0.000000 0.623573 0.000000
0.000000 0.623573 0.000000
0.000000 0.623573 0.000000
0.000000 0.623572 0.000000
0.000000 0.623571 0.000000
0.015454 0.623569 0.000000
0.040911 0.623566 0.000000
0.071944 0.623561 0.000000
0.104067 0.623554 0.000000
0.137919 0.623544 0.000000
0.173729 0.623531 0.000000
0.211556 0.623513 0.000000
0.251367 0.623490 0.000000
0.293071 0.623461 0.000000
0.336535 0.623426 0.000000
0.381587 0.623384 0.000000
0.428025 0.623335 0.000000
0.475613 0.623278 0.000000
0.524080 0.623214 0.000000
0.573114 0.623143 0.000000
0.622363 0.623065 0.000000
0.671509 0.623006 0.000000
0.720108 0.622898 0.000000
0.767652 0.622726 0.000000
0.813549 0.622469 0.000000
0.857044 0.622131 0.000000
0.897196 0.621761 0.000000
0.933066 0.621361 0.000000
0.963420 0.620965 0.000000
0.986726 0.620622 0.000000
1.000000 0.620394 0.000000
1.000000 0.620339 0.000000
0.000000 0.672683 0.000000
0.000000 0.672683 0.000000
0.000000 0.672683 0.000000
0.000000 0.672682 0.000000
0.000000 0.672682 0.000000
0.000000 0.672681 0.000000
0.009691 0.672679 0.000000
0.035176 0.672675 0.000000
0.068093 0.672670 0.000000
0.101306 0.672662 0.000000
0.135844 0.672652 0.000000
0.172123 0.672637 0.000000
0.210288 0.672618 0.000000
0.250352 0.672594 0.000000
0.292252 0.672563 0.000000
0.335870 0.672526 0.000000
0.381048 0.672480 0.000000
0.427590 0.672427 0.000000
0.475264 0.672366 0.000000
0.523804 0.672297 0.000000
0.572901 0.672220 0.000000
0.622206 0.672136 0.000000
0.671318 0.672046 0.000000
0.719881 0.671982 0.000000
0.767385 0.671868 0.000000
0.813242 0.671684 0.000000
0.856758 0.671413 0.000000
0.896905 0.671106 0.000000
0.932764 0.670771 0.000000
0.963108 0.670437 0.000000
0.986408 0.670146 0.000000
1.000000 0.669951 0.000000
1.000000 0.669904 0.000000
0.000000 0.721192 0.000000
0.000000 0.721192 0.000000
0.000000 0.721192 0.000000
0.000000 0.721191 0.000000
0.000000 0.721191 0.000000
0.000000 0.721189 0.000000
0.002289 0.721187 0.000000
0.027796 0.721184 0.000000
0.062880 0.721178 0.000000
0.097649 0.721170 0.000000
0.133122 0.721159 0.000000
0.170024 0.721143 0.000000
0.208632 0.721123 0.000000
0.249025 0.721097 0.000000
0.291176 0.721064 0.000000
0.334992 0.721024 0.000000
0.380330 0.720976 0.000000
0.427003 0.720919 0.000000
0.474787 0.720853 0.000000
0.523420 0.720778 0.000000
0.572596 0.720695 0.000000
0.621970 0.720604 0.000000
0.671142 0.720506 0.000000
0.719658 0.720403 0.000000
0.767116 0.720339 0.000000
0.812925 0.720220 0.000000
0.856391 0.720030 0.000000
0.896588 0.719774 0.000000
0.932436 0.719496 0.000000
0.962771 0.719215 0.000000
0.986063 0.718968 0.000000
1.000000 0.718802 0.000000
1.000000 0.718762 0.000000
0.000000 0.768576 0.000000
0.000000 0.768576 0.000000
0.000000 0.768576 0.000000
0.000000 0.768576 0.000000
0.000000 0.768575 0.000000
0.000000 0.768574 0.000000
0.000000 0.768572 0.000000
0.018455 0.768568 0.000000
0.055774 0.768562 0.000000
0.092828 0.768553 0.000000
0.129585 0.768541 0.000000
0.167315 0.768525 0.000000
0.206500 0.768503 0.000000
0.247315 0.768476 0.000000
0.289788 0.768441 0.000000
0.333856 0.768398 0.000000
0.379395 0.768347 0.000000
0.426232 0.768286 0.000000
0.474154 0.768215 0.000000
0.522902 0.768135 0.000000
0.572177 0.768045 0.000000
0.621636 0.767946 0.000000
0.670883 0.767840 0.000000
0.719464 0.767727 0.000000
0.766858 0.767611 0.000000
0.812616 0.767552 0.000000
0.856033 0.767433 0.000000
0.896252 0.767244 0.000000
0.932087 0.767014 0.000000
0.962412 0.766779 0.000000
0.985696 0.766571 0.000000
0.999994 0.766430 0.000000
1.000000 0.766396 0.000000
0.000000 0.814233 0.000000
0.000000 0.814233 0.000000
0.000000 0.814233 0.000000
0.000000 0.814232 0.000000
0.000000 0.814232 0.000000
0.000000 0.814230 0.000000
0.000000 0.814228 0.000000
0.006818 0.814224 0.000000
0.045909 0.814218 0.000000
0.086489 0.814209 0.000000
0.125031 0.814196 0.000000
0.163862 0.814178 0.000000
0.203794 0.814156 0.000000
0.245148 0.814126 0.000000
0.288027 0.814089 0.000000
0.332410 0.814044 0.000000
0.378200 0.813989 0.000000
0.425243 0.813924 0.000000
0.473333 0.813848 0.000000
0.522224 0.813762 0.000000
0.571621 0.813666 0.000000
0.621185 0.813559 0.000000
0.670523 0.813444 0.000000
0.719182 0.813328 0.000000
0.766653 0.813213 0.000000
0.812341 0.813089 0.000000
0.855696 0.813025 0.000000
0.895853 0.812901 0.000000
0.931724 0.812722 0.000000
0.962038 0.812528 0.000000
0.985313 0.812353 0.000000
0.999606 0.812234 0.000000
1.000000 0.812205 0.000000
0.000000 0.857455 0.000000
0.000000 0.857455 0.000000
0.000000 0.857455 0.000000
0.000000 0.857455 0.000000
0.000000 0.857454 0.000000
0.000000 0.857453 0.000000
0.000000 0.857450 0.000000
0.000000 0.857446 0.000000
0.032080 0.857439 0.000000
0.078168 0.857430 0.000000
0.119241 0.857416 0.000000
0.159532 0.857398 0.000000
0.200424 0.857374 0.000000
0.242459 0.857343 0.000000
0.285843 0.857303 0.000000
0.330615 0.857255 0.000000
0.376713 0.857197 0.000000
0.424004 0.857128 0.000000
0.472300 0.857047 0.000000
0.521363 0.856955 0.000000
0.570907 0.856852 0.000000
0.620575 0.856753 0.000000
0.670013 0.856643 0.000000
0.718774 0.856523 0.000000
