app/src/main/assets/luts/travel_summer_pop.cube
# V-Cam procedural LUT — travel_summer_pop
# Generated by LutBaker. Do not edit by hand.
TITLE "V-Cam travel_summer_pop"
LUT_3D_SIZE 9
DOMAIN_MIN 0.0 0.0 0.0
DOMAIN_MAX 1.0 1.0 1.0
0.010783 0.000000 0.000000
0.172380 0.000000 0.000000
0.333977 0.000000 0.000000
0.495574 0.000000 0.000000
0.657171 0.000000 0.000000
0.818768 0.000000 0.000000
0.980364 0.000000 0.000000
1.000000 0.000000 0.000000
1.000000 0.000000 0.000000
0.000000 0.121230 0.000000
0.152202 0.110952 0.000000
0.313799 0.100674 0.000000
0.475396 0.090396 0.000000
0.636993 0.080118 0.000000
0.798589 0.069839 0.000000
0.960186 0.059561 0.000000
1.000000 0.049283 0.000000
1.000000 0.039005 0.000000
0.000000 0.272927 0.000000
0.132024 0.262649 0.000000
0.293621 0.252371 0.000000
0.455218 0.242093 0.000000
0.616814 0.231815 0.000000
0.778411 0.221536 0.000000
0.940008 0.211258 0.000000
1.000000 0.200980 0.000000
1.000000 0.190702 0.000000
0.000000 0.424624 0.000000
0.111846 0.414346 0.000000
0.273443 0.404068 0.000000
0.435040 0.393790 0.000000
0.596636 0.383511 0.000000
0.758233 0.373233 0.000000
0.919830 0.362955 0.000000
1.000000 0.352677 0.000000
1.000000 0.342399 0.000000
0.000000 0.576321 0.000000
0.091668 0.566043 0.000000
0.253265 0.555764 0.000000
0.414861 0.545486 0.000000
0.576458 0.535208 0.000000
0.738055 0.524930 0.000000
0.899652 0.514652 0.000000
1.000000 0.504374 0.000000
1.000000 0.494096 0.000000
0.000000 0.728018 0.000000
0.071490 0.717739 0.000000
0.233086 0.707461 0.000000
0.394683 0.697183 0.000000
0.556280 0.686905 0.000000
0.717877 0.676627 0.000000
0.879474 0.666349 0.000000
1.000000 0.656071 0.000000
1.000000 0.645793 0.000000
0.000000 0.879714 0.000000
0.051311 0.869436 0.000000
0.212908 0.859158 0.000000
0.374505 0.848880 0.000000
0.536102 0.838602 0.000000
0.697699 0.828324 0.000000
0.859296 0.818046 0.000000
1.000000 0.807768 0.000000
1.000000 0.797490 0.000000
0.000000 1.000000 0.000000
0.031133 1.000000 0.000000
0.192730 1.000000 0.000000
0.354327 1.000000 0.000000
0.515924 0.990299 0.000000
0.677521 0.980021 0.000000
0.839118 0.969743 0.000000
1.000000 0.959464 0.000000
1.000000 0.949186 0.000000
0.000000 1.000000 0.000000
0.010955 1.000000 0.000000
0.172552 1.000000 0.000000
0.334149 1.000000 0.000000
0.495746 1.000000 0.000000
0.657343 1.000000 0.000000
0.818939 1.000000 0.000000
0.980536 1.000000 0.000000
1.000000 1.000000 0.000000
0.007805 0.000000 0.097180
0.169402 0.000000 0.086902
0.330999 0.000000 0.076624
0.492596 0.000000 0.066346
0.654192 0.000000 0.056068
0.815789 0.000000 0.045789
0.977386 0.000000 0.035511
1.000000 0.000000 0.025233
1.000000 0.000000 0.014955
0.000000 0.118252 0.077002
0.149224 0.107974 0.066724
0.310821 0.097696 0.056446
0.472418 0.087417 0.046168
0.634014 0.077139 0.035889
0.795611 0.066861 0.025611
0.957208 0.056583 0.015333
1.000000 0.046305 0.005055
1.000000 0.036027 0.000000
0.000000 0.269949 0.056824
0.129046 0.259671 0.046546
0.290642 0.249393 0.036267
0.452239 0.239114 0.025989
0.613836 0.228836 0.015711
0.775433 0.218558 0.005433
0.937030 0.208280 0.000000
1.000000 0.198002 0.000000
1.000000 0.187724 0.000000
0.000000 0.421646 0.036646
0.108868 0.411368 0.026367
0.270464 0.401089 0.016089
0.432061 0.390811 0.005811
0.593658 0.380533 0.000000
0.755255 0.370255 0.000000
0.916852 0.359977 0.000000
1.000000 0.349699 0.000000
1.000000 0.339421 0.000000
0.000000 0.573342 0.016468
0.088689 0.563064 0.006189
0.250286 0.552786 0.000000
0.411883 0.542508 0.000000
0.573480 0.532230 0.000000
0.735077 0.521952 0.000000
0.896674 0.511674 0.000000
1.000000 0.501396 0.000000
1.000000 0.491117 0.000000
0.000000 0.725039 0.000000
0.068511 0.714761 0.000000
0.230108 0.704483 0.000000
0.391705 0.694205 0.000000
0.553302 0.683927 0.000000
0.714899 0.673649 0.000000
0.876496 0.663371 0.000000
1.000000 0.653093 0.000000
1.000000 0.642814 0.000000
0.000000 0.876736 0.000000
0.048333 0.866458 0.000000
0.209930 0.856180 0.000000
0.371527 0.845902 0.000000
0.533124 0.835624 0.000000
0.694721 0.825346 0.000000
0.856317 0.815068 0.000000
1.000000 0.804789 0.000000
1.000000 0.794511 0.000000
0.000000 1.000000 0.000000
0.028155 1.000000 0.000000
0.189752 1.000000 0.000000
0.351349 0.997599 0.000000
0.512946 0.987321 0.000000
0.674542 0.977042 0.000000
0.836139 0.966764 0.000000
0.997736 0.956486 0.000000
1.000000 0.946208 0.000000
0.000000 1.000000 0.000000
0.007977 1.000000 0.000000
0.169574 1.000000 0.000000
0.331171 1.000000 0.000000
0.492767 1.000000 0.000000
0.654364 1.000000 0.000000
0.815961 1.000000 0.000000
0.977558 1.000000 0.000000
1.000000 1.000000 0.000000
0.003886 0.000000 0.265136
0.165483 0.000000 0.254858
0.327080 0.000000 0.244580
0.488677 0.000000 0.234302
0.650274 0.000000 0.224024
0.811871 0.000000 0.213746
0.973467 0.000000 0.203468
1.000000 0.000000 0.193189
1.000000 0.000000 0.182911
0.000000 0.114333 0.244958
0.145305 0.104055 0.234680
0.306902 0.093777 0.224402
0.468499 0.083499 0.214124
0.630096 0.073221 0.203846
0.791692 0.062942 0.193568
0.953289 0.052664 0.183289
1.000000 0.042386 0.173011
1.000000 0.032108 0.162733
0.000000 0.266030 0.224780
0.125127 0.255752 0.214502
0.286724 0.245474 0.204224
0.448321 0.235196 0.193946
0.609917 0.224918 0.183668
0.771514 0.214639 0.173389
0.933111 0.204361 0.163111
1.000000 0.194083 0.152833
1.000000 0.183805 0.142555
0.000000 0.417727 0.204602
0.104949 0.407449 0.194324
0.266546 0.397171 0.184046
0.428143 0.386893 0.173768
0.589739 0.376614 0.163489
0.751336 0.366336 0.153211
0.912933 0.356058 0.142933
1.000000 0.345780 0.132655
1.000000 0.335502 0.122377
0.000000 0.569424 0.184424
0.084771 0.559146 0.174146
0.246368 0.548867 0.163868
0.407964 0.538589 0.153589
0.569561 0.528311 0.143311
0.731158 0.518033 0.133033
0.892755 0.507755 0.122755
1.000000 0.497477 0.112477
1.000000 0.487199 0.102199
0.000000 0.721121 0.164246
0.064593 0.710842 0.153968
0.226189 0.700564 0.143689
0.387786 0.690286 0.133411
0.549383 0.680008 0.123133
0.710980 0.669730 0.112855
0.872577 0.659452 0.102577
1.000000 0.649174 0.092299
1.000000 0.638896 0.082021
0.000000 0.872818 0.144068
0.044414 0.862539 0.133789
0.206011 0.852261 0.123511
0.367608 0.841983 0.113233
0.529205 0.831705 0.102955
0.690802 0.821427 0.092677
0.852399 0.811149 0.082399
1.000000 0.800871 0.072121
1.000000 0.790592 0.061843
0.000000 1.000000 0.123889
0.024236 1.000000 0.113611
0.185833 1.000000 0.103333
0.347430 0.993680 0.093055
0.509027 0.983402 0.082777
0.670624 0.973124 0.072499
0.832221 0.962846 0.062221
0.993817 0.952567 0.051943
1.000000 0.942289 0.041664
0.000000 1.000000 0.103711
0.004058 1.000000 0.093433
0.165655 1.000000 0.083155
0.327252 1.000000 0.072877
0.488849 1.000000 0.062599
0.650446 1.000000 0.052321
0.812042 1.000000 0.042043
0.973639 1.000000 0.031764
1.000000 1.000000 0.021486
0.000000 0.000000 0.433093
0.161564 0.000000 0.422814
0.323161 0.000000 0.412536
0.484758 0.000000 0.402258
0.646355 0.000000 0.391980
0.807952 0.000000 0.381702
0.969549 0.000000 0.371424
1.000000 0.000000 0.361146
1.000000 0.000000 0.350868
0.000000 0.110414 0.412914
0.141386 0.100136 0.402636
0.302983 0.089858 0.392358
0.464580 0.079580 0.382080
0.626177 0.069302 0.371802
0.787774 0.059024 0.361524
0.949371 0.048746 0.351246
1.000000 0.038467 0.340968
1.000000 0.028189 0.330689
0.000000 0.262111 0.392736
0.121208 0.251833 0.382458
0.282805 0.241555 0.372180
0.444402 0.231277 0.361902
0.605999 0.220999 0.351624
0.767596 0.210721 0.341346
0.929192 0.200443 0.331068
1.000000 0.190164 0.320789
1.000000 0.179886 0.310511
0.000000 0.413808 0.372558
0.101030 0.403530 0.362280
0.262627 0.393252 0.352002
0.424224 0.382974 0.341724
0.585821 0.372696 0.331446
0.747417 0.362418 0.321167
0.909014 0.352139 0.310889
1.000000 0.341861 0.300611
1.000000 0.331583 0.290333
0.000000 0.565505 0.352380
0.080852 0.555227 0.342102
0.242449 0.544949 0.331824
0.404046 0.534671 0.321546
0.565642 0.524392 0.311268
0.727239 0.514114 0.300989
0.888836 0.503836 0.290711
1.000000 0.493558 0.280433
1.000000 0.483280 0.270155
0.000000 0.717202 0.332202
0.060674 0.706924 0.321924
0.222271 0.696646 0.311646
0.383868 0.686368 0.301367
0.545464 0.676089 0.291089
0.707061 0.665811 0.280811
0.868658 0.655533 0.270533
1.000000 0.645255 0.260255
1.000000 0.634977 0.249977
0.000000 0.868899 0.312024
0.040496 0.858621 0.301746
0.202092 0.848342 0.291468
0.363689 0.838064 0.281189
0.525286 0.827786 0.270911
0.686883 0.817508 0.260633
0.848480 0.807230 0.250355
1.000000 0.796952 0.240077
1.000000 0.786674 0.229799
0.000000 1.000000 0.291846
0.020317 1.000000 0.281568
0.181914 1.000000 0.271289
0.343511 0.989761 0.261011
0.505108 0.979483 0.250733
0.666705 0.969205 0.240455
0.828302 0.958927 0.230177
0.989899 0.948649 0.219899
1.000000 0.938371 0.209621
0.000000 1.000000 0.271667
0.000139 1.000000 0.261389
0.161736 1.000000 0.251111
0.323333 1.000000 0.240833
0.484930 1.000000 0.230555
0.646527 1.000000 0.220277
0.808124 1.000000 0.209999
0.969721 1.000000 0.199721
1.000000 1.000000 0.189443
0.000000 0.000000 0.601049
0.157646 0.000000 0.590771
0.319243 0.000000 0.580492
0.480839 0.000000 0.570214
0.642436 0.000000 0.559936
0.804033 0.000000 0.549658
0.965630 0.000000 0.539380
1.000000 0.000000 0.529102
1.000000 0.000000 0.518824
0.000000 0.106496 0.580871
0.137468 0.096217 0.570593
0.299064 0.085939 0.560314
0.460661 0.075661 0.550036
0.622258 0.065383 0.539758
0.783855 0.055105 0.529480
0.945452 0.044827 0.519202
1.000000 0.034549 0.508924
1.000000 0.024271 0.498646
0.000000 0.258193 0.560692
0.117289 0.247914 0.550414
0.278886 0.237636 0.540136
0.440483 0.227358 0.529858
0.602080 0.217080 0.519580
0.763677 0.206802 0.509302
0.925274 0.196524 0.499024
1.000000 0.186246 0.488746
1.000000 0.175968 0.478468
0.000000 0.409889 0.540514
0.097111 0.399611 0.530236
0.258708 0.389333 0.519958
0.420305 0.379055 0.509680
0.581902 0.368777 0.499402
0.743499 0.358499 0.489124
0.905096 0.348221 0.478846
1.000000 0.337943 0.468568
1.000000 0.327664 0.458289
0.000000 0.561586 0.520336
0.076933 0.551308 0.510058
0.238530 0.541030 0.499780
0.400127 0.530752 0.489502
0.561724 0.520474 0.479224
0.723321 0.510196 0.468946
0.884917 0.499917 0.458668
1.000000 0.489639 0.448389
1.000000 0.479361 0.438111
0.000000 0.713283 0.500158
0.056755 0.703005 0.489880
0.218352 0.692727 0.479602
0.379949 0.682449 0.469324
0.541546 0.672171 0.459046
0.703142 0.661893 0.448768
0.864739 0.651614 0.438489
1.000000 0.641336 0.428211
1.000000 0.631058 0.417933
0.000000 0.864980 0.479980
0.036577 0.854702 0.469702
0.198174 0.844424 0.459424
0.359771 0.834146 0.449146
0.521367 0.823867 0.438868
0.682964 0.813589 0.428589
0.844561 0.803311 0.418311
1.000000 0.793033 0.408033
1.000000 0.782755 0.397755
0.000000 1.000000 0.459802
0.016399 1.000000 0.449524
0.177996 0.996121 0.439246
0.339593 0.985842 0.428968
0.501189 0.975564 0.418689
0.662786 0.965286 0.408411
0.824383 0.955008 0.398133
0.985980 0.944730 0.387855
1.000000 0.934452 0.377577
0.000000 1.000000 0.439624
0.000000 1.000000 0.429346
0.157817 1.000000 0.419068
0.319414 1.000000 0.408789
0.481011 1.000000 0.398511
0.642608 1.000000 0.388233
0.804205 1.000000 0.377955
0.965802 1.000000 0.367677
1.000000 1.000000 0.357399
0.000000 0.000000 0.769005
0.153727 0.000000 0.758727
0.315324 0.000000 0.748449
0.476921 0.000000 0.738171
0.638517 0.000000 0.727893
0.800114 0.000000 0.717614
0.961711 0.000000 0.707336
1.000000 0.000000 0.697058
1.000000 0.000000 0.686780
0.000000 0.102577 0.748827
0.133549 0.092299 0.738549
0.295146 0.082021 0.728271
0.456743 0.071742 0.717993
0.618339 0.061464 0.707714
0.779936 0.051186 0.697436
0.941533 0.040908 0.687158
1.000000 0.030630 0.676880
1.000000 0.020352 0.666602
0.000000 0.254274 0.728649
0.113371 0.243996 0.718371
0.274967 0.233718 0.708093
0.436564 0.223439 0.697814
0.598161 0.213161 0.687536
0.759758 0.202883 0.677258
0.921355 0.192605 0.666980
1.000000 0.182327 0.656702
1.000000 0.172049 0.646424
0.000000 0.405971 0.708471
0.093193 0.395693 0.698192
0.254789 0.385414 0.687914
0.416386 0.375136 0.677636
0.577983 0.364858 0.667358
0.739580 0.354580 0.657080
0.901177 0.344302 0.646802
1.000000 0.334024 0.636524
1.000000 0.323746 0.626246
0.000000 0.557667 0.688293
0.073014 0.547389 0.678014
0.234611 0.537111 0.667736
0.396208 0.526833 0.657458
0.557805 0.516555 0.647180
0.719402 0.506277 0.636902
0.880999 0.495999 0.626624
1.000000 0.485721 0.616346
1.000000 0.475442 0.606068
0.000000 0.709364 0.668114
0.052836 0.699086 0.657836
0.214433 0.688808 0.647558
0.376030 0.678530 0.637280
0.537627 0.668252 0.627002
0.699224 0.657974 0.616724
0.860821 0.647696 0.606446
1.000000 0.637417 0.596168
1.000000 0.627139 0.585889
0.000000 0.861061 0.647936
0.032658 0.850783 0.637658
0.194255 0.840505 0.627380
0.355852 0.830227 0.617102
0.517449 0.819949 0.606824
0.679046 0.809671 0.596546
0.840642 0.799392 0.586268
1.000000 0.789114 0.575989
1.000000 0.778836 0.565711
0.000000 1.000000 0.627758
0.012480 1.000000 0.617480
0.174077 0.992202 0.607202
0.335674 0.981924 0.596924
0.497271 0.971646 0.586646
0.658867 0.961367 0.576367
0.820464 0.951089 0.566089
0.982061 0.940811 0.555811
1.000000 0.930533 0.545533
0.000000 1.000000 0.607580
0.000000 1.000000 0.597302
0.153899 1.000000 0.587024
0.315496 1.000000 0.576746
0.477092 1.000000 0.566468
0.638689 1.000000 0.556189
0.800286 1.000000 0.545911
0.961883 1.000000 0.535633
1.000000 1.000000 0.525355
0.000000 0.000000 0.936961
0.149808 0.000000 0.926683
0.311405 0.000000 0.916405
0.473002 0.000000 0.906127
0.634599 0.000000 0.895849
0.796196 0.000000 0.885571
0.957792 0.000000 0.875293
1.000000 0.000000 0.865014
1.000000 0.000000 0.854736
0.000000 0.098658 0.916783
0.129630 0.088380 0.906505
0.291227 0.078102 0.896227
0.452824 0.067824 0.885949
0.614421 0.057546 0.875671
0.776017 0.047267 0.865393
0.937614 0.036989 0.855114
1.000000 0.026711 0.844836
1.000000 0.016433 0.834558
0.000000 0.250355 0.896605
0.109452 0.240077 0.886327
0.271049 0.229799 0.876049
0.432646 0.219521 0.865771
0.594242 0.209243 0.855493
0.755839 0.198964 0.845214
0.917436 0.188686 0.834936
1.000000 0.178408 0.824658
1.000000 0.168130 0.814380
0.000000 0.402052 0.876427
0.089274 0.391774 0.866149
0.250871 0.381496 0.855871
0.412468 0.371218 0.845593
0.574064 0.360939 0.835314
0.735661 0.350661 0.825036
0.897258 0.340383 0.814758
1.000000 0.330105 0.804480
1.000000 0.319827 0.794202
0.000000 0.553749 0.856249
0.069096 0.543471 0.845971
0.230693 0.533192 0.835693
0.392289 0.522914 0.825414
0.553886 0.512636 0.815136
0.715483 0.502358 0.804858
0.877080 0.492080 0.794580
1.000000 0.481802 0.784302
1.000000 0.471524 0.774024
0.000000 0.705446 0.836071
0.048918 0.695167 0.825793
0.210514 0.684889 0.815514
0.372111 0.674611 0.805236
0.533708 0.664333 0.794958
0.695305 0.654055 0.784680
0.856902 0.643777 0.774402
1.000000 0.633499 0.764124
1.000000 0.623221 0.753846
0.000000 0.857143 0.815893
0.028739 0.846864 0.805614
0.190336 0.836586 0.795336
0.351933 0.826308 0.785058
0.513530 0.816030 0.774780
0.675127 0.805752 0.764502
0.836724 0.795474 0.754224
0.998321 0.785196 0.743946
1.000000 0.774917 0.733668
0.000000 1.000000 0.795714
0.008561 0.998561 0.785436
0.170158 0.988283 0.775158
0.331755 0.978005 0.764880
0.493352 0.967727 0.754602
0.654949 0.957449 0.744324
0.816546 0.947171 0.734046
0.978142 0.936893 0.723768
1.000000 0.926614 0.713489
0.000000 1.000000 0.775536
0.000000 1.000000 0.765258
0.149980 1.000000 0.754980
0.311577 1.000000 0.744702
0.473174 1.000000 0.734424
0.634771 1.000000 0.724146
0.796367 1.000000 0.713868
0.957964 1.000000 0.703589
1.000000 1.000000 0.693311
0.000000 0.000000 1.000000
0.145889 0.000000 1.000000
0.307486 0.000000 1.000000
0.469083 0.000000 1.000000
0.630680 0.000000 1.000000
0.792277 0.000000 1.000000
0.953874 0.000000 1.000000
1.000000 0.000000 1.000000
1.000000 0.000000 1.000000
0.000000 0.094739 1.000000
0.125711 0.084461 1.000000
0.287308 0.074183 1.000000
0.448905 0.063905 1.000000
0.610502 0.053627 1.000000
0.772099 0.043349 1.000000
0.933696 0.033071 1.000000
1.000000 0.022792 1.000000
1.000000 0.012514 1.000000
0.000000 0.246436 1.000000
0.105533 0.236158 1.000000
0.267130 0.225880 1.000000
0.428727 0.215602 1.000000
0.590324 0.205324 1.000000
0.751921 0.195046 1.000000
0.913517 0.184768 1.000000
1.000000 0.174489 0.992614
1.000000 0.164211 0.982336
0.000000 0.398133 1.000000
0.085355 0.387855 1.000000
0.246952 0.377577 1.000000
0.408549 0.367299 1.000000
0.570146 0.357021 1.000000
0.731742 0.346743 0.992993
0.893339 0.336464 0.982714
1.000000 0.326186 0.972436
1.000000 0.315908 0.962158
0.000000 0.549830 1.000000
0.065177 0.539552 1.000000
0.226774 0.529274 1.000000
0.388371 0.518996 0.993371
0.549967 0.508717 0.983092
0.711564 0.498439 0.972814
0.873161 0.488161 0.962536
1.000000 0.477883 0.952258
1.000000 0.467605 0.941980
0.000000 0.701527 1.000000
0.044999 0.691249 0.993749
0.206596 0.680971 0.983471
0.368193 0.670693 0.973192
0.529789 0.660414 0.962914
0.691386 0.650136 0.952636
0.852983 0.639858 0.942358
1.000000 0.629580 0.932080
1.000000 0.619302 0.921802
0.000000 0.853224 0.983849
0.024821 0.842946 0.973571
0.186418 0.832667 0.963292
0.348014 0.822389 0.953014
0.509611 0.812111 0.942736
0.671208 0.801833 0.932458
0.832805 0.791555 0.922180
0.994402 0.781277 0.911902
1.000000 0.770999 0.901624
0.000000 1.000000 0.963671
0.004642 0.994642 0.953393
0.166239 0.984364 0.943114
0.327836 0.974086 0.932836
0.489433 0.963808 0.922558
0.651030 0.953530 0.912280
0.812627 0.943252 0.902002
0.974224 0.932974 0.891724
1.000000 0.922696 0.881446
0.000000 1.000000 0.943492
0.000000 1.000000 0.933214
0.146061 1.000000 0.922936
0.307658 1.000000 0.912658
0.469255 1.000000 0.902380
0.630852 1.000000 0.892102
0.792449 1.000000 0.881824
0.954046 1.000000 0.871546
1.000000 1.000000 0.861267
0.000000 0.000000 1.000000
0.141971 0.000000 1.000000
0.303567 0.000000 1.000000
0.465164 0.000000 1.000000
0.626761 0.000000 1.000000
0.788358 0.000000 1.000000
0.949955 0.000000 1.000000
1.000000 0.000000 1.000000
1.000000 0.000000 1.000000
0.000000 0.090821 1.000000
0.121793 0.080542 1.000000
0.283389 0.070264 1.000000
0.444986 0.059986 1.000000
0.606583 0.049708 1.000000
0.768180 0.039430 1.000000
0.929777 0.029152 1.000000
1.000000 0.018874 1.000000
1.000000 0.008596 1.000000
0.000000 0.242518 1.000000
0.101614 0.232239 1.000000
0.263211 0.221961 1.000000
0.424808 0.211683 1.000000
0.586405 0.201405 1.000000
0.748002 0.191127 1.000000
0.909599 0.180849 1.000000
1.000000 0.170571 1.000000
1.000000 0.160293 1.000000
0.000000 0.394214 1.000000
0.081436 0.383936 1.000000
0.243033 0.373658 1.000000
0.404630 0.363380 1.000000
0.566227 0.353102 1.000000
0.727824 0.342824 1.000000
0.889421 0.332546 1.000000
1.000000 0.322268 1.000000
1.000000 0.311989 1.000000
0.000000 0.545911 1.000000
0.061258 0.535633 1.000000
0.222855 0.525355 1.000000
0.384452 0.515077 1.000000
0.546049 0.504799 1.000000
0.707646 0.494521 1.000000
0.869242 0.484242 1.000000
1.000000 0.473964 1.000000
1.000000 0.463686 1.000000
0.000000 0.697608 1.000000
0.041080 0.687330 1.000000
0.202677 0.677052 1.000000
0.364274 0.666774 1.000000
0.525871 0.656496 1.000000
0.687467 0.646218 1.000000
0.849064 0.635939 1.000000
1.000000 0.625661 1.000000
1.000000 0.615383 1.000000
0.000000 0.849305 1.000000
0.020902 0.839027 1.000000
0.182499 0.828749 1.000000
0.344096 0.818471 1.000000
0.505692 0.808192 1.000000
0.667289 0.797914 1.000000
0.828886 0.787636 1.000000
0.990483 0.777358 1.000000
1.000000 0.767080 1.000000
0.000000 1.000000 1.000000
0.000724 0.990724 1.000000
0.162321 0.980446 1.000000
0.323918 0.970167 1.000000
0.485514 0.959889 1.000000
0.647111 0.949611 1.000000
0.808708 0.939333 1.000000
0.970305 0.929055 1.000000
1.000000 0.918777 1.000000
0.000000 1.000000 1.000000
0.000000 1.000000 1.000000
0.142142 1.000000 1.000000
0.303739 1.000000 1.000000
0.465336 1.000000 1.000000
0.626933 1.000000 1.000000
0.788530 1.000000 1.000000
0.950127 1.000000 1.000000
1.000000 1.000000 1.000000
