app/src/main/assets/luts/travel_beach_bright.cube
# V-Cam procedural LUT — travel_beach_bright
# Generated by LutBaker. Do not edit by hand.
TITLE "V-Cam travel_beach_bright"
LUT_3D_SIZE 33
DOMAIN_MIN 0.0 0.0 0.0
DOMAIN_MAX 1.0 1.0 1.0
0.057926 0.059326 0.059787
0.063637 0.059326 0.059787
0.070022 0.059325 0.059787
0.079045 0.059325 0.059786
0.090937 0.059322 0.059784
0.105769 0.059317 0.059778
0.123560 0.059306 0.059767
0.144283 0.059283 0.059745
0.167885 0.059240 0.059703
0.194286 0.059162 0.059625
0.223388 0.059025 0.059489
0.255079 0.058792 0.059258
0.289230 0.058408 0.058876
0.325698 0.057792 0.058265
0.364322 0.056831 0.057310
0.404924 0.055360 0.055850
0.447308 0.053150 0.053655
0.491252 0.049863 0.050391
0.536513 0.044983 0.045549
0.582816 0.037659 0.038278
0.629857 0.027413 0.028034
0.677294 0.013726 0.014351
0.724739 0.000000 0.000000
0.771607 0.000000 0.000000
0.817228 0.000000 0.000000
0.861008 0.000000 0.000000
0.902121 0.000000 0.000000
0.939579 0.000000 0.000000
0.972178 0.000000 0.000000
0.998436 0.000000 0.000000
1.000000 0.000000 0.000000
1.000000 0.000000 0.000000
1.000000 0.000000 0.000000
0.057926 0.065090 0.059787
0.063637 0.065090 0.059787
0.070022 0.065090 0.059786
0.079045 0.065089 0.059785
0.090936 0.065087 0.059783
0.105768 0.065083 0.059777
0.123558 0.065073 0.059765
0.144282 0.065053 0.059742
0.167883 0.065014 0.059698
0.194283 0.064942 0.059618
0.223385 0.064816 0.059480
0.255076 0.064601 0.059245
0.289226 0.064246 0.058860
0.325693 0.063676 0.058244
0.364316 0.062786 0.057283
0.404918 0.061426 0.055816
0.447301 0.059385 0.053612
0.491245 0.056363 0.050337
0.536505 0.051908 0.045479
0.582808 0.045297 0.038187
0.629848 0.035326 0.027926
0.677284 0.021657 0.014222
0.724728 0.003661 0.000000
0.771596 0.000000 0.000000
0.817218 0.000000 0.000000
0.860996 0.000000 0.000000
0.902109 0.000000 0.000000
0.939566 0.000000 0.000000
0.972165 0.000000 0.000000
0.998423 0.000000 0.000000
1.000000 0.000000 0.000000
1.000000 0.000000 0.000000
1.000000 0.000000 0.000000
0.057925 0.071535 0.059786
0.063636 0.071535 0.059786
0.070021 0.071535 0.059786
0.079044 0.071534 0.059785
0.090935 0.071533 0.059781
0.105767 0.071529 0.059775
0.123557 0.071521 0.059762
0.144279 0.071503 0.059737
0.167880 0.071468 0.059691
0.194280 0.071403 0.059610
0.223382 0.071288 0.059468
0.255072 0.071090 0.059230
0.289222 0.070763 0.058840
0.325688 0.070239 0.058218
0.364310 0.069418 0.057250
0.404912 0.068166 0.055774
0.447294 0.066290 0.053558
0.491237 0.063521 0.050269
0.536496 0.059466 0.045392
0.582798 0.053513 0.038073
0.629838 0.044618 0.027790
0.677273 0.031171 0.014060
0.724716 0.013197 0.000000
0.771585 0.000000 0.000000
0.817206 0.000000 0.000000
0.860984 0.000000 0.000000
0.902096 0.000000 0.000000
0.939553 0.000000 0.000000
0.972151 0.000000 0.000000
0.998409 0.000000 0.000000
1.000000 0.000000 0.000000
1.000000 0.000000 0.000000
1.000000 0.000000 0.000000
0.057923 0.080643 0.059784
0.063635 0.080643 0.059784
0.070020 0.080642 0.059784
0.079043 0.080642 0.059783
0.090933 0.080641 0.059779
0.105765 0.080638 0.059772
0.123554 0.080631 0.059757
0.144276 0.080616 0.059730
0.167876 0.080586 0.059682
0.194275 0.080529 0.059597
0.223376 0.080428 0.059450
0.255065 0.080252 0.059206
0.289215 0.079960 0.058808
0.325680 0.079491 0.058178
0.364301 0.078756 0.057198
0.404902 0.077633 0.055708
0.447283 0.075955 0.053476
0.491225 0.073487 0.050165
0.536483 0.069895 0.045258
0.582783 0.064682 0.037898
0.629822 0.057049 0.027581
0.677256 0.045536 0.013812
0.724698 0.027878 0.000000
0.771568 0.005831 0.000000
0.817187 0.000000 0.000000
0.860965 0.000000 0.000000
0.902076 0.000000 0.000000
0.939532 0.000000 0.000000
0.972130 0.000000 0.000000
0.998387 0.000000 0.000000
1.000000 0.000000 0.000000
1.000000 0.000000 0.000000
1.000000 0.000000 0.000000
0.057918 0.092646 0.059779
0.063631 0.092646 0.059779
0.070017 0.092645 0.059778
0.079041 0.092644 0.059777
0.090931 0.092643 0.059776
0.105762 0.092642 0.059767
0.123550 0.092637 0.059750
0.144272 0.092625 0.059720
0.167871 0.092600 0.059668
0.194269 0.092553 0.059577
0.223368 0.092466 0.059424
0.255056 0.092315 0.059171
0.289204 0.092062 0.058763
0.325668 0.091652 0.058118
0.364288 0.091010 0.057123
0.404887 0.090029 0.055613
0.447266 0.088564 0.053355
0.491206 0.086415 0.050011
0.536463 0.083305 0.045061
0.582762 0.078838 0.037641
0.629798 0.072410 0.027275
0.677230 0.063026 0.013447
0.724671 0.048775 0.000000
0.771542 0.027420 0.000000
0.817161 0.002093 0.000000
0.860936 0.000000 0.000000
0.902047 0.000000 0.000000
0.939502 0.000000 0.000000
0.972099 0.000000 0.000000
0.998355 0.000000 0.000000
1.000000 0.000000 0.000000
1.000000 0.000000 0.000000
1.000000 0.000000 0.000000
0.057906 0.107618 0.059768
0.063621 0.107617 0.059768
0.070008 0.107617 0.059767
0.079034 0.107616 0.059765
0.090927 0.107614 0.059763
0.105758 0.107612 0.059760
0.123545 0.107609 0.059741
0.144265 0.107601 0.059706
0.167863 0.107582 0.059648
0.194259 0.107544 0.059550
0.223357 0.107472 0.059387
0.255043 0.107346 0.059121
0.289189 0.107132 0.058698
0.325651 0.106784 0.058035
0.364269 0.106235 0.057016
0.404866 0.105395 0.055478
0.447243 0.104140 0.053185
0.491181 0.102303 0.049795
0.536434 0.099656 0.044781
0.582731 0.095883 0.037278
0.629765 0.090527 0.026842
0.677195 0.082891 0.012932
0.724633 0.071808 0.000000
0.771506 0.055918 0.000000
0.817123 0.032748 0.000000
0.860897 0.003591 0.000000
0.902005 0.000000 0.000000
0.939459 0.000000 0.000000
0.972055 0.000000 0.000000
0.998310 0.000000 0.000000
1.000000 0.000000 0.000000
1.000000 0.000000 0.000000
1.000000 0.000000 0.000000
0.057882 0.125575 0.059745
0.063599 0.125574 0.059744
0.069989 0.125573 0.059743
0.079018 0.125572 0.059740
0.090915 0.125570 0.059737
0.105750 0.125567 0.059732
0.123538 0.125563 0.059725
0.144256 0.125558 0.059687
0.167852 0.125545 0.059620
0.194246 0.125516 0.059512
0.223342 0.125460 0.059335
0.255026 0.125357 0.059053
0.289169 0.125181 0.058609
0.325628 0.124891 0.057920
0.364244 0.124431 0.056869
0.404837 0.123724 0.055291
0.447211 0.122665 0.052949
0.491145 0.121115 0.049495
0.536396 0.118888 0.044394
0.582689 0.115731 0.036779
0.629719 0.111292 0.026246
0.677145 0.105066 0.012222
0.724580 0.096284 0.000000
0.771456 0.084315 0.000000
0.817070 0.068512 0.000000
0.860841 0.045730 0.000000
0.901948 0.013806 0.000000
0.939400 0.000000 0.000000
0.971993 0.000000 0.000000
0.998247 0.000000 0.000000
1.000000 0.000000 0.000000
1.000000 0.000000 0.000000
1.000000 0.000000 0.000000
0.057834 0.146491 0.059698
0.063556 0.146490 0.059698
0.069951 0.146488 0.059695
0.078985 0.146487 0.059692
0.090888 0.146484 0.059687
0.105730 0.146481 0.059680
0.123525 0.146477 0.059670
0.144244 0.146470 0.059656
0.167837 0.146462 0.059583
0.194228 0.146442 0.059461
0.223321 0.146400 0.059266
0.255002 0.146319 0.058961
0.289142 0.146178 0.058489
0.325597 0.145942 0.057765
0.364209 0.145563 0.056671
0.404798 0.144976 0.055040
0.447168 0.144093 0.052630
0.491098 0.142799 0.049090
0.536343 0.140940 0.043870
0.582631 0.138312 0.036105
0.629657 0.134641 0.025443
0.677078 0.129547 0.011265
0.724509 0.122491 0.000000
0.771388 0.113132 0.000000
0.816999 0.101430 0.000000
0.860767 0.086162 0.000000
0.901870 0.065930 0.000000
0.939319 0.037527 0.000000
0.971910 0.004154 0.000000
0.998163 0.000000 0.000000
1.000000 0.000000 0.000000
1.000000 0.000000 0.000000
1.000000 0.000000 0.000000
0.057743 0.170309 0.059610
0.063473 0.170307 0.059609
0.069876 0.170306 0.059606
0.078920 0.170304 0.059601
0.090834 0.170301 0.059594
0.105687 0.170297 0.059584
0.123493 0.170292 0.059570
0.144223 0.170284 0.059551
0.167817 0.170274 0.059526
0.194205 0.170262 0.059393
0.223294 0.170232 0.059175
0.254970 0.170172 0.058840
0.289106 0.170062 0.058330
0.325556 0.169874 0.057560
0.364163 0.169567 0.056409
0.404746 0.169086 0.054707
0.447110 0.168358 0.052208
0.491034 0.167286 0.048551
0.536273 0.165744 0.043172
0.582555 0.163565 0.035216
0.629574 0.160530 0.024382
0.676989 0.156345 0.009999
0.724414 0.150614 0.000000
0.771298 0.143119 0.000000
0.816904 0.134041 0.000000
0.860668 0.122716 0.000000
0.901767 0.108824 0.000000
0.939212 0.092104 0.000000
0.971800 0.072481 0.000000
0.998050 0.050472 0.000000
1.000000 0.029479 0.000000
1.000000 0.020013 0.000000
1.000000 0.019944 0.000000
0.057579 0.196948 0.059451
0.063323 0.196946 0.059450
0.069739 0.196945 0.059445
0.078800 0.196942 0.059439
0.090732 0.196939 0.059429
0.105604 0.196934 0.059415
0.123427 0.196928 0.059396
0.144174 0.196919 0.059370
0.167785 0.196907 0.059336
0.194175 0.196892 0.059291
0.223258 0.196873 0.059057
0.254929 0.196832 0.058683
0.289059 0.196750 0.058124
0.325503 0.196604 0.057293
0.364103 0.196360 0.056068
0.404680 0.195971 0.054273
0.447036 0.195377 0.051658
0.490952 0.194496 0.047848
0.536183 0.193223 0.042257
0.582456 0.191421 0.034063
0.629466 0.188912 0.023005
0.676873 0.185463 0.008356
0.724289 0.180770 0.000000
0.771181 0.174663 0.000000
0.816780 0.167425 0.000000
0.860538 0.158609 0.000000
0.901632 0.148174 0.000000
0.939072 0.136269 0.000000
0.971656 0.123403 0.000000
0.997903 0.110722 0.000000
1.000000 0.100371 0.000000
1.000000 0.095589 0.000000
1.000000 0.095553 0.000000
0.057292 0.226307 0.059172
0.063059 0.226305 0.059170
0.069497 0.226303 0.059165
0.078585 0.226300 0.059156
0.090548 0.226296 0.059142
0.105450 0.226291 0.059124
0.123304 0.226283 0.059098
0.144079 0.226273 0.059063
0.167714 0.226259 0.059017
0.194127 0.226242 0.058957
0.223214 0.226219 0.058881
0.254877 0.226193 0.058483
0.288999 0.226136 0.057862
0.325436 0.226027 0.056954
0.364027 0.225838 0.055633
0.404594 0.225530 0.053720
0.446941 0.225051 0.050953
0.490847 0.224333 0.046945
0.536067 0.223288 0.041075
0.582329 0.221802 0.032597
0.629328 0.219728 0.021252
0.676723 0.216879 0.006262
0.724129 0.213013 0.000000
0.771029 0.207974 0.000000
0.816621 0.202097 0.000000
0.860371 0.195038 0.000000
0.901458 0.186841 0.000000
0.938892 0.177732 0.000000
0.971471 0.168216 0.000000
0.997713 0.159220 0.000000
1.000000 0.152196 0.000000
1.000000 0.149057 0.000000
1.000000 0.149034 0.000000
0.056808 0.258268 0.058701
0.062613 0.258266 0.058699
0.069087 0.258264 0.058691
0.078220 0.258261 0.058679
0.090231 0.258256 0.058662
0.105183 0.258250 0.058637
0.123084 0.258241 0.058603
0.143903 0.258229 0.058558
0.167579 0.258214 0.058497
0.194028 0.258194 0.058418
0.223146 0.258168 0.058316
0.254813 0.258135 0.058189
0.288925 0.258099 0.057535
0.325351 0.258023 0.056530
0.363931 0.257882 0.055089
0.404487 0.257643 0.053025
0.446821 0.257263 0.050066
0.490714 0.256685 0.045803
0.535921 0.255833 0.039565
0.582168 0.254613 0.030767
0.629153 0.252902 0.019063
0.676534 0.250546 0.003643
0.723925 0.247348 0.000000
0.770837 0.243149 0.000000
0.816419 0.238317 0.000000
0.860160 0.232559 0.000000
0.901238 0.225949 0.000000
0.938664 0.218707 0.000000
0.971236 0.211275 0.000000
0.997473 0.204385 0.000000
1.000000 0.199107 0.000000
1.000000 0.196779 0.000000
1.000000 0.196762 0.000000
0.056015 0.292697 0.057929
0.061881 0.292695 0.057926
0.068413 0.292692 0.057916
0.077617 0.292689 0.057901
0.089707 0.292684 0.057878
0.104738 0.292677 0.057846
0.122714 0.292667 0.057802
0.143602 0.292654 0.057743
0.167340 0.292636 0.057664
0.193843 0.292613 0.057561
0.223009 0.292584 0.057430
0.254719 0.292547 0.057264
0.288835 0.292501 0.057059
0.325248 0.292452 0.056011
0.363814 0.292353 0.054421
0.404356 0.292175 0.052169
0.446674 0.291881 0.048970
0.490551 0.291422 0.044385
0.535740 0.290735 0.037702
0.581969 0.289740 0.028530
0.628935 0.288334 0.016381
0.676297 0.286387 0.000430
0.723670 0.283738 0.000000
0.770598 0.280210 0.000000
0.816167 0.276202 0.000000
0.859896 0.271448 0.000000
0.900963 0.266023 0.000000
0.938380 0.260130 0.000000
0.970943 0.254142 0.000000
0.997173 0.248650 0.000000
1.000000 0.244485 0.000000
1.000000 0.242660 0.000000
1.000000 0.242646 0.000000
0.054751 0.329444 0.056697
0.060712 0.329441 0.056694
0.067338 0.329439 0.056681
0.076655 0.329435 0.056662
0.088867 0.329429 0.056633
0.104021 0.329421 0.056592
0.122114 0.329410 0.056535
0.143108 0.329395 0.056459
0.166940 0.329376 0.056358
0.193525 0.329350 0.056227
0.222764 0.329317 0.056058
0.254537 0.329276 0.055846
0.288708 0.329225 0.055583
0.325126 0.329163 0.055262
0.363674 0.329098 0.053616
0.404197 0.328973 0.051136
0.446497 0.328753 0.047640
0.490353 0.328397 0.042653
0.535520 0.327851 0.035476
0.581727 0.327048 0.025850
0.628669 0.325900 0.013164
0.676007 0.324297 0.000000
0.723356 0.322103 0.000000
0.770276 0.319155 0.000000
0.815857 0.315779 0.000000
0.859571 0.311818 0.000000
0.900625 0.307314 0.000000
0.938029 0.302443 0.000000
0.970582 0.297522 0.000000
0.996804 0.293037 0.000000
1.000000 0.289655 0.000000
1.000000 0.288178 0.000000
1.000000 0.288167 0.000000
0.052780 0.368340 0.054779
0.058895 0.368337 0.054775
0.065667 0.368334 0.054759
0.075159 0.368330 0.054734
0.087562 0.368324 0.054697
0.102906 0.368315 0.054646
0.121176 0.368302 0.054574
0.142330 0.368286 0.054478
0.166302 0.368264 0.054350
0.193011 0.368236 0.054182
0.222356 0.368199 0.053969
0.254220 0.368153 0.053699
0.288472 0.368097 0.053364
0.324959 0.368028 0.052956
0.363511 0.367945 0.052466
0.404010 0.367862 0.049915
0.446287 0.367707 0.046060
0.490118 0.367440 0.040578
0.535258 0.367017 0.032876
0.581436 0.366379 0.022716
0.628349 0.365451 0.009392
0.675657 0.364140 0.000000
0.722975 0.362330 0.000000
0.769866 0.359883 0.000000
0.815480 0.357005 0.000000
0.859177 0.353685 0.000000
0.900214 0.349915 0.000000
0.937604 0.345846 0.000000
0.970144 0.341748 0.000000
0.996356 0.338026 0.000000
1.000000 0.335228 0.000000
1.000000 0.334009 0.000000
1.000000 0.334000 0.000000
0.049764 0.409197 0.051846
0.056120 0.409194 0.051841
0.063123 0.409191 0.051821
0.072890 0.409186 0.051789
0.085586 0.409179 0.051743
0.101217 0.409169 0.051678
0.119754 0.409156 0.051587
0.141146 0.409138 0.051465
0.165326 0.409114 0.051303
0.192213 0.409082 0.051092
0.221711 0.409042 0.050821
0.253708 0.408992 0.050480
0.288073 0.408929 0.050055
0.324658 0.408853 0.049537
0.363297 0.408762 0.048913
0.403799 0.408655 0.048175
0.446044 0.408551 0.044228
0.489844 0.408362 0.038146
0.534952 0.408046 0.029921
0.581095 0.407550 0.019144
0.627971 0.406813 0.005079
0.675240 0.405753 0.000000
0.722520 0.404271 0.000000
0.769372 0.402247 0.000000
0.815029 0.399782 0.000000
0.858705 0.396992 0.000000
0.899722 0.393818 0.000000
0.937094 0.390394 0.000000
0.969620 0.386950 0.000000
0.995819 0.383827 0.000000
1.000000 0.381484 0.000000
1.000000 0.380464 0.000000
1.000000 0.380456 0.000000
0.045190 0.451806 0.047407
0.051939 0.451802 0.047401
0.059310 0.451799 0.047375
0.069508 0.451794 0.047335
0.082655 0.451786 0.047277
0.098721 0.451776 0.047194
0.117654 0.451761 0.047079
0.139396 0.451741 0.046924
0.163877 0.451715 0.046719
0.191022 0.451680 0.046451
0.220739 0.451636 0.046106
0.252921 0.451581 0.045671
0.287445 0.451513 0.045129
0.324168 0.451430 0.044466
0.362924 0.451330 0.043666
0.403530 0.451212 0.042716
0.445775 0.451077 0.041605
0.489533 0.450949 0.035472
0.534602 0.450725 0.026668
0.580702 0.450355 0.015198
0.627533 0.449783 0.000294
0.674754 0.448941 0.000000
0.721985 0.447742 0.000000
0.768788 0.446084 0.000000
0.814495 0.443969 0.000000
0.858146 0.441620 0.000000
0.899141 0.438941 0.000000
0.936492 0.436047 0.000000
0.969000 0.433134 0.000000
0.995185 0.430494 0.000000
1.000000 0.428514 0.000000
1.000000 0.427653 0.000000
1.000000 0.427646 0.000000
0.038223 0.495932 0.040676
0.045646 0.495927 0.040670
0.053629 0.495924 0.040636
0.064521 0.495918 0.040584
0.078372 0.495910 0.040509
0.095099 0.495898 0.040400
0.114622 0.495883 0.040250
0.136873 0.495861 0.040047
0.161788 0.495832 0.039777
0.189298 0.495795 0.039427
0.219322 0.495747 0.038979
0.251763 0.495687 0.038416
0.286506 0.495613 0.037721
0.323415 0.495522 0.036876
0.362333 0.495414 0.035868
0.403078 0.495286 0.034686
0.445444 0.495137 0.033323
0.489198 0.494968 0.031780
0.534212 0.494816 0.023226
0.580261 0.494555 0.011003
0.627036 0.494129 0.000000
0.674199 0.493478 0.000000
0.721368 0.492527 0.000000
0.768109 0.491186 0.000000
0.813874 0.489380 0.000000
0.857495 0.487404 0.000000
0.898463 0.485141 0.000000
0.935790 0.482688 0.000000
0.968276 0.480215 0.000000
0.994445 0.477972 0.000000
1.000000 0.476289 0.000000
1.000000 0.475557 0.000000
1.000000 0.475552 0.000000
0.028333 0.541312 0.030797
0.036069 0.541307 0.030791
0.045084 0.541303 0.030751
0.057159 0.541297 0.030690
0.072154 0.541288 0.030601
0.089907 0.541276 0.030474
0.110314 0.541258 0.030299
0.133309 0.541235 0.030063
0.158843 0.541204 0.029751
0.186866 0.541164 0.029344
0.217316 0.541112 0.028825
0.250113 0.541047 0.028171
0.285155 0.540967 0.027364
0.322316 0.540869 0.026384
0.361449 0.540751 0.025213
0.402379 0.540612 0.023840
0.444905 0.540451 0.022256
0.488800 0.540267 0.020463
0.533801 0.540061 0.018471
0.579779 0.539883 0.006765
0.626487 0.539586 0.000000
0.673578 0.539104 0.000000
0.720672 0.538372 0.000000
0.767335 0.537311 0.000000
0.813057 0.535835 0.000000
0.856746 0.534131 0.000000
0.897682 0.532220 0.000000
0.934981 0.530141 0.000000
0.967444 0.528038 0.000000
0.993594 0.526126 0.000000
1.000000 0.524691 0.000000
1.000000 0.524066 0.000000
1.000000 0.524061 0.000000
0.015068 0.587652 0.017539
0.022828 0.587647 0.017534
0.032105 0.587642 0.017489
0.046057 0.587636 0.017419
0.063059 0.587626 0.017316
0.082483 0.587613 0.017171
0.104249 0.587594 0.016970
0.128342 0.587569 0.016699
0.154764 0.587536 0.016340
0.183506 0.587493 0.015874
0.214544 0.587437 0.015277
0.247825 0.587367 0.014526
0.283268 0.587281 0.013599
0.320766 0.587175 0.012472
0.360183 0.587048 0.011126
0.401357 0.586898 0.009546
0.444093 0.586724 0.007723
0.488170 0.586525 0.005658
0.533330 0.586302 0.003360
0.579284 0.586055 0.000854
0.625899 0.585853 0.000000
0.672904 0.585521 0.000000
0.719905 0.584984 0.000000
0.766471 0.584173 0.000000
0.812095 0.583010 0.000000
0.855894 0.581540 0.000000
0.896795 0.579934 0.000000
0.934063 0.578173 0.000000
0.966498 0.576385 0.000000
0.992626 0.574754 0.000000
1.000000 0.573527 0.000000
1.000000 0.572992 0.000000
1.000000 0.572988 0.000000
0.000000 0.634622 0.000086
0.005394 0.634616 0.000083
0.014695 0.634612 0.000031
0.029017 0.634605 0.000000
0.049313 0.634595 0.000000
0.071731 0.634580 0.000000
0.095704 0.634561 0.000000
0.121467 0.634534 0.000000
0.149177 0.634498 0.000000
0.178934 0.634452 0.000000
0.210781 0.634392 0.000000
0.244716 0.634317 0.000000
0.280696 0.634224 0.000000
0.318640 0.634111 0.000000
0.358431 0.633974 0.000000
0.399921 0.633813 0.000000
0.442929 0.633626 0.000000
0.487240 0.633412 0.000000
0.532605 0.633170 0.000000
0.578738 0.632903 0.000000
0.625312 0.632612 0.000000
0.672194 0.632388 0.000000
0.719084 0.632025 0.000000
0.765532 0.631438 0.000000
0.811035 0.630557 0.000000
0.854940 0.629326 0.000000
0.895801 0.627983 0.000000
0.933033 0.626498 0.000000
0.965438 0.624979 0.000000
0.991542 0.623588 0.000000
1.000000 0.622539 0.000000
1.000000 0.622082 0.000000
1.000000 0.622078 0.000000
0.000000 0.681853 0.000000
0.000000 0.681846 0.000000
0.000000 0.681842 0.000000
0.006491 0.681834 0.000000
0.027592 0.681823 0.000000
0.055506 0.681808 0.000000
0.083469 0.681787 0.000000
0.111917 0.681758 0.000000
0.141559 0.681720 0.000000
0.172765 0.681671 0.000000
0.205734 0.681607 0.000000
0.240557 0.681527 0.000000
0.277253 0.681428 0.000000
0.315784 0.681306 0.000000
0.356062 0.681160 0.000000
0.397962 0.680988 0.000000
0.441319 0.680787 0.000000
0.485930 0.680556 0.000000
0.531554 0.680296 0.000000
0.577914 0.680007 0.000000
0.624688 0.679692 0.000000
0.671507 0.679354 0.000000
0.718238 0.679113 0.000000
0.764545 0.678727 0.000000
0.809899 0.678100 0.000000
0.853697 0.677167 0.000000
0.894703 0.676018 0.000000
0.931896 0.674772 0.000000
0.964267 0.673487 0.000000
0.990344 0.672303 0.000000
1.000000 0.671407 0.000000
1.000000 0.671016 0.000000
1.000000 0.671013 0.000000
0.000000 0.728926 0.000000
0.000000 0.728919 0.000000
0.000000 0.728914 0.000000
0.000000 0.728906 0.000000
0.000000 0.728895 0.000000
0.028826 0.728878 0.000000
0.065138 0.728856 0.000000
0.098413 0.728825 0.000000
0.131118 0.728785 0.000000
0.164464 0.728732 0.000000
0.199014 0.728665 0.000000
0.235051 0.728579 0.000000
0.272704 0.728473 0.000000
0.312006 0.728344 0.000000
0.352918 0.728188 0.000000
0.395347 0.728004 0.000000
0.439149 0.727788 0.000000
0.484140 0.727541 0.000000
0.530094 0.727261 0.000000
0.576740 0.726949 0.000000
0.623764 0.726609 0.000000
0.670805 0.726242 0.000000
0.717443 0.725855 0.000000
0.763546 0.725603 0.000000
0.808724 0.725205 0.000000
0.852341 0.724556 0.000000
0.893508 0.723629 0.000000
0.930658 0.722592 0.000000
0.962992 0.721510 0.000000
0.989040 0.720507 0.000000
1.000000 0.719743 0.000000
1.000000 0.719409 0.000000
1.000000 0.719406 0.000000
0.000000 0.775367 0.000000
0.000000 0.775360 0.000000
0.000000 0.775355 0.000000
0.000000 0.775346 0.000000
0.000000 0.775334 0.000000
0.000000 0.775317 0.000000
0.034132 0.775293 0.000000
0.078447 0.775261 0.000000
0.116561 0.775218 0.000000
0.153238 0.775162 0.000000
0.190082 0.775090 0.000000
0.227804 0.775000 0.000000
0.266748 0.774887 0.000000
0.307070 0.774750 0.000000
0.348806 0.774584 0.000000
0.391912 0.774387 0.000000
0.436282 0.774157 0.000000
0.481755 0.773892 0.000000
0.528122 0.773591 0.000000
0.575127 0.773256 0.000000
0.622465 0.772888 0.000000
0.669781 0.772490 0.000000
0.716664 0.772069 0.000000
0.762637 0.771630 0.000000
0.807581 0.771386 0.000000
0.851028 0.770994 0.000000
0.892092 0.770340 0.000000
0.929334 0.769487 0.000000
0.961629 0.768583 0.000000
0.987645 0.767737 0.000000
1.000000 0.767088 0.000000
1.000000 0.766803 0.000000
1.000000 0.766801 0.000000
0.000000 0.820633 0.000000
0.000000 0.820625 0.000000
0.000000 0.820619 0.000000
0.000000 0.820611 0.000000
0.000000 0.820598 0.000000
0.000000 0.820579 0.000000
0.000000 0.820554 0.000000
0.045233 0.820520 0.000000
0.095464 0.820475 0.000000
0.137850 0.820416 0.000000
0.178185 0.820340 0.000000
0.218305 0.820244 0.000000
0.259012 0.820124 0.000000
0.300687 0.819978 0.000000
0.343495 0.819802 0.000000
0.387473 0.819592 0.000000
0.432563 0.819347 0.000000
0.478642 0.819064 0.000000
0.525525 0.818742 0.000000
0.572975 0.818382 0.000000
0.620702 0.817985 0.000000
0.668360 0.817554 0.000000
0.715532 0.817129 0.000000
0.761794 0.816696 0.000000
0.806618 0.816230 0.000000
0.849781 0.815956 0.000000
0.890609 0.815540 0.000000
0.927944 0.814908 0.000000
0.960198 0.814159 0.000000
0.986181 0.813449 0.000000
1.000000 0.812901 0.000000
1.000000 0.812659 0.000000
1.000000 0.812657 0.000000
0.000000 0.864085 0.000000
0.000000 0.864077 0.000000
0.000000 0.864071 0.000000
0.000000 0.864061 0.000000
0.000000 0.864048 0.000000
0.000000 0.864029 0.000000
0.000000 0.864002 0.000000
0.000000 0.863966 0.000000
0.061852 0.863918 0.000000
0.116172 0.863856 0.000000
0.162247 0.863775 0.000000
0.205907 0.863674 0.000000
0.249061 0.863548 0.000000
0.292544 0.863393 0.000000
0.336748 0.863206 0.000000
0.381837 0.862984 0.000000
0.427835 0.862723 0.000000
0.474668 0.862421 0.000000
0.522190 0.862077 0.000000
0.570172 0.861700 0.000000
0.618287 0.861337 0.000000
0.666324 0.860930 0.000000
0.713888 0.860480 0.000000
0.760514 0.859990 0.000000
0.805656 0.859468 0.000000
0.848671 0.858922 0.000000
0.889211 0.858597 0.000000
0.926410 0.858180 0.000000
0.958730 0.857597 0.000000
0.984679 0.857006 0.000000
1.000000 0.856544 0.000000
1.000000 0.856340 0.000000
1.000000 0.856338 0.000000
0.000000 0.904962 0.000000
0.000000 0.904953 0.000000
0.000000 0.904947 0.000000
0.000000 0.904937 0.000000
0.000000 0.904922 0.000000
0.000000 0.904902 0.000000
0.000000 0.904874 0.000000
0.000000 0.904836 0.000000
0.000125 0.904786 0.000000
0.083678 0.904720 0.000000
0.140680 0.904636 0.000000
0.189846 0.904529 0.000000
0.236461 0.904396 0.000000
0.282365 0.904233 0.000000
0.328374 0.904035 0.000000
0.374866 0.903800 0.000000
0.421863 0.903561 0.000000
0.469510 0.903287 0.000000
0.517728 0.902970 0.000000
0.566341 0.902606 0.000000
0.615099 0.902195 0.000000
0.663691 0.901736 0.000000
0.711735 0.901232 0.000000
0.758777 0.900686 0.000000
