app/src/main/assets/luts/travel_beach_bright.cube
# V-Cam procedural LUT — travel_beach_bright
# Generated by LutBaker. Do not edit by hand.
TITLE "V-Cam travel_beach_bright"
LUT_3D_SIZE 5
DOMAIN_MIN 0.0 0.0 0.0
DOMAIN_MAX 1.0 1.0 1.0
0.057926 0.059326 0.059787
0.167885 0.059240 0.059703
0.447308 0.053150 0.053655
0.817228 0.000000 0.000000
1.000000 0.000000 0.000000
0.057743 0.170309 0.059610
0.167817 0.170274 0.059526
0.447110 0.168358 0.052208
0.816904 0.134041 0.000000
1.000000 0.019944 0.000000
0.045190 0.451806 0.047407
0.163877 0.451715 0.046719
0.445775 0.451077 0.041605
0.814495 0.443969 0.000000
1.000000 0.427646 0.000000
0.000000 0.820633 0.000000
0.095464 0.820475 0.000000
0.432563 0.819347 0.000000
0.806618 0.816230 0.000000
1.000000 0.812657 0.000000
0.000000 1.000000 0.000000
0.000000 1.000000 0.000000
0.395425 1.000000 0.000000
0.797829 1.000000 0.000000
1.000000 1.000000 0.000000
0.057888 0.059291 0.170967
0.167874 0.059202 0.170931
0.447267 0.052872 0.169400
0.817165 0.000000 0.137025
1.000000 0.000000 0.031724
0.057706 0.170296 0.170896
0.167806 0.170260 0.170860
0.446886 0.168503 0.169116
0.816467 0.134855 0.135652
1.000000 0.023556 0.025748
0.044864 0.451773 0.167175
0.164257 0.451576 0.167411
0.445719 0.451014 0.165952
0.814133 0.444061 0.114512
1.000000 0.427892 0.000000
0.000000 0.820637 0.100602
0.098877 0.820176 0.104132
0.433046 0.819079 0.095925
0.806507 0.816105 0.056399
1.000000 0.812592 0.000000
0.000000 1.000000 0.000000
0.000000 1.000000 0.000000
0.396705 1.000000 0.000000
0.797913 1.000000 0.000000
1.000000 1.000000 0.000000
0.055368 0.056831 0.454246
0.167520 0.056084 0.454138
0.447013 0.050581 0.453390
0.816696 0.000000 0.449870
1.000000 0.000000 0.436989
0.053827 0.169722 0.454037
0.167044 0.169537 0.453694
0.446666 0.167793 0.453039
0.816013 0.130963 0.449262
1.000000 0.006612 0.436132
0.042234 0.451534 0.452624
0.163507 0.451367 0.452455
0.445548 0.450796 0.451875
0.811309 0.445260 0.446393
1.000000 0.429979 0.431199
0.000000 0.820654 0.439627
0.086584 0.820195 0.439963
0.436427 0.817394 0.443085
0.805852 0.815352 0.438730
1.000000 0.812236 0.407282
0.000000 1.000000 0.406491
0.000000 1.000000 0.406801
0.405303 1.000000 0.412838
0.798625 1.000000 0.400244
1.000000 1.000000 0.387894
0.015669 0.017574 0.831894
0.156509 0.014106 0.831694
0.448037 0.000000 0.830259
0.814367 0.000000 0.826067
1.000000 0.000000 0.828301
0.008569 0.158114 0.831532
0.154690 0.157481 0.830828
0.447282 0.149502 0.829420
0.813682 0.124096 0.825373
1.000000 0.000000 0.827560
0.000000 0.450633 0.829118
0.137028 0.450312 0.828465
0.443327 0.448773 0.824069
0.809476 0.444289 0.821088
1.000000 0.425411 0.822684
0.000000 0.819854 0.822045
0.042471 0.819530 0.821719
0.430839 0.817309 0.819478
0.805217 0.814493 0.816599
1.000000 0.812736 0.814904
0.000000 1.000000 0.815307
0.000000 1.000000 0.815073
0.397241 1.000000 0.813653
0.801519 1.000000 0.813270
1.000000 1.000000 0.811245
0.000000 0.000000 1.000000
0.133282 0.000000 1.000000
0.445576 0.000000 1.000000
0.819592 0.000000 1.000000
1.000000 0.000000 1.000000
0.000000 0.134342 1.000000
0.129675 0.133096 1.000000
0.444450 0.115759 1.000000
0.818693 0.030872 1.000000
1.000000 0.000000 1.000000
0.000000 0.446393 1.000000
0.089737 0.445919 1.000000
0.437778 0.443474 1.000000
0.812832 0.433417 1.000000
1.000000 0.424736 1.000000
0.000000 0.821074 1.000000
0.000000 0.820691 1.000000
0.413701 0.818155 1.000000
0.804485 0.813980 1.000000
1.000000 0.812293 1.000000
0.000000 1.000000 1.000000
0.000000 1.000000 1.000000
0.393196 1.000000 1.000000
0.800439 1.000000 1.000000
1.000000 1.000000 1.000000
