app/src/main/assets/luts/travel_summer_pop.cube
# V-Cam procedural LUT — travel_summer_pop
# Generated by LutBaker. Do not edit by hand.
TITLE "V-Cam travel_summer_pop"
LUT_3D_SIZE 33
DOMAIN_MIN 0.0 0.0 0.0
DOMAIN_MAX 1.0 1.0 1.0
0.010783 0.000000 0.000000
0.051182 0.000000 0.000000
0.091582 0.000000 0.000000
0.131981 0.000000 0.000000
0.172380 0.000000 0.000000
0.212779 0.000000 0.000000
0.253179 0.000000 0.000000
0.293578 0.000000 0.000000
0.333977 0.000000 0.000000
0.374376 0.000000 0.000000
0.414775 0.000000 0.000000
0.455175 0.000000 0.000000
0.495574 0.000000 0.000000
0.535973 0.000000 0.000000
0.576372 0.000000 0.000000
0.616772 0.000000 0.000000
0.657171 0.000000 0.000000
0.697570 0.000000 0.000000
0.737969 0.000000 0.000000
0.778368 0.000000 0.000000
0.818768 0.000000 0.000000
0.859167 0.000000 0.000000
0.899566 0.000000 0.000000
0.939965 0.000000 0.000000
0.980364 0.000000 0.000000
1.000000 0.000000 0.000000
1.000000 0.000000 0.000000
1.000000 0.000000 0.000000
1.000000 0.000000 0.000000
1.000000 0.000000 0.000000
1.000000 0.000000 0.000000
1.000000 0.000000 0.000000
1.000000 0.000000 0.000000
0.005739 0.007457 0.000000
0.046138 0.004888 0.000000
0.086537 0.002318 0.000000
0.126936 0.000000 0.000000
0.167336 0.000000 0.000000
0.207735 0.000000 0.000000
0.248134 0.000000 0.000000
0.288533 0.000000 0.000000
0.328932 0.000000 0.000000
0.369332 0.000000 0.000000
0.409731 0.000000 0.000000
0.450130 0.000000 0.000000
0.490529 0.000000 0.000000
0.530929 0.000000 0.000000
0.571328 0.000000 0.000000
0.611727 0.000000 0.000000
0.652126 0.000000 0.000000
0.692525 0.000000 0.000000
0.732925 0.000000 0.000000
0.773324 0.000000 0.000000
0.813723 0.000000 0.000000
0.854122 0.000000 0.000000
0.894521 0.000000 0.000000
0.934921 0.000000 0.000000
0.975320 0.000000 0.000000
1.000000 0.000000 0.000000
1.000000 0.000000 0.000000
1.000000 0.000000 0.000000
1.000000 0.000000 0.000000
1.000000 0.000000 0.000000
1.000000 0.000000 0.000000
1.000000 0.000000 0.000000
1.000000 0.000000 0.000000
0.000694 0.045382 0.000000
0.041093 0.042812 0.000000
0.081493 0.040243 0.000000
0.121892 0.037673 0.000000
0.162291 0.035104 0.000000
0.202690 0.032534 0.000000
0.243089 0.029964 0.000000
0.283489 0.027395 0.000000
0.323888 0.024825 0.000000
0.364287 0.022256 0.000000
0.404686 0.019686 0.000000
0.445086 0.017117 0.000000
0.485485 0.014547 0.000000
0.525884 0.011978 0.000000
0.566283 0.009408 0.000000
0.606682 0.006839 0.000000
0.647082 0.004269 0.000000
0.687481 0.001700 0.000000
0.727880 0.000000 0.000000
0.768279 0.000000 0.000000
0.808679 0.000000 0.000000
0.849078 0.000000 0.000000
0.889477 0.000000 0.000000
0.929876 0.000000 0.000000
0.970275 0.000000 0.000000
1.000000 0.000000 0.000000
1.000000 0.000000 0.000000
1.000000 0.000000 0.000000
1.000000 0.000000 0.000000
1.000000 0.000000 0.000000
1.000000 0.000000 0.000000
1.000000 0.000000 0.000000
1.000000 0.000000 0.000000
0.000000 0.083306 0.000000
0.036049 0.080736 0.000000
0.076448 0.078167 0.000000
0.116847 0.075597 0.000000
0.157247 0.073028 0.000000
0.197646 0.070458 0.000000
0.238045 0.067889 0.000000
0.278444 0.065319 0.000000
0.318843 0.062750 0.000000
0.359243 0.060180 0.000000
0.399642 0.057611 0.000000
0.440041 0.055041 0.000000
0.480440 0.052472 0.000000
0.520840 0.049902 0.000000
0.561239 0.047332 0.000000
0.601638 0.044763 0.000000
0.642037 0.042193 0.000000
0.682436 0.039624 0.000000
0.722836 0.037054 0.000000
0.763235 0.034485 0.000000
0.803634 0.031915 0.000000
0.844033 0.029346 0.000000
0.884432 0.026776 0.000000
0.924832 0.024207 0.000000
0.965231 0.021637 0.000000
1.000000 0.019068 0.000000
1.000000 0.016498 0.000000
1.000000 0.013929 0.000000
1.000000 0.011359 0.000000
1.000000 0.008789 0.000000
1.000000 0.006220 0.000000
1.000000 0.003650 0.000000
1.000000 0.001081 0.000000
0.000000 0.121230 0.000000
0.031004 0.118661 0.000000
0.071404 0.116091 0.000000
0.111803 0.113521 0.000000
0.152202 0.110952 0.000000
0.192601 0.108382 0.000000
0.233000 0.105813 0.000000
0.273400 0.103243 0.000000
0.313799 0.100674 0.000000
0.354198 0.098104 0.000000
0.394597 0.095535 0.000000
0.434997 0.092965 0.000000
0.475396 0.090396 0.000000
0.515795 0.087826 0.000000
0.556194 0.085257 0.000000
0.596593 0.082687 0.000000
0.636993 0.080118 0.000000
0.677392 0.077548 0.000000
0.717791 0.074979 0.000000
0.758190 0.072409 0.000000
0.798589 0.069839 0.000000
0.838989 0.067270 0.000000
0.879388 0.064700 0.000000
0.919787 0.062131 0.000000
0.960186 0.059561 0.000000
1.000000 0.056992 0.000000
1.000000 0.054422 0.000000
1.000000 0.051853 0.000000
1.000000 0.049283 0.000000
1.000000 0.046714 0.000000
1.000000 0.044144 0.000000
1.000000 0.041575 0.000000
1.000000 0.039005 0.000000
0.000000 0.159154 0.000000
0.025960 0.156585 0.000000
0.066359 0.154015 0.000000
0.106758 0.151446 0.000000
0.147157 0.148876 0.000000
0.187557 0.146307 0.000000
0.227956 0.143737 0.000000
0.268355 0.141168 0.000000
0.308754 0.138598 0.000000
0.349154 0.136029 0.000000
0.389553 0.133459 0.000000
0.429952 0.130889 0.000000
0.470351 0.128320 0.000000
0.510750 0.125750 0.000000
0.551150 0.123181 0.000000
0.591549 0.120611 0.000000
0.631948 0.118042 0.000000
0.672347 0.115472 0.000000
0.712747 0.112903 0.000000
0.753146 0.110333 0.000000
0.793545 0.107764 0.000000
0.833944 0.105194 0.000000
0.874343 0.102625 0.000000
0.914743 0.100055 0.000000
0.955142 0.097486 0.000000
0.995541 0.094916 0.000000
1.000000 0.092347 0.000000
1.000000 0.089777 0.000000
1.000000 0.087207 0.000000
1.000000 0.084638 0.000000
1.000000 0.082068 0.000000
1.000000 0.079499 0.000000
1.000000 0.076929 0.000000
0.000000 0.197079 0.000000
0.020915 0.194509 0.000000
0.061314 0.191939 0.000000
0.101714 0.189370 0.000000
0.142113 0.186800 0.000000
0.182512 0.184231 0.000000
0.222911 0.181661 0.000000
0.263311 0.179092 0.000000
0.303710 0.176522 0.000000
0.344109 0.173953 0.000000
0.384508 0.171383 0.000000
0.424907 0.168814 0.000000
0.465307 0.166244 0.000000
0.505706 0.163675 0.000000
0.546105 0.161105 0.000000
0.586504 0.158536 0.000000
0.626904 0.155966 0.000000
0.667303 0.153397 0.000000
0.707702 0.150827 0.000000
0.748101 0.148257 0.000000
0.788500 0.145688 0.000000
0.828900 0.143118 0.000000
0.869299 0.140549 0.000000
0.909698 0.137979 0.000000
0.950097 0.135410 0.000000
0.990497 0.132840 0.000000
1.000000 0.130271 0.000000
1.000000 0.127701 0.000000
1.000000 0.125132 0.000000
1.000000 0.122562 0.000000
1.000000 0.119993 0.000000
1.000000 0.117423 0.000000
1.000000 0.114854 0.000000
0.000000 0.235003 0.000000
0.015871 0.232433 0.000000
0.056270 0.229864 0.000000
0.096669 0.227294 0.000000
0.137068 0.224725 0.000000
0.177468 0.222155 0.000000
0.217867 0.219586 0.000000
0.258266 0.217016 0.000000
0.298665 0.214446 0.000000
0.339065 0.211877 0.000000
0.379464 0.209307 0.000000
0.419863 0.206738 0.000000
0.460262 0.204168 0.000000
0.500661 0.201599 0.000000
0.541061 0.199029 0.000000
0.581460 0.196460 0.000000
0.621859 0.193890 0.000000
0.662258 0.191321 0.000000
0.702657 0.188751 0.000000
0.743057 0.186182 0.000000
0.783456 0.183612 0.000000
0.823855 0.181043 0.000000
0.864254 0.178473 0.000000
0.904654 0.175904 0.000000
0.945053 0.173334 0.000000
0.985452 0.170764 0.000000
1.000000 0.168195 0.000000
1.000000 0.165625 0.000000
1.000000 0.163056 0.000000
1.000000 0.160486 0.000000
1.000000 0.157917 0.000000
1.000000 0.155347 0.000000
1.000000 0.152778 0.000000
0.000000 0.272927 0.000000
0.010826 0.270357 0.000000
0.051225 0.267788 0.000000
0.091625 0.265218 0.000000
0.132024 0.262649 0.000000
0.172423 0.260079 0.000000
0.212822 0.257510 0.000000
0.253222 0.254940 0.000000
0.293621 0.252371 0.000000
0.334020 0.249801 0.000000
0.374419 0.247232 0.000000
0.414818 0.244662 0.000000
0.455218 0.242093 0.000000
0.495617 0.239523 0.000000
0.536016 0.236954 0.000000
0.576415 0.234384 0.000000
0.616814 0.231815 0.000000
0.657214 0.229245 0.000000
0.697613 0.226675 0.000000
0.738012 0.224106 0.000000
0.778411 0.221536 0.000000
0.818811 0.218967 0.000000
0.859210 0.216397 0.000000
0.899609 0.213828 0.000000
0.940008 0.211258 0.000000
0.980407 0.208689 0.000000
1.000000 0.206119 0.000000
1.000000 0.203550 0.000000
1.000000 0.200980 0.000000
1.000000 0.198411 0.000000
1.000000 0.195841 0.000000
1.000000 0.193272 0.000000
1.000000 0.190702 0.000000
0.000000 0.310851 0.000000
0.005782 0.308282 0.000000
0.046181 0.305712 0.000000
0.086580 0.303143 0.000000
0.126979 0.300573 0.000000
0.167379 0.298004 0.000000
0.207778 0.295434 0.000000
0.248177 0.292865 0.000000
0.288576 0.290295 0.000000
0.328975 0.287725 0.000000
0.369375 0.285156 0.000000
0.409774 0.282586 0.000000
0.450173 0.280017 0.000000
0.490572 0.277447 0.000000
0.530972 0.274878 0.000000
0.571371 0.272308 0.000000
0.611770 0.269739 0.000000
0.652169 0.267169 0.000000
0.692568 0.264600 0.000000
0.732968 0.262030 0.000000
0.773367 0.259461 0.000000
0.813766 0.256891 0.000000
0.854165 0.254322 0.000000
0.894564 0.251752 0.000000
0.934964 0.249182 0.000000
0.975363 0.246613 0.000000
1.000000 0.244043 0.000000
1.000000 0.241474 0.000000
1.000000 0.238904 0.000000
1.000000 0.236335 0.000000
1.000000 0.233765 0.000000
1.000000 0.231196 0.000000
1.000000 0.228626 0.000000
0.000000 0.348775 0.000000
0.000737 0.346206 0.000000
0.041136 0.343636 0.000000
0.081536 0.341067 0.000000
0.121935 0.338497 0.000000
0.162334 0.335928 0.000000
0.202733 0.333358 0.000000
0.243132 0.330789 0.000000
0.283532 0.328219 0.000000
0.323931 0.325650 0.000000
0.364330 0.323080 0.000000
0.404729 0.320511 0.000000
0.445129 0.317941 0.000000
0.485528 0.315372 0.000000
0.525927 0.312802 0.000000
0.566326 0.310232 0.000000
0.606725 0.307663 0.000000
0.647125 0.305093 0.000000
0.687524 0.302524 0.000000
0.727923 0.299954 0.000000
0.768322 0.297385 0.000000
0.808721 0.294815 0.000000
0.849121 0.292246 0.000000
0.889520 0.289676 0.000000
0.929919 0.287107 0.000000
0.970318 0.284537 0.000000
1.000000 0.281968 0.000000
1.000000 0.279398 0.000000
1.000000 0.276829 0.000000
1.000000 0.274259 0.000000
1.000000 0.271690 0.000000
1.000000 0.269120 0.000000
1.000000 0.266550 0.000000
0.000000 0.386700 0.000000
0.000000 0.384130 0.000000
0.036092 0.381561 0.000000
0.076491 0.378991 0.000000
0.116890 0.376422 0.000000
0.157289 0.373852 0.000000
0.197689 0.371282 0.000000
0.238088 0.368713 0.000000
0.278487 0.366143 0.000000
0.318886 0.363574 0.000000
0.359286 0.361004 0.000000
0.399685 0.358435 0.000000
0.440084 0.355865 0.000000
0.480483 0.353296 0.000000
0.520882 0.350726 0.000000
0.561282 0.348157 0.000000
0.601681 0.345587 0.000000
0.642080 0.343018 0.000000
0.682479 0.340448 0.000000
0.722878 0.337879 0.000000
0.763278 0.335309 0.000000
0.803677 0.332740 0.000000
0.844076 0.330170 0.000000
0.884475 0.327600 0.000000
0.924875 0.325031 0.000000
0.965274 0.322461 0.000000
1.000000 0.319892 0.000000
1.000000 0.317322 0.000000
1.000000 0.314753 0.000000
1.000000 0.312183 0.000000
1.000000 0.309614 0.000000
1.000000 0.307044 0.000000
1.000000 0.304475 0.000000
0.000000 0.424624 0.000000
0.000000 0.422054 0.000000
0.031047 0.419485 0.000000
0.071447 0.416915 0.000000
0.111846 0.414346 0.000000
0.152245 0.411776 0.000000
0.192644 0.409207 0.000000
0.233043 0.406637 0.000000
0.273443 0.404068 0.000000
0.313842 0.401498 0.000000
0.354241 0.398929 0.000000
0.394640 0.396359 0.000000
0.435040 0.393790 0.000000
0.475439 0.391220 0.000000
0.515838 0.388650 0.000000
0.556237 0.386081 0.000000
0.596636 0.383511 0.000000
0.637036 0.380942 0.000000
0.677435 0.378372 0.000000
0.717834 0.375803 0.000000
0.758233 0.373233 0.000000
0.798632 0.370664 0.000000
0.839032 0.368094 0.000000
0.879431 0.365525 0.000000
0.919830 0.362955 0.000000
0.960229 0.360386 0.000000
1.000000 0.357816 0.000000
1.000000 0.355247 0.000000
1.000000 0.352677 0.000000
1.000000 0.350107 0.000000
1.000000 0.347538 0.000000
1.000000 0.344968 0.000000
1.000000 0.342399 0.000000
0.000000 0.462548 0.000000
0.000000 0.459979 0.000000
0.026003 0.457409 0.000000
0.066402 0.454840 0.000000
0.106801 0.452270 0.000000
0.147200 0.449700 0.000000
0.187600 0.447131 0.000000
0.227999 0.444561 0.000000
0.268398 0.441992 0.000000
0.308797 0.439422 0.000000
0.349197 0.436853 0.000000
0.389596 0.434283 0.000000
0.429995 0.431714 0.000000
0.470394 0.429144 0.000000
0.510793 0.426575 0.000000
0.551193 0.424005 0.000000
0.591592 0.421436 0.000000
0.631991 0.418866 0.000000
0.672390 0.416297 0.000000
0.712789 0.413727 0.000000
0.753189 0.411157 0.000000
0.793588 0.408588 0.000000
0.833987 0.406018 0.000000
0.874386 0.403449 0.000000
0.914786 0.400879 0.000000
0.955185 0.398310 0.000000
0.995584 0.395740 0.000000
1.000000 0.393171 0.000000
1.000000 0.390601 0.000000
1.000000 0.388032 0.000000
1.000000 0.385462 0.000000
1.000000 0.382893 0.000000
1.000000 0.380323 0.000000
0.000000 0.500472 0.000000
0.000000 0.497903 0.000000
0.020958 0.495333 0.000000
0.061357 0.492764 0.000000
0.101757 0.490194 0.000000
0.142156 0.487625 0.000000
0.182555 0.485055 0.000000
0.222954 0.482486 0.000000
0.263354 0.479916 0.000000
0.303753 0.477347 0.000000
0.344152 0.474777 0.000000
0.384551 0.472207 0.000000
0.424950 0.469638 0.000000
0.465350 0.467068 0.000000
0.505749 0.464499 0.000000
0.546148 0.461929 0.000000
0.586547 0.459360 0.000000
0.626946 0.456790 0.000000
0.667346 0.454221 0.000000
0.707745 0.451651 0.000000
0.748144 0.449082 0.000000
0.788543 0.446512 0.000000
0.828943 0.443943 0.000000
0.869342 0.441373 0.000000
0.909741 0.438804 0.000000
0.950140 0.436234 0.000000
0.990539 0.433665 0.000000
1.000000 0.431095 0.000000
1.000000 0.428525 0.000000
1.000000 0.425956 0.000000
1.000000 0.423386 0.000000
1.000000 0.420817 0.000000
1.000000 0.418247 0.000000
0.000000 0.538397 0.000000
0.000000 0.535827 0.000000
0.015914 0.533257 0.000000
0.056313 0.530688 0.000000
0.096712 0.528118 0.000000
0.137111 0.525549 0.000000
0.177511 0.522979 0.000000
0.217910 0.520410 0.000000
0.258309 0.517840 0.000000
0.298708 0.515271 0.000000
0.339107 0.512701 0.000000
0.379507 0.510132 0.000000
0.419906 0.507562 0.000000
0.460305 0.504993 0.000000
0.500704 0.502423 0.000000
0.541104 0.499854 0.000000
0.581503 0.497284 0.000000
0.621902 0.494714 0.000000
0.662301 0.492145 0.000000
0.702700 0.489575 0.000000
0.743100 0.487006 0.000000
0.783499 0.484436 0.000000
0.823898 0.481867 0.000000
0.864297 0.479297 0.000000
0.904696 0.476728 0.000000
0.945096 0.474158 0.000000
0.985495 0.471589 0.000000
1.000000 0.469019 0.000000
1.000000 0.466450 0.000000
1.000000 0.463880 0.000000
1.000000 0.461311 0.000000
1.000000 0.458741 0.000000
1.000000 0.456172 0.000000
0.000000 0.576321 0.000000
0.000000 0.573751 0.000000
0.010869 0.571182 0.000000
0.051268 0.568612 0.000000
0.091668 0.566043 0.000000
0.132067 0.563473 0.000000
0.172466 0.560904 0.000000
0.212865 0.558334 0.000000
0.253265 0.555764 0.000000
0.293664 0.553195 0.000000
0.334063 0.550625 0.000000
0.374462 0.548056 0.000000
0.414861 0.545486 0.000000
0.455261 0.542917 0.000000
0.495660 0.540347 0.000000
0.536059 0.537778 0.000000
0.576458 0.535208 0.000000
0.616857 0.532639 0.000000
0.657257 0.530069 0.000000
0.697656 0.527500 0.000000
0.738055 0.524930 0.000000
0.778454 0.522361 0.000000
0.818853 0.519791 0.000000
0.859253 0.517221 0.000000
0.899652 0.514652 0.000000
0.940051 0.512082 0.000000
0.980450 0.509513 0.000000
1.000000 0.506943 0.000000
1.000000 0.504374 0.000000
1.000000 0.501804 0.000000
1.000000 0.499235 0.000000
1.000000 0.496665 0.000000
1.000000 0.494096 0.000000
0.000000 0.614245 0.000000
0.000000 0.611675 0.000000
0.005825 0.609106 0.000000
0.046224 0.606536 0.000000
0.086623 0.603967 0.000000
0.127022 0.601397 0.000000
0.167422 0.598828 0.000000
0.207821 0.596258 0.000000
0.248220 0.593689 0.000000
0.288619 0.591119 0.000000
0.329018 0.588550 0.000000
0.369418 0.585980 0.000000
0.409817 0.583411 0.000000
0.450216 0.580841 0.000000
0.490615 0.578272 0.000000
0.531015 0.575702 0.000000
0.571414 0.573132 0.000000
0.611813 0.570563 0.000000
0.652212 0.567993 0.000000
0.692611 0.565424 0.000000
0.733011 0.562854 0.000000
0.773410 0.560285 0.000000
0.813809 0.557715 0.000000
0.854208 0.555146 0.000000
0.894607 0.552576 0.000000
0.935007 0.550007 0.000000
0.975406 0.547437 0.000000
1.000000 0.544868 0.000000
1.000000 0.542298 0.000000
1.000000 0.539729 0.000000
1.000000 0.537159 0.000000
1.000000 0.534589 0.000000
1.000000 0.532020 0.000000
0.000000 0.652169 0.000000
0.000000 0.649600 0.000000
0.000780 0.647030 0.000000
0.041179 0.644461 0.000000
0.081579 0.641891 0.000000
0.121978 0.639322 0.000000
0.162377 0.636752 0.000000
0.202776 0.634182 0.000000
0.243175 0.631613 0.000000
0.283575 0.629043 0.000000
0.323974 0.626474 0.000000
0.364373 0.623904 0.000000
0.404772 0.621335 0.000000
0.445172 0.618765 0.000000
0.485571 0.616196 0.000000
0.525970 0.613626 0.000000
0.566369 0.611057 0.000000
0.606768 0.608487 0.000000
0.647168 0.605918 0.000000
0.687567 0.603348 0.000000
0.727966 0.600779 0.000000
0.768365 0.598209 0.000000
0.808764 0.595639 0.000000
0.849164 0.593070 0.000000
0.889563 0.590500 0.000000
0.929962 0.587931 0.000000
0.970361 0.585361 0.000000
1.000000 0.582792 0.000000
1.000000 0.580222 0.000000
1.000000 0.577653 0.000000
1.000000 0.575083 0.000000
1.000000 0.572514 0.000000
1.000000 0.569944 0.000000
0.000000 0.690093 0.000000
0.000000 0.687524 0.000000
0.000000 0.684954 0.000000
0.036135 0.682385 0.000000
0.076534 0.679815 0.000000
0.116933 0.677246 0.000000
0.157332 0.674676 0.000000
0.197732 0.672107 0.000000
0.238131 0.669537 0.000000
0.278530 0.666968 0.000000
0.318929 0.664398 0.000000
0.359329 0.661829 0.000000
0.399728 0.659259 0.000000
0.440127 0.656690 0.000000
0.480526 0.654120 0.000000
0.520925 0.651550 0.000000
0.561325 0.648981 0.000000
0.601724 0.646411 0.000000
0.642123 0.643842 0.000000
0.682522 0.641272 0.000000
0.722921 0.638703 0.000000
0.763321 0.636133 0.000000
0.803720 0.633564 0.000000
0.844119 0.630994 0.000000
0.884518 0.628425 0.000000
0.924918 0.625855 0.000000
0.965317 0.623286 0.000000
1.000000 0.620716 0.000000
1.000000 0.618147 0.000000
1.000000 0.615577 0.000000
1.000000 0.613007 0.000000
1.000000 0.610438 0.000000
1.000000 0.607868 0.000000
0.000000 0.728018 0.000000
0.000000 0.725448 0.000000
0.000000 0.722879 0.000000
0.031090 0.720309 0.000000
0.071490 0.717739 0.000000
0.111889 0.715170 0.000000
0.152288 0.712600 0.000000
0.192687 0.710031 0.000000
0.233086 0.707461 0.000000
0.273486 0.704892 0.000000
0.313885 0.702322 0.000000
0.354284 0.699753 0.000000
0.394683 0.697183 0.000000
0.435082 0.694614 0.000000
0.475482 0.692044 0.000000
0.515881 0.689475 0.000000
0.556280 0.686905 0.000000
0.596679 0.684336 0.000000
0.637079 0.681766 0.000000
0.677478 0.679197 0.000000
0.717877 0.676627 0.000000
0.758276 0.674057 0.000000
0.798675 0.671488 0.000000
0.839075 0.668918 0.000000
0.879474 0.666349 0.000000
0.919873 0.663779 0.000000
0.960272 0.661210 0.000000
1.000000 0.658640 0.000000
1.000000 0.656071 0.000000
1.000000 0.653501 0.000000
1.000000 0.650932 0.000000
1.000000 0.648362 0.000000
1.000000 0.645793 0.000000
0.000000 0.765942 0.000000
0.000000 0.763372 0.000000
0.000000 0.760803 0.000000
0.026046 0.758233 0.000000
0.066445 0.755664 0.000000
0.106844 0.753094 0.000000
0.147243 0.750525 0.000000
0.187643 0.747955 0.000000
0.228042 0.745386 0.000000
0.268441 0.742816 0.000000
0.308840 0.740246 0.000000
0.349240 0.737677 0.000000
0.389639 0.735107 0.000000
0.430038 0.732538 0.000000
0.470437 0.729968 0.000000
0.510836 0.727399 0.000000
0.551236 0.724829 0.000000
0.591635 0.722260 0.000000
0.632034 0.719690 0.000000
0.672433 0.717121 0.000000
0.712832 0.714551 0.000000
0.753232 0.711982 0.000000
0.793631 0.709412 0.000000
0.834030 0.706843 0.000000
0.874429 0.704273 0.000000
0.914829 0.701703 0.000000
0.955228 0.699134 0.000000
0.995627 0.696564 0.000000
1.000000 0.693995 0.000000
1.000000 0.691425 0.000000
1.000000 0.688856 0.000000
1.000000 0.686286 0.000000
1.000000 0.683717 0.000000
0.000000 0.803866 0.000000
0.000000 0.801296 0.000000
0.000000 0.798727 0.000000
0.021001 0.796157 0.000000
0.061400 0.793588 0.000000
0.101800 0.791018 0.000000
0.142199 0.788449 0.000000
0.182598 0.785879 0.000000
0.222997 0.783310 0.000000
0.263397 0.780740 0.000000
0.303796 0.778171 0.000000
0.344195 0.775601 0.000000
0.384594 0.773032 0.000000
0.424993 0.770462 0.000000
0.465393 0.767893 0.000000
0.505792 0.765323 0.000000
0.546191 0.762754 0.000000
0.586590 0.760184 0.000000
0.626989 0.757614 0.000000
0.667389 0.755045 0.000000
0.707788 0.752475 0.000000
0.748187 0.749906 0.000000
0.788586 0.747336 0.000000
0.828986 0.744767 0.000000
0.869385 0.742197 0.000000
0.909784 0.739628 0.000000
0.950183 0.737058 0.000000
0.990582 0.734489 0.000000
1.000000 0.731919 0.000000
1.000000 0.729350 0.000000
1.000000 0.726780 0.000000
1.000000 0.724211 0.000000
1.000000 0.721641 0.000000
0.000000 0.841790 0.000000
0.000000 0.839221 0.000000
0.000000 0.836651 0.000000
0.015957 0.834082 0.000000
0.056356 0.831512 0.000000
0.096755 0.828943 0.000000
0.137154 0.826373 0.000000
0.177554 0.823804 0.000000
0.217953 0.821234 0.000000
0.258352 0.818664 0.000000
0.298751 0.816095 0.000000
0.339150 0.813525 0.000000
0.379550 0.810956 0.000000
0.419949 0.808386 0.000000
0.460348 0.805817 0.000000
0.500747 0.803247 0.000000
0.541146 0.800678 0.000000
0.581546 0.798108 0.000000
0.621945 0.795539 0.000000
0.662344 0.792969 0.000000
0.702743 0.790400 0.000000
0.743143 0.787830 0.000000
0.783542 0.785261 0.000000
0.823941 0.782691 0.000000
0.864340 0.780122 0.000000
0.904739 0.777552 0.000000
0.945139 0.774982 0.000000
0.985538 0.772413 0.000000
1.000000 0.769843 0.000000
1.000000 0.767274 0.000000
1.000000 0.764704 0.000000
1.000000 0.762135 0.000000
1.000000 0.759565 0.000000
0.000000 0.879714 0.000000
0.000000 0.877145 0.000000
0.000000 0.874575 0.000000
0.010912 0.872006 0.000000
0.051311 0.869436 0.000000
0.091711 0.866867 0.000000
0.132110 0.864297 0.000000
0.172509 0.861728 0.000000
0.212908 0.859158 0.000000
0.253307 0.856589 0.000000
0.293707 0.854019 0.000000
0.334106 0.851450 0.000000
0.374505 0.848880 0.000000
0.414904 0.846311 0.000000
0.455304 0.843741 0.000000
0.495703 0.841172 0.000000
0.536102 0.838602 0.000000
0.576501 0.836032 0.000000
0.616900 0.833463 0.000000
0.657300 0.830893 0.000000
0.697699 0.828324 0.000000
0.738098 0.825754 0.000000
0.778497 0.823185 0.000000
0.818897 0.820615 0.000000
0.859296 0.818046 0.000000
0.899695 0.815476 0.000000
0.940094 0.812907 0.000000
0.980493 0.810337 0.000000
1.000000 0.807768 0.000000
1.000000 0.805198 0.000000
1.000000 0.802629 0.000000
1.000000 0.800059 0.000000
1.000000 0.797490 0.000000
0.000000 0.917639 0.000000
0.000000 0.915069 0.000000
0.000000 0.912500 0.000000
0.005868 0.909930 0.000000
0.046267 0.907361 0.000000
0.086666 0.904791 0.000000
0.127065 0.902222 0.000000
0.167465 0.899652 0.000000
0.207864 0.897082 0.000000
0.248263 0.894513 0.000000
0.288662 0.891943 0.000000
0.329061 0.889374 0.000000
0.369461 0.886804 0.000000
0.409860 0.884235 0.000000
0.450259 0.881665 0.000000
0.490658 0.879096 0.000000
0.531057 0.876526 0.000000
0.571457 0.873957 0.000000
0.611856 0.871387 0.000000
0.652255 0.868818 0.000000
0.692654 0.866248 0.000000
0.733054 0.863679 0.000000
0.773453 0.861109 0.000000
0.813852 0.858540 0.000000
0.854251 0.855970 0.000000
0.894650 0.853400 0.000000
0.935050 0.850831 0.000000
0.975449 0.848261 0.000000
1.000000 0.845692 0.000000
1.000000 0.843122 0.000000
1.000000 0.840553 0.000000
1.000000 0.837983 0.000000
1.000000 0.835414 0.000000
0.000000 0.955563 0.000000
0.000000 0.952993 0.000000
0.000000 0.950424 0.000000
0.000823 0.947854 0.000000
0.041222 0.945285 0.000000
0.081622 0.942715 0.000000
0.122021 0.940146 0.000000
0.162420 0.937576 0.000000
0.202819 0.935007 0.000000
0.243218 0.932437 0.000000
0.283618 0.929868 0.000000
0.324017 0.927298 0.000000
0.364416 0.924729 0.000000
0.404815 0.922159 0.000000
0.445215 0.919589 0.000000
0.485614 0.917020 0.000000
0.526013 0.914450 0.000000
0.566412 0.911881 0.000000
0.606811 0.909311 0.000000
0.647210 0.906742 0.000000
0.687610 0.904172 0.000000
0.728009 0.901603 0.000000
0.768408 0.899033 0.000000
0.808807 0.896464 0.000000
