app/src/main/assets/luts/travel_golden_hour.cube
# V-Cam procedural LUT — travel_golden_hour
# Generated by LutBaker. Do not edit by hand.
TITLE "V-Cam travel_golden_hour"
LUT_3D_SIZE 33
DOMAIN_MIN 0.0 0.0 0.0
DOMAIN_MAX 1.0 1.0 1.0
0.000000 0.000000 0.000000
0.000186 0.000000 0.000000
0.001018 0.000000 0.000000
0.003368 0.000000 0.000000
0.008652 0.000000 0.000000
0.018889 0.000000 0.000000
0.036788 0.000000 0.000000
0.061894 0.000000 0.000000
0.089867 0.000000 0.000000
0.120590 0.000000 0.000000
0.153969 0.000000 0.000000
0.189901 0.000000 0.000000
0.228263 0.000000 0.000000
0.268917 0.000000 0.000000
0.311709 0.000000 0.000000
0.356463 0.000000 0.000000
0.402980 0.000000 0.000000
0.451037 0.000000 0.000000
0.500380 0.000000 0.000000
0.550727 0.000000 0.000000
0.601755 0.000000 0.000000
0.653103 0.000000 0.000000
0.704362 0.000000 0.000000
0.755008 0.000000 0.000000
0.804204 0.000000 0.000000
0.851348 0.000000 0.000000
0.895548 0.000000 0.000000
0.935724 0.000000 0.000000
0.970556 0.000000 0.000000
0.998405 0.000000 0.000000
1.000000 0.000000 0.000000
1.000000 0.000000 0.000000
1.000000 0.000000 0.000000
0.000000 0.000157 0.000000
0.000186 0.000157 0.000000
0.001018 0.000157 0.000000
0.003368 0.000157 0.000000
0.008652 0.000157 0.000000
0.018889 0.000156 0.000000
0.036788 0.000154 0.000000
0.061894 0.000149 0.000000
0.089867 0.000134 0.000000
0.120590 0.000101 0.000000
0.153969 0.000028 0.000000
0.189901 0.000000 0.000000
0.228263 0.000000 0.000000
0.268917 0.000000 0.000000
0.311709 0.000000 0.000000
0.356463 0.000000 0.000000
0.402980 0.000000 0.000000
0.451037 0.000000 0.000000
0.500380 0.000000 0.000000
0.550726 0.000000 0.000000
0.601754 0.000000 0.000000
0.653103 0.000000 0.000000
0.704362 0.000000 0.000000
0.755008 0.000000 0.000000
0.804204 0.000000 0.000000
0.851348 0.000000 0.000000
0.895547 0.000000 0.000000
0.935724 0.000000 0.000000
0.970555 0.000000 0.000000
0.998405 0.000000 0.000000
1.000000 0.000000 0.000000
1.000000 0.000000 0.000000
1.000000 0.000000 0.000000
0.000000 0.000872 0.000000
0.000186 0.000872 0.000000
0.001018 0.000872 0.000000
0.003368 0.000872 0.000000
0.008652 0.000872 0.000000
0.018889 0.000872 0.000000
0.036788 0.000870 0.000000
0.061894 0.000864 0.000000
0.089867 0.000850 0.000000
0.120589 0.000817 0.000000
0.153969 0.000744 0.000000
0.189901 0.000598 0.000000
0.228262 0.000323 0.000000
0.268917 0.000000 0.000000
0.311709 0.000000 0.000000
0.356462 0.000000 0.000000
0.402980 0.000000 0.000000
0.451036 0.000000 0.000000
0.500380 0.000000 0.000000
0.550726 0.000000 0.000000
0.601754 0.000000 0.000000
0.653102 0.000000 0.000000
0.704361 0.000000 0.000000
0.755007 0.000000 0.000000
0.804203 0.000000 0.000000
0.851347 0.000000 0.000000
0.895546 0.000000 0.000000
0.935723 0.000000 0.000000
0.970554 0.000000 0.000000
0.998404 0.000000 0.000000
1.000000 0.000000 0.000000
1.000000 0.000000 0.000000
1.000000 0.000000 0.000000
0.000000 0.002903 0.000000
0.000186 0.002903 0.000000
0.001018 0.002903 0.000000
0.003368 0.002903 0.000000
0.008652 0.002903 0.000000
0.018889 0.002902 0.000000
0.036788 0.002900 0.000000
0.061894 0.002895 0.000000
0.089867 0.002881 0.000000
0.120589 0.002848 0.000000
0.153969 0.002776 0.000000
0.189900 0.002630 0.000000
0.228261 0.002356 0.000000
0.268916 0.001867 0.000000
0.311708 0.001036 0.000000
0.356461 0.000000 0.000000
0.402978 0.000000 0.000000
0.451034 0.000000 0.000000
0.500378 0.000000 0.000000
0.550724 0.000000 0.000000
0.601751 0.000000 0.000000
0.653100 0.000000 0.000000
0.704359 0.000000 0.000000
0.755004 0.000000 0.000000
0.804201 0.000000 0.000000
0.851344 0.000000 0.000000
0.895544 0.000000 0.000000
0.935720 0.000000 0.000000
0.970551 0.000000 0.000000
0.998401 0.000000 0.000000
1.000000 0.000000 0.000000
1.000000 0.000000 0.000000
1.000000 0.000000 0.000000
0.000000 0.007476 0.000000
0.000186 0.007476 0.000000
0.001018 0.007476 0.000000
0.003368 0.007476 0.000000
0.008651 0.007476 0.000000
0.018889 0.007476 0.000000
0.036787 0.007474 0.000000
0.061893 0.007469 0.000000
0.089865 0.007456 0.000000
0.120588 0.007423 0.000000
0.153967 0.007352 0.000000
0.189898 0.007208 0.000000
0.228259 0.006936 0.000000
0.268913 0.006449 0.000000
0.311705 0.005621 0.000000
0.356458 0.004271 0.000000
0.402975 0.002156 0.000000
0.451031 0.000000 0.000000
0.500374 0.000000 0.000000
0.550719 0.000000 0.000000
0.601746 0.000000 0.000000
0.653094 0.000000 0.000000
0.704353 0.000000 0.000000
0.754999 0.000000 0.000000
0.804195 0.000000 0.000000
0.851338 0.000000 0.000000
0.895537 0.000000 0.000000
0.935713 0.000000 0.000000
0.970545 0.000000 0.000000
0.998394 0.000000 0.000000
1.000000 0.000000 0.000000
1.000000 0.000000 0.000000
1.000000 0.000000 0.000000
0.000000 0.016350 0.000000
0.000185 0.016350 0.000000
0.001017 0.016349 0.000000
0.003367 0.016349 0.000000
0.008651 0.016349 0.000000
0.018888 0.016349 0.000000
0.036786 0.016348 0.000000
0.061891 0.016344 0.000000
0.089864 0.016331 0.000000
0.120585 0.016300 0.000000
0.153964 0.016231 0.000000
0.189895 0.016090 0.000000
0.228255 0.015821 0.000000
0.268909 0.015339 0.000000
0.311700 0.014517 0.000000
0.356452 0.013175 0.000000
0.402968 0.011069 0.000000
0.451024 0.007878 0.000000
0.500366 0.003188 0.000000
0.550710 0.000000 0.000000
0.601737 0.000000 0.000000
0.653084 0.000000 0.000000
0.704342 0.000000 0.000000
0.754988 0.000000 0.000000
0.804184 0.000000 0.000000
0.851327 0.000000 0.000000
0.895525 0.000000 0.000000
0.935700 0.000000 0.000000
0.970531 0.000000 0.000000
0.998380 0.000000 0.000000
1.000000 0.000000 0.000000
1.000000 0.000000 0.000000
1.000000 0.000000 0.000000
0.000000 0.031879 0.000000
0.000182 0.031879 0.000000
0.001014 0.031879 0.000000
0.003365 0.031878 0.000000
0.008649 0.031878 0.000000
0.018887 0.031878 0.000000
0.036784 0.031877 0.000000
0.061889 0.031873 0.000000
0.089860 0.031863 0.000000
0.120581 0.031834 0.000000
0.153959 0.031769 0.000000
0.189889 0.031632 0.000000
0.228249 0.031371 0.000000
0.268901 0.030897 0.000000
0.311691 0.030085 0.000000
0.356442 0.028756 0.000000
0.402957 0.026666 0.000000
0.451011 0.023494 0.000000
0.500352 0.018827 0.000000
0.550695 0.012142 0.000000
0.601720 0.002791 0.000000
0.653066 0.000000 0.000000
0.704323 0.000000 0.000000
0.754970 0.000000 0.000000
0.804164 0.000000 0.000000
0.851306 0.000000 0.000000
0.895504 0.000000 0.000000
0.935678 0.000000 0.000000
0.970509 0.000000 0.000000
0.998357 0.000000 0.000000
1.000000 0.000000 0.000000
1.000000 0.000000 0.000000
1.000000 0.000000 0.000000
0.000000 0.055165 0.000000
0.000174 0.055165 0.000000
0.001006 0.055165 0.000000
0.003357 0.055165 0.000000
0.008642 0.055164 0.000000
0.018881 0.055163 0.000000
0.036780 0.055162 0.000000
0.061884 0.055160 0.000000
0.089855 0.055153 0.000000
0.120574 0.055134 0.000000
0.153951 0.055086 0.000000
0.189879 0.054982 0.000000
0.228238 0.054779 0.000000
0.268889 0.054406 0.000000
0.311677 0.053758 0.000000
0.356426 0.052680 0.000000
0.402939 0.050946 0.000000
0.450991 0.048229 0.000000
0.500329 0.044030 0.000000
0.550670 0.037546 0.000000
0.601693 0.028243 0.000000
0.653037 0.015477 0.000000
0.704291 0.000000 0.000000
0.754940 0.000000 0.000000
0.804133 0.000000 0.000000
0.851273 0.000000 0.000000
0.895469 0.000000 0.000000
0.935642 0.000000 0.000000
0.970471 0.000000 0.000000
0.998319 0.000000 0.000000
1.000000 0.000000 0.000000
1.000000 0.000000 0.000000
1.000000 0.000000 0.000000
0.000000 0.081576 0.000000
0.000153 0.081576 0.000000
0.000985 0.081576 0.000000
0.003337 0.081575 0.000000
0.008622 0.081575 0.000000
0.018863 0.081574 0.000000
0.036765 0.081572 0.000000
0.061876 0.081569 0.000000
0.089846 0.081565 0.000000
0.120564 0.081554 0.000000
0.153939 0.081524 0.000000
0.189865 0.081454 0.000000
0.228221 0.081314 0.000000
0.268869 0.081051 0.000000
0.311655 0.080590 0.000000
0.356401 0.079820 0.000000
0.402911 0.078585 0.000000
0.450960 0.076665 0.000000
0.500295 0.073754 0.000000
0.550633 0.069399 0.000000
0.601652 0.062902 0.000000
0.652992 0.053057 0.000000
0.704243 0.037371 0.000000
0.754894 0.015069 0.000000
0.804084 0.000000 0.000000
0.851222 0.000000 0.000000
0.895416 0.000000 0.000000
0.935587 0.000000 0.000000
0.970414 0.000000 0.000000
0.998260 0.000000 0.000000
1.000000 0.000000 0.000000
1.000000 0.000000 0.000000
1.000000 0.000000 0.000000
0.000000 0.110596 0.000000
0.000103 0.110596 0.000000
0.000935 0.110596 0.000000
0.003287 0.110596 0.000000
0.008574 0.110595 0.000000
0.018817 0.110594 0.000000
0.036724 0.110591 0.000000
0.061851 0.110588 0.000000
0.089832 0.110582 0.000000
0.120549 0.110575 0.000000
0.153921 0.110557 0.000000
0.189844 0.110513 0.000000
0.228197 0.110416 0.000000
0.268842 0.110229 0.000000
0.311623 0.109896 0.000000
0.356365 0.109333 0.000000
0.402870 0.108425 0.000000
0.450914 0.107016 0.000000
0.500245 0.104891 0.000000
0.550577 0.101754 0.000000
0.601592 0.097185 0.000000
0.652927 0.090559 0.000000
0.704173 0.080870 0.000000
0.754827 0.066497 0.000000
0.804013 0.046243 0.000000
0.851148 0.016574 0.000000
0.895338 0.000000 0.000000
0.935506 0.000000 0.000000
0.970331 0.000000 0.000000
0.998175 0.000000 0.000000
1.000000 0.000000 0.000000
1.000000 0.000000 0.000000
1.000000 0.000000 0.000000
0.000000 0.142143 0.000000
0.000000 0.142143 0.000000
0.000828 0.142143 0.000000
0.003181 0.142143 0.000000
0.008469 0.142142 0.000000
0.018716 0.142140 0.000000
0.036628 0.142138 0.000000
0.061787 0.142133 0.000000
0.089794 0.142127 0.000000
0.120527 0.142117 0.000000
0.153897 0.142105 0.000000
0.189815 0.142078 0.000000
0.228163 0.142014 0.000000
0.268803 0.141883 0.000000
0.311579 0.141641 0.000000
0.356315 0.141225 0.000000
0.402814 0.140547 0.000000
0.450851 0.139488 0.000000
0.500175 0.137890 0.000000
0.550500 0.135540 0.000000
0.601507 0.132150 0.000000
0.652835 0.127320 0.000000
0.704075 0.120476 0.000000
0.754733 0.110847 0.000000
0.803914 0.098714 0.000000
0.851043 0.082486 0.000000
0.895229 0.060258 0.000000
0.935393 0.027915 0.000000
0.970215 0.000000 0.000000
0.998056 0.000000 0.000000
1.000000 0.000000 0.000000
1.000000 0.000000 0.000000
1.000000 0.000000 0.000000
0.000000 0.176121 0.000000
0.000000 0.176121 0.000000
0.000613 0.176121 0.000000
0.002966 0.176121 0.000000
0.008257 0.176120 0.000000
0.018509 0.176118 0.000000
0.036429 0.176115 0.000000
0.061650 0.176110 0.000000
0.089703 0.176102 0.000000
0.120470 0.176091 0.000000
0.153862 0.176075 0.000000
0.189776 0.176055 0.000000
0.228118 0.176016 0.000000
0.268750 0.175928 0.000000
0.311519 0.175755 0.000000
0.356247 0.175448 0.000000
0.402738 0.174938 0.000000
0.450766 0.174133 0.000000
0.500080 0.172910 0.000000
0.550396 0.171109 0.000000
0.601393 0.168515 0.000000
0.652711 0.164845 0.000000
0.703941 0.159715 0.000000
0.754605 0.152621 0.000000
0.803779 0.144054 0.000000
0.850902 0.133268 0.000000
0.895081 0.119993 0.000000
0.935239 0.104087 0.000000
0.970056 0.085729 0.000000
0.997894 0.065952 0.000000
1.000000 0.048013 0.000000
1.000000 0.039629 0.000000
1.000000 0.039629 0.000000
0.000000 0.212421 0.000000
0.000000 0.212421 0.000000
0.000207 0.212421 0.000000
0.002563 0.212420 0.000000
0.007857 0.212419 0.000000
0.018114 0.212417 0.000000
0.036045 0.212413 0.000000
0.061377 0.212407 0.000000
0.089516 0.212398 0.000000
0.120343 0.212385 0.000000
0.153780 0.212367 0.000000
0.189724 0.212342 0.000000
0.228058 0.212313 0.000000
0.268682 0.212258 0.000000
0.311441 0.212139 0.000000
0.356159 0.211916 0.000000
0.402638 0.211534 0.000000
0.450654 0.210921 0.000000
0.499956 0.209978 0.000000
0.550258 0.208578 0.000000
0.601242 0.206557 0.000000
0.652547 0.203700 0.000000
0.703764 0.199726 0.000000
0.754425 0.194267 0.000000
0.803601 0.187773 0.000000
0.850714 0.179828 0.000000
0.894886 0.170400 0.000000
0.935037 0.159690 0.000000
0.969847 0.148261 0.000000
0.997679 0.137257 0.000000
1.000000 0.128633 0.000000
1.000000 0.125094 0.000000
1.000000 0.125094 0.000000
0.000000 0.250917 0.000000
0.000000 0.250917 0.000000
0.000000 0.250917 0.000000
0.001844 0.250916 0.000000
0.007142 0.250915 0.000000
0.017407 0.250912 0.000000
0.035352 0.250908 0.000000
0.060876 0.250902 0.000000
0.089164 0.250891 0.000000
0.120096 0.250876 0.000000
0.153609 0.250855 0.000000
0.189611 0.250827 0.000000
0.227983 0.250791 0.000000
0.268596 0.250749 0.000000
0.311342 0.250673 0.000000
0.356046 0.250517 0.000000
0.402511 0.250236 0.000000
0.450512 0.249772 0.000000
0.499797 0.249044 0.000000
0.550082 0.247951 0.000000
0.601048 0.246362 0.000000
0.652336 0.244106 0.000000
0.703536 0.240965 0.000000
0.754180 0.236667 0.000000
0.803371 0.231536 0.000000
0.850473 0.225386 0.000000
0.894634 0.218210 0.000000
0.934775 0.210239 0.000000
0.969577 0.201969 0.000000
0.997403 0.194264 0.000000
1.000000 0.188420 0.000000
1.000000 0.186075 0.000000
1.000000 0.186075 0.000000
0.000000 0.291468 0.000000
0.000000 0.291468 0.000000
0.000000 0.291468 0.000000
0.000628 0.291467 0.000000
0.005931 0.291466 0.000000
0.016206 0.291463 0.000000
0.034168 0.291458 0.000000
0.060004 0.291451 0.000000
0.088547 0.291439 0.000000
0.119652 0.291422 0.000000
0.153290 0.291399 0.000000
0.189386 0.291367 0.000000
0.227832 0.291325 0.000000
0.268490 0.291273 0.000000
0.311220 0.291215 0.000000
0.355907 0.291113 0.000000
0.402354 0.290914 0.000000
0.450335 0.290569 0.000000
0.499599 0.290013 0.000000
0.549862 0.289161 0.000000
0.600806 0.287907 0.000000
0.652070 0.286114 0.000000
0.703247 0.283605 0.000000
0.753870 0.280167 0.000000
0.803082 0.276009 0.000000
0.850169 0.271111 0.000000
0.894316 0.265442 0.000000
0.934445 0.259213 0.000000
0.969237 0.252836 0.000000
0.997055 0.246982 0.000000
1.000000 0.242601 0.000000
1.000000 0.240859 0.000000
1.000000 0.240859 0.000000
0.000000 0.333914 0.000000
0.000000 0.333914 0.000000
0.000000 0.333914 0.000000
0.000000 0.333913 0.000000
0.003971 0.333911 0.000000
0.014258 0.333908 0.000000
0.032241 0.333903 0.000000
0.058557 0.333895 0.000000
0.087519 0.333882 0.000000
0.118904 0.333863 0.000000
0.152741 0.333836 0.000000
0.188984 0.333801 0.000000
0.227544 0.333755 0.000000
0.268293 0.333696 0.000000
0.311076 0.333622 0.000000
0.355740 0.333544 0.000000
0.402164 0.333413 0.000000
0.450121 0.333165 0.000000
0.499359 0.332748 0.000000
0.549594 0.332092 0.000000
0.600509 0.331107 0.000000
0.651743 0.329681 0.000000
0.702891 0.327668 0.000000
0.753485 0.324894 0.000000
0.802723 0.321468 0.000000
0.849792 0.317496 0.000000
0.893923 0.312914 0.000000
0.934037 0.307907 0.000000
0.968816 0.302815 0.000000
0.996623 0.298175 0.000000
1.000000 0.294726 0.000000
1.000000 0.293361 0.000000
1.000000 0.293361 0.000000
0.000000 0.378074 0.000000
0.000000 0.378074 0.000000
0.000000 0.378074 0.000000
0.000000 0.378073 0.000000
0.000929 0.378071 0.000000
0.011231 0.378068 0.000000
0.029238 0.378062 0.000000
0.056240 0.378053 0.000000
0.085878 0.378038 0.000000
0.117704 0.378017 0.000000
0.151848 0.377988 0.000000
0.188317 0.377949 0.000000
0.227048 0.377898 0.000000
0.267933 0.377832 0.000000
0.310826 0.377751 0.000000
0.355550 0.377652 0.000000
0.401940 0.377550 0.000000
0.449868 0.377384 0.000000
0.499073 0.377083 0.000000
0.549275 0.376588 0.000000
0.600152 0.375824 0.000000
0.651349 0.374696 0.000000
0.702458 0.373084 0.000000
0.753015 0.370841 0.000000
0.802288 0.367985 0.000000
0.849335 0.364727 0.000000
0.893445 0.360970 0.000000
0.933541 0.356872 0.000000
0.968305 0.352718 0.000000
0.996100 0.348946 0.000000
1.000000 0.346152 0.000000
1.000000 0.345049 0.000000
1.000000 0.345049 0.000000
0.000000 0.423744 0.000000
0.000000 0.423744 0.000000
0.000000 0.423744 0.000000
0.000000 0.423743 0.000000
0.000000 0.423741 0.000000
0.006700 0.423737 0.000000
0.024737 0.423731 0.000000
0.052624 0.423721 0.000000
0.083349 0.423705 0.000000
0.115857 0.423682 0.000000
0.150466 0.423650 0.000000
0.187270 0.423607 0.000000
0.226254 0.423550 0.000000
0.267335 0.423478 0.000000
0.310385 0.423388 0.000000
0.355239 0.423279 0.000000
0.401695 0.423150 0.000000
0.449577 0.423021 0.000000
0.498744 0.422818 0.000000
0.548903 0.422458 0.000000
0.599735 0.421879 0.000000
0.650884 0.421001 0.000000
0.701945 0.419720 0.000000
0.752453 0.417913 0.000000
0.801768 0.415517 0.000000
0.848789 0.412827 0.000000
0.892875 0.409717 0.000000
0.932949 0.406324 0.000000
0.967694 0.402887 0.000000
0.995474 0.399770 0.000000
1.000000 0.397466 0.000000
1.000000 0.396556 0.000000
1.000000 0.396556 0.000000
0.000000 0.470693 0.000000
0.000000 0.470693 0.000000
0.000000 0.470693 0.000000
0.000000 0.470692 0.000000
0.000000 0.470690 0.000000
0.000152 0.470686 0.000000
0.018223 0.470679 0.000000
0.047055 0.470668 0.000000
0.079547 0.470651 0.000000
0.113104 0.470626 0.000000
0.148406 0.470591 0.000000
0.185700 0.470544 0.000000
0.225046 0.470482 0.000000
0.266406 0.470403 0.000000
0.309678 0.470305 0.000000
0.354712 0.470186 0.000000
0.401318 0.470044 0.000000
0.449268 0.469879 0.000000
0.498374 0.469721 0.000000
0.548482 0.469476 0.000000
0.599259 0.469055 0.000000
0.650349 0.468388 0.000000
0.701348 0.467387 0.000000
0.751794 0.465947 0.000000
0.801144 0.463945 0.000000
0.848146 0.461709 0.000000
0.892203 0.459122 0.000000
0.932252 0.456291 0.000000
0.966975 0.453421 0.000000
0.994738 0.450818 0.000000
1.000000 0.448893 0.000000
1.000000 0.448134 0.000000
1.000000 0.448134 0.000000
0.000000 0.518662 0.000000
0.000000 0.518662 0.000000
0.000000 0.518662 0.000000
0.000000 0.518661 0.000000
0.000000 0.518659 0.000000
0.000000 0.518654 0.000000
0.009087 0.518647 0.000000
0.038422 0.518634 0.000000
0.073924 0.518616 0.000000
0.109101 0.518589 0.000000
0.145427 0.518551 0.000000
0.183426 0.518499 0.000000
0.223285 0.518432 0.000000
0.265035 0.518347 0.000000
0.308612 0.518241 0.000000
0.353892 0.518111 0.000000
0.400700 0.517957 0.000000
0.448819 0.517777 0.000000
0.497991 0.517572 0.000000
0.548019 0.517382 0.000000
0.598730 0.517096 0.000000
0.649748 0.516611 0.000000
0.700671 0.515851 0.000000
0.751038 0.514725 0.000000
0.800309 0.513126 0.000000
0.847402 0.511209 0.000000
0.891426 0.509052 0.000000
0.931445 0.506682 0.000000
0.966143 0.504271 0.000000
0.993886 0.502081 0.000000
1.000000 0.500461 0.000000
1.000000 0.499822 0.000000
1.000000 0.499822 0.000000
0.000000 0.567356 0.000000
0.000000 0.567356 0.000000
0.000000 0.567356 0.000000
0.000000 0.567355 0.000000
0.000000 0.567352 0.000000
0.000000 0.567348 0.000000
0.000000 0.567340 0.000000
0.026030 0.567326 0.000000
0.065623 0.567306 0.000000
0.103377 0.567277 0.000000
0.141219 0.567236 0.000000
0.180224 0.567181 0.000000
0.220800 0.567108 0.000000
0.263085 0.567016 0.000000
0.307076 0.566901 0.000000
0.352686 0.566761 0.000000
0.399764 0.566594 0.000000
0.448107 0.566399 0.000000
0.497468 0.566176 0.000000
0.547555 0.565927 0.000000
0.598161 0.565707 0.000000
0.649092 0.565379 0.000000
0.699921 0.564829 0.000000
0.750190 0.563976 0.000000
0.799362 0.562727 0.000000
0.846552 0.561099 0.000000
0.890539 0.559302 0.000000
0.930524 0.557315 0.000000
0.965193 0.555284 0.000000
0.992913 0.553435 0.000000
1.000000 0.552064 0.000000
1.000000 0.551522 0.000000
1.000000 0.551522 0.000000
0.000000 0.616445 0.000000
0.000000 0.616445 0.000000
0.000000 0.616445 0.000000
0.000000 0.616443 0.000000
0.000000 0.616441 0.000000
0.000000 0.616436 0.000000
0.000000 0.616427 0.000000
0.009504 0.616413 0.000000
0.053103 0.616391 0.000000
0.095230 0.616360 0.000000
0.135365 0.616316 0.000000
0.175810 0.616257 0.000000
0.217379 0.616179 0.000000
0.260392 0.616080 0.000000
0.304940 0.615956 0.000000
0.350988 0.615806 0.000000
0.398419 0.615626 0.000000
0.447055 0.615415 0.000000
0.496661 0.615174 0.000000
0.546956 0.614904 0.000000
0.597606 0.614606 0.000000
0.648401 0.614358 0.000000
0.699118 0.613992 0.000000
0.749267 0.613379 0.000000
0.798314 0.612438 0.000000
0.845597 0.611089 0.000000
0.889542 0.609599 0.000000
0.929489 0.607935 0.000000
0.964125 0.606224 0.000000
0.991820 0.604659 0.000000
1.000000 0.603496 0.000000
1.000000 0.603036 0.000000
1.000000 0.603036 0.000000
0.000000 0.665555 0.000000
0.000000 0.665555 0.000000
0.000000 0.665554 0.000000
0.000000 0.665553 0.000000
0.000000 0.665550 0.000000
0.000000 0.665545 0.000000
0.000000 0.665536 0.000000
0.000000 0.665520 0.000000
0.033068 0.665497 0.000000
0.083512 0.665464 0.000000
0.127268 0.665417 0.000000
0.169804 0.665354 0.000000
0.212757 0.665271 0.000000
0.256755 0.665164 0.000000
0.302043 0.665032 0.000000
0.348666 0.664870 0.000000
0.396559 0.664677 0.000000
0.445572 0.664451 0.000000
0.495493 0.664191 0.000000
0.546055 0.663899 0.000000
0.596933 0.663576 0.000000
0.647747 0.663227 0.000000
0.698289 0.662957 0.000000
0.748293 0.662557 0.000000
0.797189 0.661890 0.000000
0.844333 0.660878 0.000000
0.888438 0.659607 0.000000
0.928344 0.658219 0.000000
0.962944 0.656779 0.000000
0.990610 0.655455 0.000000
1.000000 0.654467 0.000000
1.000000 0.654076 0.000000
1.000000 0.654076 0.000000
0.000000 0.714263 0.000000
0.000000 0.714263 0.000000
0.000000 0.714262 0.000000
0.000000 0.714261 0.000000
0.000000 0.714258 0.000000
0.000000 0.714253 0.000000
0.000000 0.714243 0.000000
0.000000 0.714226 0.000000
0.005449 0.714202 0.000000
0.065986 0.714166 0.000000
0.116007 0.714116 0.000000
0.161684 0.714049 0.000000
0.206582 0.713960 0.000000
0.251920 0.713847 0.000000
0.298190 0.713706 0.000000
0.345566 0.713533 0.000000
0.394054 0.713327 0.000000
0.443550 0.713084 0.000000
0.493872 0.712805 0.000000
0.544771 0.712490 0.000000
0.595938 0.712141 0.000000
0.647001 0.711762 0.000000
0.697525 0.711359 0.000000
0.747309 0.711075 0.000000
0.796023 0.710652 0.000000
0.842981 0.709946 0.000000
0.887237 0.708923 0.000000
0.927096 0.707773 0.000000
0.961657 0.706566 0.000000
0.989293 0.705447 0.000000
1.000000 0.704609 0.000000
1.000000 0.704276 0.000000
1.000000 0.704276 0.000000
0.000000 0.762088 0.000000
0.000000 0.762088 0.000000
0.000000 0.762087 0.000000
0.000000 0.762086 0.000000
0.000000 0.762083 0.000000
0.000000 0.762077 0.000000
0.000000 0.762066 0.000000
0.000000 0.762049 0.000000
0.000000 0.762023 0.000000
0.036671 0.761985 0.000000
0.099995 0.761932 0.000000
0.150681 0.761861 0.000000
0.198387 0.761767 0.000000
0.245562 0.761647 0.000000
0.293139 0.761496 0.000000
0.341497 0.761312 0.000000
0.390751 0.761092 0.000000
0.440863 0.760832 0.000000
0.491692 0.760533 0.000000
0.543015 0.760194 0.000000
0.594542 0.759818 0.000000
0.645916 0.759408 0.000000
0.696711 0.758969 0.000000
0.746426 0.758511 0.000000
0.794868 0.758224 0.000000
0.841635 0.757797 0.000000
0.885810 0.757076 0.000000
0.925762 0.756129 0.000000
0.960281 0.755123 0.000000
0.987884 0.754182 0.000000
1.000000 0.753472 0.000000
1.000000 0.753189 0.000000
1.000000 0.753189 0.000000
0.000000 0.808475 0.000000
0.000000 0.808475 0.000000
0.000000 0.808474 0.000000
0.000000 0.808473 0.000000
0.000000 0.808469 0.000000
0.000000 0.808463 0.000000
0.000000 0.808452 0.000000
0.000000 0.808434 0.000000
0.000000 0.808406 0.000000
0.000000 0.808366 0.000000
0.075936 0.808310 0.000000
0.135608 0.808235 0.000000
0.187538 0.808135 0.000000
0.237275 0.808007 0.000000
0.286602 0.807848 0.000000
0.336241 0.807652 0.000000
0.386477 0.807418 0.000000
0.437369 0.807141 0.000000
0.488833 0.806821 0.000000
0.540685 0.806458 0.000000
0.592660 0.806053 0.000000
0.644418 0.805609 0.000000
0.695545 0.805133 0.000000
0.745553 0.804662 0.000000
0.793908 0.804186 0.000000
0.840393 0.803903 0.000000
0.884309 0.803447 0.000000
0.924364 0.802737 0.000000
0.958839 0.801905 0.000000
0.986407 0.801116 0.000000
1.000000 0.800516 0.000000
1.000000 0.800277 0.000000
1.000000 0.800277 0.000000
0.000000 0.852772 0.000000
0.000000 0.852772 0.000000
0.000000 0.852772 0.000000
0.000000 0.852770 0.000000
0.000000 0.852767 0.000000
0.000000 0.852760 0.000000
0.000000 0.852748 0.000000
0.000000 0.852729 0.000000
0.000000 0.852700 0.000000
0.000000 0.852658 0.000000
0.033510 0.852599 0.000000
0.114441 0.852519 0.000000
0.173181 0.852414 0.000000
0.226581 0.852279 0.000000
0.278265 0.852110 0.000000
0.329572 0.851903 0.000000
0.381061 0.851654 0.000000
0.432930 0.851359 0.000000
0.485182 0.851018 0.000000
0.537684 0.850630 0.000000
0.590206 0.850195 0.000000
0.642368 0.849771 0.000000
0.693872 0.849318 0.000000
0.744262 0.848819 0.000000
