app/src/main/assets/luts/travel_teal_orange.cube
# V-Cam procedural LUT — travel_teal_orange
# Generated by LutBaker. Do not edit by hand.
TITLE "V-Cam travel_teal_orange"
LUT_3D_SIZE 5
DOMAIN_MIN 0.0 0.0 0.0
DOMAIN_MAX 1.0 1.0 1.0
0.000000 0.092015 0.121399
0.210852 0.088767 0.103986
0.445854 0.087931 0.083557
0.680856 0.087096 0.063129
0.915858 0.086261 0.042700
0.007548 0.295917 0.101433
0.242550 0.295082 0.081005
0.477552 0.294246 0.060576
0.712554 0.293411 0.040148
0.947556 0.292576 0.019719
0.039246 0.502232 0.078452
0.274248 0.501397 0.058024
0.509250 0.500562 0.037595
0.744252 0.499726 0.017167
0.979254 0.498891 0.000000
0.070944 0.708547 0.055471
0.305946 0.707712 0.035043
0.540948 0.706877 0.014614
0.775950 0.706041 0.000000
1.000000 0.705206 0.000000
0.102642 0.914862 0.032490
0.337644 0.914027 0.012062
0.572646 0.913192 0.000000
0.807648 0.912356 0.000000
1.000000 0.911521 0.000000
0.000000 0.089957 0.339715
0.208415 0.088473 0.320097
0.443417 0.087637 0.299669
0.678419 0.086802 0.279240
0.913422 0.085967 0.258811
0.005111 0.295623 0.317545
0.240113 0.294788 0.297116
0.475115 0.293953 0.276688
0.710118 0.293117 0.256259
0.945120 0.292282 0.235830
0.036809 0.501938 0.294564
0.271811 0.501103 0.274135
0.506813 0.500268 0.253707
0.741816 0.499432 0.233278
0.976817 0.498597 0.212849
0.068507 0.708253 0.271583
0.303509 0.707418 0.251154
0.538511 0.706583 0.230725
0.773513 0.705747 0.210297
1.000000 0.704912 0.189868
0.100205 0.914569 0.248602
0.335207 0.913733 0.228173
0.570210 0.912898 0.207744
0.805211 0.912062 0.187316
1.000000 0.911227 0.166887
0.000000 0.089014 0.556637
0.205979 0.088179 0.536209
0.440981 0.087343 0.515780
0.675983 0.086508 0.495351
0.910985 0.085673 0.474923
0.002675 0.295329 0.533656
0.237677 0.294494 0.513228
0.472679 0.293659 0.492799
0.707681 0.292823 0.472370
0.942683 0.291988 0.451942
0.034373 0.501644 0.510675
0.269375 0.500809 0.490247
0.504377 0.499974 0.469818
0.739379 0.499138 0.449389
0.974381 0.498303 0.428961
0.066071 0.707959 0.487694
0.301073 0.707124 0.467266
0.536075 0.706289 0.446837
0.771077 0.705453 0.426408
1.000000 0.704618 0.405980
0.097769 0.914274 0.464713
0.332771 0.913439 0.444284
0.567773 0.912604 0.423856
0.802775 0.911768 0.403427
1.000000 0.910933 0.382999
0.000000 0.088720 0.772749
0.203542 0.087885 0.752320
0.438545 0.087049 0.731891
0.673547 0.086214 0.711463
0.908549 0.085379 0.691034
0.000238 0.295035 0.749768
0.235240 0.294200 0.729339
0.470243 0.293365 0.708910
0.705244 0.292529 0.688482
0.940247 0.291694 0.668053
0.031936 0.501350 0.726786
0.266938 0.500515 0.706358
0.501941 0.499680 0.685929
0.736943 0.498844 0.665501
0.971945 0.498009 0.645072
0.063634 0.707666 0.703805
0.298636 0.706830 0.683377
0.533638 0.705995 0.662948
0.768641 0.705159 0.642520
1.000000 0.704324 0.622091
0.095332 0.913981 0.680824
0.330334 0.913145 0.660396
0.565337 0.912310 0.639967
0.800339 0.911474 0.619539
1.000000 0.909674 0.600316
0.000000 0.088426 0.988860
0.201106 0.087591 0.968431
0.436108 0.086755 0.948003
0.671110 0.085920 0.927574
0.906112 0.085085 0.907145
0.000000 0.294741 0.965879
0.232804 0.293906 0.945450
0.467806 0.293071 0.925022
0.702808 0.292235 0.904593
0.937810 0.291400 0.884164
0.029500 0.501056 0.942898
0.264502 0.500221 0.922469
0.499504 0.499386 0.902041
0.734506 0.498550 0.881612
0.969508 0.497715 0.861183
0.061198 0.707371 0.919917
0.296200 0.706536 0.899488
0.531202 0.705701 0.879060
0.766204 0.704865 0.858631
1.000000 0.704030 0.838202
0.092896 0.913687 0.896936
0.327898 0.912851 0.876507
0.562900 0.912016 0.856079
0.797902 0.911180 0.835650
1.000000 0.907616 0.818632
