app/src/main/assets/luts/travel_city_clear.cube
# V-Cam procedural LUT — travel_city_clear
# Generated by LutBaker. Do not edit by hand.
TITLE "V-Cam travel_city_clear"
LUT_3D_SIZE 9
DOMAIN_MIN 0.0 0.0 0.0
DOMAIN_MAX 1.0 1.0 1.0
0.000000 0.000000 0.000000
0.006524 0.000000 0.000000
0.081256 0.000000 0.000000
0.214655 0.000000 0.000000
0.382889 0.000000 0.000000
0.574129 0.000000 0.000000
0.769173 0.000000 0.000000
0.934723 0.000000 0.000000
1.000000 0.000000 0.000000
0.000000 0.006546 0.000000
0.006524 0.006546 0.000000
0.081256 0.006542 0.000000
0.214654 0.006439 0.000000
0.382888 0.005459 0.000000
0.574127 0.000432 0.000000
0.769171 0.000000 0.000000
0.934720 0.000000 0.000000
1.000000 0.000000 0.000000
0.000000 0.081427 0.000000
0.006517 0.081426 0.000000
0.081251 0.081424 0.000000
0.214645 0.081376 0.000000
0.382872 0.080827 0.000000
0.574104 0.077842 0.000000
0.769144 0.066718 0.000000
0.934688 0.040455 0.000000
1.000000 0.018847 0.000000
0.000000 0.214958 0.000000
0.006315 0.214958 0.000000
0.081153 0.214953 0.000000
0.214605 0.214933 0.000000
0.382805 0.214785 0.000000
0.574002 0.213790 0.000000
0.769021 0.210036 0.000000
0.934541 0.202579 0.000000
1.000000 0.197334 0.000000
0.000000 0.383264 0.000000
0.004470 0.383263 0.000000
0.080102 0.383256 0.000000
0.214302 0.383224 0.000000
0.382634 0.383140 0.000000
0.573732 0.382815 0.000000
0.768673 0.381221 0.000000
0.934142 0.377863 0.000000
1.000000 0.375514 0.000000
0.000000 0.574321 0.000000
0.000000 0.574320 0.000000
0.074783 0.574310 0.000000
0.212511 0.574264 0.000000
0.381981 0.574145 0.000000
0.573252 0.573922 0.000000
0.767904 0.573375 0.000000
0.933340 0.571717 0.000000
1.000000 0.570514 0.000000
0.000000 0.768576 0.000000
0.000000 0.768575 0.000000
0.055774 0.768562 0.000000
0.206500 0.768503 0.000000
0.379395 0.768347 0.000000
0.572177 0.768045 0.000000
0.766858 0.767611 0.000000
0.932087 0.767014 0.000000
1.000000 0.766396 0.000000
0.000000 0.933088 0.000000
0.000000 0.933086 0.000000
0.000000 0.933071 0.000000
0.191556 0.933007 0.000000
0.372744 0.932834 0.000000
0.568869 0.932479 0.000000
0.765413 0.931910 0.000000
0.930615 0.931234 0.000000
1.000000 0.930972 0.000000
0.000000 1.000000 0.000000
0.000000 1.000000 0.000000
0.000000 1.000000 0.000000
0.177881 1.000000 0.000000
0.367071 1.000000 0.000000
0.566067 1.000000 0.000000
0.764015 1.000000 0.000000
0.929933 1.000000 0.000000
1.000000 1.000000 0.000000
0.000000 0.000000 0.006568
0.006524 0.000000 0.006568
0.081256 0.000000 0.006565
0.214655 0.000000 0.006463
0.382889 0.000000 0.005488
0.574128 0.000000 0.000470
0.769173 0.000000 0.000000
0.934722 0.000000 0.000000
1.000000 0.000000 0.000000
0.000000 0.006546 0.006568
0.006524 0.006546 0.006568
0.081255 0.006543 0.006565
0.214654 0.006440 0.006462
0.382886 0.005462 0.005484
0.574125 0.000439 0.000461
0.769168 0.000000 0.000000
0.934717 0.000000 0.000000
1.000000 0.000000 0.000000
0.000000 0.081427 0.006561
0.006517 0.081426 0.006561
0.081251 0.081424 0.006558
0.214644 0.081376 0.006424
0.382871 0.080828 0.005368
0.574102 0.077846 0.000193
0.769141 0.066727 0.000000
0.934684 0.040475 0.000000
1.000000 0.018870 0.000000
0.000000 0.214958 0.006360
0.006317 0.214957 0.006361
0.081154 0.214953 0.006342
0.214605 0.214933 0.006260
0.382804 0.214785 0.004863
0.574000 0.213791 0.000000
0.769018 0.210039 0.000000
0.934538 0.202584 0.000000
1.000000 0.197339 0.000000
0.000000 0.383264 0.004516
0.004477 0.383263 0.004521
0.080106 0.383255 0.004467
0.214303 0.383223 0.004229
0.382634 0.383140 0.003608
0.573731 0.382815 0.000000
0.768670 0.381222 0.000000
0.934139 0.377864 0.000000
1.000000 0.375516 0.000000
0.000000 0.574320 0.000000
0.000000 0.574319 0.000000
0.074793 0.574308 0.000000
0.212514 0.574263 0.000000
0.381982 0.574144 0.000000
0.573251 0.573922 0.000000
0.767902 0.573375 0.000000
0.933337 0.571717 0.000000
1.000000 0.570514 0.000000
0.000000 0.768576 0.000000
0.000000 0.768574 0.000000
0.055804 0.768560 0.000000
0.206508 0.768502 0.000000
0.379398 0.768345 0.000000
0.572178 0.768044 0.000000
0.766858 0.767610 0.000000
0.932085 0.767013 0.000000
1.000000 0.766396 0.000000
0.000000 0.933088 0.000000
0.000000 0.933083 0.000000
0.000000 0.933068 0.000000
0.191576 0.933005 0.000000
0.372751 0.932831 0.000000
0.568872 0.932477 0.000000
0.765413 0.931908 0.000000
0.930614 0.931233 0.000000
1.000000 0.930971 0.000000
0.000000 1.000000 0.000000
0.000000 1.000000 0.000000
0.000000 1.000000 0.000000
0.177908 1.000000 0.000000
0.367081 1.000000 0.000000
0.566071 1.000000 0.000000
0.764016 1.000000 0.000000
0.929932 1.000000 0.000000
1.000000 1.000000 0.000000
0.000000 0.000000 0.081604
0.006523 0.000000 0.081603
0.081255 0.000000 0.081601
0.214653 0.000000 0.081569
0.382885 0.000000 0.081062
0.574123 0.000000 0.078169
0.769167 0.000000 0.067267
0.934716 0.000000 0.041488
1.000000 0.000000 0.020044
0.000000 0.006545 0.081603
0.006523 0.006545 0.081603
0.081254 0.006541 0.081600
0.214652 0.006433 0.081568
0.382883 0.005439 0.081059
0.574120 0.000390 0.078163
0.769163 0.000000 0.067252
0.934711 0.000000 0.041457
1.000000 0.000000 0.020005
0.000000 0.081426 0.081599
0.006516 0.081425 0.081598
0.081250 0.081423 0.081596
0.214634 0.081381 0.081554
0.382852 0.080850 0.081024
0.574073 0.077904 0.078085
0.769103 0.066850 0.067054
0.934639 0.040744 0.041032
1.000000 0.019195 0.019491
0.000000 0.214956 0.081507
0.006310 0.214956 0.081507
0.081168 0.214946 0.081514
0.214602 0.214930 0.081474
0.382789 0.214788 0.080737
0.573974 0.213807 0.077379
0.768982 0.210075 0.065288
0.934494 0.202646 0.037149
1.000000 0.197416 0.014890
0.000000 0.383261 0.080474
0.004455 0.383260 0.080476
0.080160 0.383244 0.080510
0.214315 0.383213 0.080375
0.382629 0.383135 0.080020
0.573711 0.382816 0.075585
0.768634 0.381236 0.060488
0.934098 0.377887 0.026520
1.000000 0.375545 0.002336
0.000000 0.574317 0.075189
0.000000 0.574315 0.075197
0.074937 0.574291 0.075308
0.212559 0.574247 0.075013
0.381993 0.574131 0.074236
0.573245 0.573915 0.072806
0.767876 0.573374 0.052263
0.933303 0.571722 0.005172
1.000000 0.570523 0.000000
0.000000 0.768575 0.056238
0.000000 0.768573 0.056267
0.056210 0.768535 0.056674
0.206622 0.768477 0.056028
0.379441 0.768323 0.054283
0.572188 0.768027 0.050897
0.766848 0.767601 0.045990
0.932061 0.767007 0.000000
1.000000 0.766392 0.000000
0.000000 0.933094 0.000000
0.000000 0.933089 0.000000
0.000000 0.933030 0.000000
0.191839 0.932968 0.000000
0.372854 0.932797 0.000000
0.568911 0.932447 0.000000
0.765418 0.931887 0.000000
0.930600 0.931220 0.000000
1.000000 0.930960 0.000000
0.000000 1.000000 0.000000
0.000000 1.000000 0.000000
0.000000 1.000000 0.000000
0.178266 1.000000 0.000000
0.367215 1.000000 0.000000
0.566124 1.000000 0.000000
0.764029 1.000000 0.000000
0.929924 1.000000 0.000000
1.000000 1.000000 0.000000
0.000000 0.000000 0.215327
0.006485 0.000000 0.215327
0.081255 0.000000 0.215322
0.214646 0.000000 0.215301
0.382872 0.000000 0.215235
0.574100 0.000000 0.214401
0.769143 0.000000 0.210973
0.934687 0.000000 0.203893
1.000000 0.000000 0.198863
0.000000 0.006506 0.215326
0.006483 0.006505 0.215325
0.081253 0.006485 0.215320
0.214644 0.006399 0.215300
0.382870 0.005340 0.215233
0.574097 0.000177 0.214398
0.769139 0.000000 0.210967
0.934682 0.000000 0.203884
1.000000 0.000000 0.198853
0.000000 0.081416 0.215317
0.006444 0.081415 0.215316
0.081234 0.081407 0.215300
0.214628 0.081365 0.215284
0.382839 0.080794 0.215208
0.574051 0.077776 0.214357
0.769079 0.066507 0.210889
0.934611 0.039990 0.203766
1.000000 0.018298 0.198712
0.000000 0.214949 0.215277
0.006277 0.214948 0.215276
0.081152 0.214940 0.215268
0.214596 0.214924 0.215252
0.382726 0.214809 0.215138
0.573861 0.213887 0.214218
0.768823 0.210244 0.210583
0.934299 0.202928 0.203283
1.000000 0.197762 0.198128
0.000000 0.383249 0.215003
0.004356 0.383248 0.215003
0.080104 0.383232 0.215005
0.214376 0.383173 0.215033
0.382610 0.383116 0.214933
0.573628 0.382825 0.213623
0.768476 0.381305 0.209175
0.933917 0.377992 0.200768
1.000000 0.375677 0.195050
0.000000 0.574304 0.213246
0.000000 0.574302 0.213248
0.074771 0.574278 0.213277
0.212757 0.574180 0.213421
0.382043 0.574077 0.213170
0.573217 0.573887 0.212711
0.767762 0.573373 0.206852
0.933150 0.571746 0.195607
1.000000 0.570562 0.188698
0.000000 0.768571 0.207200
0.000000 0.768568 0.207208
0.055522 0.768531 0.207316
0.207123 0.768374 0.207810
0.379634 0.768229 0.207336
0.572236 0.767953 0.206439
0.766807 0.767560 0.205218
0.931953 0.766983 0.187252
1.000000 0.766378 0.178308
0.000000 0.933120 0.192104
0.000000 0.933116 0.192127
0.000000 0.933057 0.192425
0.192979 0.932808 0.193726
0.373305 0.932648 0.192389
0.569081 0.932321 0.189599
0.765440 0.931793 0.185027
0.930541 0.931160 0.179425
1.000000 0.930913 0.165540
0.000000 1.000000 0.179206
0.000000 1.000000 0.179215
0.000000 1.000000 0.179342
0.179822 1.000000 0.180631
0.367806 1.000000 0.178909
0.566362 1.000000 0.175348
0.764087 1.000000 0.169601
0.929890 1.000000 0.162686
1.000000 1.000000 0.159025
0.000000 0.000000 0.383988
0.006106 0.000000 0.383987
0.081089 0.000000 0.383979
0.214685 0.000000 0.383943
0.382836 0.000000 0.383848
0.574038 0.000000 0.383775
0.769065 0.000000 0.382676
0.934610 0.000000 0.379867
1.000000 0.000000 0.377802
0.000000 0.006123 0.383987
0.006098 0.006120 0.383984
0.081084 0.006058 0.383976
0.214683 0.005785 0.383940
0.382834 0.005069 0.383845
0.574035 0.000000 0.383772
0.769061 0.000000 0.382672
0.934605 0.000000 0.379861
1.000000 0.000000 0.377796
0.000000 0.081224 0.383970
0.005976 0.081222 0.383968
0.081025 0.081199 0.383940
0.214651 0.081045 0.383906
0.382806 0.080640 0.383817
0.573990 0.077439 0.383736
0.768998 0.065688 0.382620
0.934534 0.037920 0.379789
1.000000 0.015853 0.377714
0.000000 0.214936 0.383901
0.005445 0.214935 0.383899
0.080723 0.214921 0.383874
0.214551 0.214879 0.383777
0.382703 0.214767 0.383714
0.573807 0.213777 0.383596
0.768729 0.210023 0.382411
0.934224 0.202440 0.379486
1.000000 0.197165 0.377368
0.000000 0.383217 0.383723
0.004077 0.383216 0.383722
0.079945 0.383203 0.383708
0.214333 0.383152 0.383657
0.382590 0.383095 0.383600
0.573424 0.382879 0.383385
0.768071 0.381519 0.382030
0.933434 0.378309 0.378829
1.000000 0.376069 0.376594
0.000000 0.574267 0.383133
0.000000 0.574265 0.383133
0.074302 0.574242 0.383132
0.212612 0.574148 0.383134
0.382200 0.573951 0.383214
0.573160 0.573829 0.383057
0.767477 0.573391 0.381071
0.932745 0.571831 0.376646
1.000000 0.570691 0.373932
0.000000 0.768559 0.380504
0.000000 0.768556 0.380507
0.053525 0.768519 0.380539
0.206593 0.768363 0.380693
0.380156 0.767997 0.381180
0.572374 0.767774 0.380838
0.766714 0.767465 0.380378
0.931671 0.766928 0.373208
1.000000 0.766353 0.369732
0.000000 0.933186 0.373649
0.000000 0.933181 0.373658
0.000000 0.933122 0.373768
0.191197 0.932869 0.374253
0.374484 0.932276 0.375533
0.569542 0.932003 0.374416
0.765509 0.931558 0.372569
0.930395 0.931014 0.370323
1.000000 0.930794 0.364845
0.000000 1.000000 0.368858
0.000000 1.000000 0.368861
0.000000 1.000000 0.368900
0.178453 1.000000 0.369086
0.369356 1.000000 0.370427
0.567001 1.000000 0.369026
0.764252 1.000000 0.366758
0.929807 1.000000 0.364072
1.000000 1.000000 0.362671
0.000000 0.000000 0.575759
0.004150 0.000000 0.575758
0.080035 0.000000 0.575745
0.214489 0.000000 0.575689
0.383015 0.000000 0.575540
0.573917 0.000000 0.575256
0.768839 0.000000 0.575330
0.934454 0.000000 0.574500
1.000000 0.000000 0.573683
0.000000 0.004162 0.575757
0.004133 0.004156 0.575754
0.080025 0.004012 0.575741
0.214484 0.003377 0.575685
0.383012 0.001700 0.575536
0.573914 0.000000 0.575252
0.768834 0.000000 0.575326
0.934449 0.000000 0.574495
1.000000 0.000000 0.573678
0.000000 0.080120 0.575733
0.003849 0.080116 0.575729
0.079886 0.080063 0.575686
0.214423 0.079688 0.575631
0.382968 0.078691 0.575486
0.573873 0.076803 0.575211
0.768774 0.064592 0.575275
0.934379 0.033764 0.574434
1.000000 0.010945 0.573611
0.000000 0.214639 0.575626
0.002606 0.214638 0.575623
0.079148 0.214612 0.575582
0.214192 0.214522 0.575408
0.382795 0.214190 0.575281
0.573704 0.213572 0.575042
0.768514 0.209695 0.575063
0.934075 0.201455 0.574171
1.000000 0.195960 0.573323
0.000000 0.383233 0.575353
0.000000 0.383231 0.575350
0.077183 0.383212 0.575316
0.213539 0.383135 0.575173
0.382505 0.383012 0.574845
0.573361 0.382812 0.574698
0.767888 0.381391 0.574601
0.933300 0.377884 0.573555
1.000000 0.375551 0.572640
0.000000 0.574193 0.574863
0.000000 0.574191 0.574861
0.073248 0.574170 0.574840
0.212288 0.574085 0.574754
0.382105 0.573910 0.574579
0.573119 0.573786 0.574453
0.767011 0.573497 0.574167
0.931979 0.572087 0.572764
1.000000 0.571033 0.571713
0.000000 0.768530 0.573838
0.000000 0.768528 0.573838
0.048898 0.768491 0.573831
0.205409 0.768337 0.573808
0.379738 0.767977 0.573808
0.572673 0.767507 0.574013
0.766599 0.767349 0.573830
0.931063 0.766907 0.571427
1.000000 0.766363 0.569727
0.000000 0.933077 0.570717
0.000000 0.933074 0.570717
0.000000 0.933036 0.570716
0.188536 0.932872 0.570717
0.373174 0.932346 0.570969
0.570427 0.931476 0.571781
0.765685 0.931170 0.570988
0.930164 0.930780 0.569981
1.000000 0.930597 0.567636
0.000000 1.000000 0.568426
0.000000 1.000000 0.568426
0.000000 1.000000 0.568431
0.177110 1.000000 0.568456
0.368076 1.000000 0.568576
0.568231 1.000000 0.569597
0.764612 1.000000 0.568527
0.929693 1.000000 0.567209
1.000000 1.000000 0.566509
0.000000 0.000000 0.771265
0.000000 0.000000 0.771264
0.076396 0.000000 0.771247
0.213453 0.000000 0.771171
0.382935 0.000000 0.770967
0.574398 0.000000 0.770570
0.768485 0.000000 0.769988
0.934211 0.000000 0.770511
1.000000 0.000000 0.770390
0.000000 0.000000 0.771263
0.000000 0.000000 0.771259
0.076376 0.000000 0.771241
0.213445 0.000000 0.771166
0.382930 0.000000 0.770962
0.574394 0.000000 0.770565
0.768481 0.000000 0.769983
0.934206 0.000000 0.770506
1.000000 0.000000 0.770385
0.000000 0.076399 0.771231
0.000000 0.076392 0.771227
0.076109 0.076294 0.771167
0.213337 0.075547 0.771092
0.382863 0.073522 0.770890
0.574337 0.069505 0.770500
0.768424 0.063410 0.769926
0.934138 0.027290 0.770444
1.000000 0.003298 0.770319
0.000000 0.213443 0.771093
0.000000 0.213440 0.771089
0.074615 0.213398 0.771030
0.212904 0.213238 0.770773
0.382586 0.212555 0.770584
0.574098 0.211241 0.770218
0.768182 0.209355 0.769684
0.933843 0.199911 0.770177
1.000000 0.194068 0.770035
0.000000 0.382895 0.770742
0.000000 0.382893 0.770738
0.070445 0.382864 0.770683
0.211526 0.382750 0.770443
0.382026 0.382535 0.769838
0.573569 0.382007 0.769540
0.767614 0.381270 0.769115
0.933092 0.377221 0.769516
1.000000 0.374742 0.769328
0.000000 0.574325 0.770124
0.000000 0.574323 0.770120
0.061070 0.574295 0.770072
0.208665 0.574178 0.769864
0.380921 0.573924 0.769354
0.573015 0.573685 0.768586
0.766869 0.573454 0.768367
0.931654 0.571952 0.768454
1.000000 0.570646 0.768213
0.000000 0.768420 0.769173
0.000000 0.768418 0.769171
0.041554 0.768390 0.769143
0.203326 0.768270 0.769023
0.378948 0.767930 0.768681
0.572477 0.767480 0.768229
0.766546 0.767293 0.768039
0.930358 0.767020 0.767770
1.000000 0.766566 0.767319
0.000000 0.932833 0.767932
0.000000 0.932830 0.767930
0.000000 0.932794 0.767909
0.186872 0.932639 0.767822
0.371955 0.932243 0.767619
0.569716 0.931485 0.767416
0.766036 0.930750 0.767537
0.929943 0.930556 0.767213
1.000000 0.930427 0.766425
0.000000 1.000000 0.766809
0.000000 1.000000 0.766807
0.000000 1.000000 0.766790
0.174996 1.000000 0.766719
0.367247 1.000000 0.766561
0.567334 1.000000 0.766411
0.765233 1.000000 0.766741
0.929636 1.000000 0.766194
1.000000 1.000000 0.765888
0.000000 0.000000 0.937138
0.000000 0.000000 0.937136
0.068606 0.000000 0.937118
0.211078 0.000000 0.937035
0.382286 0.000000 0.936810
0.574685 0.000000 0.936364
0.769448 0.000000 0.935682
0.933688 0.000000 0.934920
1.000000 0.000000 0.935458
0.000000 0.000000 0.937135
0.000000 0.000000 0.937130
0.068572 0.000000 0.937111
0.211066 0.000000 0.937028
0.382279 0.000000 0.936804
0.574680 0.000000 0.936357
0.769442 0.000000 0.935675
0.933682 0.000000 0.934914
1.000000 0.000000 0.935453
0.000000 0.068486 0.937104
0.000000 0.068474 0.937098
0.068112 0.068315 0.937021
0.210899 0.066995 0.936939
0.382182 0.063314 0.936715
0.574604 0.055510 0.936271
0.769370 0.041905 0.935594
0.933606 0.024714 0.934838
1.000000 0.000000 0.935385
0.000000 0.210850 0.936968
0.000000 0.210846 0.936962
0.065414 0.210786 0.936885
0.210206 0.210547 0.936545
0.381776 0.209387 0.936326
0.574282 0.207077 0.935894
0.769059 0.203529 0.935236
0.933276 0.199548 0.934507
1.000000 0.191877 0.935087
0.000000 0.381901 0.936632
0.000000 0.381898 0.936627
0.057366 0.381860 0.936550
0.207797 0.381702 0.936211
0.380875 0.381389 0.935319
0.573529 0.380408 0.934922
0.768299 0.378941 0.934329
0.932452 0.377358 0.933682
1.000000 0.373814 0.934327
0.000000 0.574131 0.935862
0.000000 0.574128 0.935858
0.038112 0.574094 0.935803
0.202652 0.573949 0.935562
0.378722 0.573610 0.934787
0.572581 0.573256 0.933282
0.767186 0.572668 0.932841
0.931193 0.572023 0.932419
1.000000 0.570463 0.932894
0.000000 0.768670 0.934610
0.000000 0.768668 0.934607
0.004732 0.768636 0.934562
0.194600 0.768495 0.934365
0.375140 0.768146 0.933855
0.571122 0.767569 0.932755
0.766460 0.767210 0.931587
0.930230 0.766958 0.931454
1.000000 0.766473 0.931576
0.000000 0.932556 0.933173
0.000000 0.932554 0.933170
0.000000 0.932520 0.933137
0.184899 0.932375 0.932991
0.371160 0.932006 0.932621
0.569082 0.931383 0.931998
0.765843 0.930704 0.931315
0.929862 0.930473 0.931081
1.000000 0.930412 0.931022
0.000000 1.000000 0.932687
0.000000 1.000000 0.932685
0.000000 1.000000 0.932654
0.172544 1.000000 0.932521
0.366295 1.000000 0.932186
0.566840 1.000000 0.931633
0.764934 1.000000 0.931091
0.929738 1.000000 0.930961
1.000000 1.000000 0.930892
0.000000 0.000000 1.000000
0.000000 0.000000 1.000000
0.062716 0.000000 1.000000
0.209330 0.000000 1.000000
0.381709 0.000000 1.000000
0.574714 0.000000 1.000000
0.769913 0.000000 1.000000
0.934496 0.000000 1.000000
1.000000 0.000000 1.000000
0.000000 0.000000 1.000000
0.000000 0.000000 1.000000
0.062672 0.000000 1.000000
0.209315 0.000000 1.000000
0.381701 0.000000 1.000000
0.574708 0.000000 1.000000
0.769907 0.000000 1.000000
0.934490 0.000000 1.000000
1.000000 0.000000 1.000000
0.000000 0.062529 1.000000
0.000000 0.062511 1.000000
0.062074 0.062292 1.000000
0.209114 0.060556 1.000000
0.381587 0.055623 1.000000
0.574622 0.044657 1.000000
0.769826 0.024960 1.000000
0.934406 0.002150 1.000000
1.000000 0.000000 1.000000
0.000000 0.209005 1.000000
0.000000 0.208999 1.000000
0.058578 0.208916 1.000000
0.208264 0.208609 1.000000
0.381106 0.207158 1.000000
0.574254 0.204215 1.000000
0.769479 0.199558 1.000000
0.934040 0.194104 1.000000
1.000000 0.191282 1.000000
0.000000 0.381166 1.000000
0.000000 0.381163 1.000000
0.048253 0.381115 1.000000
0.205307 0.380910 1.000000
0.380004 0.380522 1.000000
0.573375 0.379262 1.000000
0.768617 0.377321 1.000000
0.933112 0.375138 1.000000
1.000000 0.374046 1.000000
0.000000 0.573882 1.000000
0.000000 0.573879 1.000000
0.023629 0.573842 1.000000
0.199311 0.573681 1.000000
0.377280 0.573293 1.000000
0.572197 0.572874 1.000000
0.767303 0.572052 1.000000
0.931656 0.571089 1.000000
1.000000 0.570533 1.000000
0.000000 0.768701 1.000000
0.000000 0.768698 1.000000
0.000000 0.768663 1.000000
0.189550 0.768512 1.000000
0.373123 0.768135 1.000000
0.570117 0.767528 1.000000
0.766329 0.767081 1.000000
0.930408 0.766666 1.000000
1.000000 0.766431 1.000000
0.000000 0.932758 1.000000
0.000000 0.932755 1.000000
0.000000 0.932720 1.000000
0.177645 0.932567 1.000000
0.368287 0.932175 1.000000
0.567777 0.931508 1.000000
0.765347 0.930768 1.000000
0.929839 0.930451 1.000000
1.000000 0.930390 1.000000
0.000000 1.000000 1.000000
0.000000 1.000000 1.000000
0.000000 1.000000 1.000000
0.171303 1.000000 1.000000
0.365818 1.000000 1.000000
0.566616 1.000000 1.000000
0.764789 1.000000 1.000000
0.929711 1.000000 1.000000
1.000000 1.000000 1.000000
