app/src/main/assets/luts/travel_golden_hour.cube
# V-Cam procedural LUT — travel_golden_hour
# Generated by LutBaker. Do not edit by hand.
TITLE "V-Cam travel_golden_hour"
LUT_3D_SIZE 9
DOMAIN_MIN 0.0 0.0 0.0
DOMAIN_MAX 1.0 1.0 1.0
0.000000 0.000000 0.000000
0.008652 0.000000 0.000000
0.089867 0.000000 0.000000
0.228263 0.000000 0.000000
0.402980 0.000000 0.000000
0.601755 0.000000 0.000000
0.804204 0.000000 0.000000
0.970556 0.000000 0.000000
1.000000 0.000000 0.000000
0.000000 0.007476 0.000000
0.008651 0.007476 0.000000
0.089865 0.007456 0.000000
0.228259 0.006936 0.000000
0.402975 0.002156 0.000000
0.601746 0.000000 0.000000
0.804195 0.000000 0.000000
0.970545 0.000000 0.000000
1.000000 0.000000 0.000000
0.000000 0.081576 0.000000
0.008622 0.081575 0.000000
0.089846 0.081565 0.000000
0.228221 0.081314 0.000000
0.402911 0.078585 0.000000
0.601652 0.062902 0.000000
0.804084 0.000000 0.000000
0.970414 0.000000 0.000000
1.000000 0.000000 0.000000
0.000000 0.212421 0.000000
0.007857 0.212419 0.000000
0.089516 0.212398 0.000000
0.228058 0.212313 0.000000
0.402638 0.211534 0.000000
0.601242 0.206557 0.000000
0.803601 0.187773 0.000000
0.969847 0.148261 0.000000
1.000000 0.125094 0.000000
0.000000 0.378074 0.000000
0.000929 0.378071 0.000000
0.085878 0.378038 0.000000
0.227048 0.377898 0.000000
0.401940 0.377550 0.000000
0.600152 0.375824 0.000000
0.802288 0.367985 0.000000
0.968305 0.352718 0.000000
1.000000 0.345049 0.000000
0.000000 0.567356 0.000000
0.000000 0.567352 0.000000
0.065623 0.567306 0.000000
0.220800 0.567108 0.000000
0.399764 0.566594 0.000000
0.598161 0.565707 0.000000
0.799362 0.562727 0.000000
0.965193 0.555284 0.000000
1.000000 0.551522 0.000000
0.000000 0.762088 0.000000
0.000000 0.762083 0.000000
0.000000 0.762023 0.000000
0.198387 0.761767 0.000000
0.390751 0.761092 0.000000
0.594542 0.759818 0.000000
0.794868 0.758224 0.000000
0.960281 0.755123 0.000000
1.000000 0.753189 0.000000
0.000000 0.931802 0.000000
0.000000 0.931795 0.000000
0.000000 0.931722 0.000000
0.128956 0.931409 0.000000
0.366039 0.930673 0.000000
0.582951 0.929184 0.000000
0.789881 0.926835 0.000000
0.954424 0.924446 0.000000
1.000000 0.923533 0.000000
0.000000 1.000000 0.000000
0.000000 1.000000 0.000000
0.000000 1.000000 0.000000
0.000000 1.000000 0.000000
0.339861 1.000000 0.000000
0.571216 1.000000 0.000000
0.784307 1.000000 0.000000
0.951340 1.000000 0.000000
1.000000 1.000000 0.000000
0.000000 0.000000 0.006124
0.008652 0.000000 0.006124
0.089867 0.000000 0.006105
0.228262 0.000000 0.005591
0.402979 0.000000 0.000826
0.601753 0.000000 0.000000
0.804203 0.000000 0.000000
0.970554 0.000000 0.000000
1.000000 0.000000 0.000000
0.000000 0.007476 0.006124
0.008651 0.007476 0.006124
0.089864 0.007456 0.006103
0.228256 0.006940 0.005583
0.402969 0.002168 0.000802
0.601738 0.000000 0.000000
0.804184 0.000000 0.000000
0.970532 0.000000 0.000000
1.000000 0.000000 0.000000
0.000000 0.081576 0.006094
0.008623 0.081574 0.006094
0.089846 0.081564 0.006070
0.228218 0.081315 0.005415
0.402905 0.078591 0.000293
0.601644 0.062922 0.000000
0.804074 0.000000 0.000000
0.970402 0.000000 0.000000
1.000000 0.000000 0.000000
0.000000 0.212420 0.005327
0.007865 0.212417 0.005330
0.089519 0.212397 0.005246
0.228057 0.212313 0.004703
0.402633 0.211536 0.000000
0.601234 0.206563 0.000000
0.803591 0.187786 0.000000
0.969835 0.148286 0.000000
1.000000 0.125128 0.000000
0.000000 0.378073 0.000000
0.000955 0.378068 0.000000
0.085892 0.378035 0.000000
0.227051 0.377895 0.000000
0.401938 0.377549 0.000000
0.600147 0.375825 0.000000
0.802279 0.367989 0.000000
0.968293 0.352725 0.000000
1.000000 0.345057 0.000000
0.000000 0.567355 0.000000
0.000000 0.567348 0.000000
0.065666 0.567302 0.000000
0.220811 0.567104 0.000000
0.399766 0.566591 0.000000
0.598158 0.565705 0.000000
0.799353 0.562727 0.000000
0.965183 0.555286 0.000000
1.000000 0.551525 0.000000
0.000000 0.762088 0.000000
0.000000 0.762076 0.000000
0.000000 0.762017 0.000000
0.198418 0.761760 0.000000
0.390761 0.761086 0.000000
0.594544 0.759814 0.000000
0.794865 0.758222 0.000000
0.960274 0.755122 0.000000
1.000000 0.753188 0.000000
0.000000 0.931803 0.000000
0.000000 0.931785 0.000000
0.000000 0.931712 0.000000
0.129061 0.931399 0.000000
0.366066 0.930664 0.000000
0.582959 0.929176 0.000000
0.789881 0.926829 0.000000
0.954419 0.924442 0.000000
1.000000 0.923530 0.000000
0.000000 1.000000 0.000000
0.000000 1.000000 0.000000
0.000000 1.000000 0.000000
0.000000 1.000000 0.000000
0.339900 1.000000 0.000000
0.571229 1.000000 0.000000
0.784310 1.000000 0.000000
0.951337 1.000000 0.000000
1.000000 1.000000 0.000000
0.000000 0.000000 0.071040
0.008650 0.000000 0.071039
0.089864 0.000000 0.071034
0.228256 0.000000 0.070806
0.402969 0.000000 0.067879
0.601735 0.000000 0.050194
0.804185 0.000000 0.000000
0.970533 0.000000 0.000000
1.000000 0.000000 0.000000
0.000000 0.007473 0.071038
0.008648 0.007472 0.071036
0.089861 0.007451 0.071031
0.228249 0.006914 0.070800
0.402957 0.002092 0.067863
0.601719 0.000000 0.050152
0.804165 0.000000 0.000000
0.970509 0.000000 0.000000
1.000000 0.000000 0.000000
0.000000 0.081573 0.071023
0.008620 0.081571 0.071021
0.089840 0.081562 0.071015
0.228182 0.081334 0.070731
0.402841 0.078671 0.067658
0.601547 0.063170 0.049584
0.803948 0.000000 0.000000
0.970254 0.000000 0.000000
1.000000 0.000000 0.000000
0.000000 0.212415 0.070610
0.007846 0.212411 0.070612
0.089557 0.212375 0.070625
0.228043 0.212304 0.070315
0.402580 0.211549 0.066208
0.601145 0.206627 0.045236
0.803470 0.187932 0.000000
0.969690 0.148584 0.000000
1.000000 0.125528 0.000000
0.000000 0.378065 0.066109
0.000898 0.378058 0.066123
0.086051 0.377997 0.066199
0.227082 0.377864 0.065503
0.401916 0.377534 0.062515
0.600077 0.375834 0.033237
0.802170 0.368033 0.000000
0.968158 0.352813 0.000000
1.000000 0.345163 0.000000
0.000000 0.567345 0.039417
0.000000 0.567336 0.039482
0.066165 0.567247 0.039869
0.220939 0.567054 0.037845
0.399791 0.566552 0.032650
0.598127 0.565686 0.014424
0.799256 0.562732 0.000000
0.965067 0.555307 0.000000
1.000000 0.551555 0.000000
0.000000 0.762084 0.000000
0.000000 0.762070 0.000000
0.000000 0.761937 0.000000
0.198783 0.761684 0.000000
0.390883 0.761018 0.000000
0.594564 0.759762 0.000000
0.794819 0.758192 0.000000
0.960188 0.755106 0.000000
1.000000 0.753178 0.000000
0.000000 0.931819 0.000000
0.000000 0.931796 0.000000
0.000000 0.931590 0.000000
0.130297 0.931283 0.000000
0.366387 0.930556 0.000000
0.583065 0.929086 0.000000
0.789882 0.926765 0.000000
0.954363 0.924400 0.000000
1.000000 0.923496 0.000000
0.000000 1.000000 0.000000
0.000000 1.000000 0.000000
0.000000 1.000000 0.000000
0.000000 1.000000 0.000000
0.340369 1.000000 0.000000
0.571390 1.000000 0.000000
0.784339 1.000000 0.000000
0.951304 1.000000 0.000000
1.000000 1.000000 0.000000
0.000000 0.000000 0.192430
0.008555 0.000000 0.192429
0.089881 0.000000 0.192409
0.228229 0.000000 0.192369
0.402923 0.000000 0.191764
0.601658 0.000000 0.186721
0.804107 0.000000 0.166662
0.970442 0.000000 0.121684
1.000000 0.000000 0.093109
0.000000 0.007373 0.192427
0.008547 0.007369 0.192422
0.089875 0.007296 0.192402
0.228222 0.006797 0.192363
0.402911 0.001741 0.191754
0.601642 0.000000 0.186704
0.804087 0.000000 0.166627
0.970417 0.000000 0.121613
1.000000 0.000000 0.093008
0.000000 0.081554 0.192394
0.008424 0.081550 0.192388
0.089814 0.081519 0.192333
0.228153 0.081284 0.192301
0.402785 0.078497 0.191649
0.601453 0.062728 0.186517
0.803846 0.000000 0.166215
0.970133 0.000000 0.120794
1.000000 0.000000 0.091838
0.000000 0.212390 0.192260
0.007745 0.212387 0.192257
0.089536 0.212349 0.192229
0.227997 0.212285 0.192185
0.402358 0.211629 0.191307
0.600759 0.206927 0.185739
0.802942 0.188596 0.164270
0.969059 0.149908 0.116714
1.000000 0.127299 0.085865
0.000000 0.378027 0.190982
0.000591 0.378020 0.190984
0.085973 0.377949 0.191007
0.227237 0.377738 0.191052
0.401825 0.377481 0.190198
0.599777 0.375884 0.182644
0.801696 0.368235 0.155626
0.967568 0.353206 0.097017
1.000000 0.345636 0.053964
0.000000 0.567302 0.183138
0.000000 0.567292 0.183151
0.065880 0.567185 0.183313
0.221509 0.566839 0.183642
0.399907 0.566386 0.182337
0.597997 0.565605 0.177752
0.798837 0.562757 0.140055
0.964561 0.555407 0.039168
1.000000 0.551694 0.000000
0.000000 0.762067 0.153984
0.000000 0.762053 0.154040
0.000000 0.761889 0.154698
0.200376 0.761359 0.156224
0.391419 0.760728 0.153397
0.594657 0.759545 0.148100
0.794625 0.758069 0.126618
0.959816 0.755042 0.000000
1.000000 0.753139 0.000000
0.000000 0.931890 0.033399
0.000000 0.931867 0.033860
0.000000 0.931601 0.039279
0.135535 0.930781 0.050803
0.367775 0.930095 0.029130
0.583526 0.928701 0.000000
0.789890 0.926489 0.000000
0.954122 0.924217 0.000000
1.000000 0.923347 0.000000
0.000000 1.000000 0.000000
0.000000 1.000000 0.000000
0.000000 1.000000 0.000000
0.000000 1.000000 0.000000
0.342398 1.000000 0.000000
0.572092 1.000000 0.000000
0.784471 1.000000 0.000000
0.951163 1.000000 0.000000
1.000000 1.000000 0.000000
0.000000 0.000000 0.347406
0.007575 0.000000 0.347403
0.089551 0.000000 0.347369
0.228380 0.000000 0.347225
0.402796 0.000000 0.347070
0.601445 0.000000 0.345967
0.803894 0.000000 0.338940
0.970191 0.000000 0.323692
1.000000 0.000000 0.315810
0.000000 0.006376 0.347401
0.007547 0.006363 0.347391
0.089534 0.006133 0.347358
0.228371 0.005149 0.347214
0.402786 0.000801 0.347060
0.601429 0.000000 0.345954
0.803874 0.000000 0.338919
0.970167 0.000000 0.323663
1.000000 0.000000 0.315777
0.000000 0.081076 0.347343
0.007156 0.081068 0.347333
0.089354 0.080974 0.347228
0.228264 0.080425 0.347096
0.402666 0.077949 0.346951
0.601244 0.061312 0.345804
0.803635 0.000000 0.338678
0.969885 0.000000 0.323322
1.000000 0.000000 0.315393
0.000000 0.212382 0.347100
0.005487 0.212376 0.347091
0.088509 0.212320 0.346994
0.227945 0.212168 0.346673
0.402223 0.211512 0.346565
0.600491 0.206640 0.345244
0.802626 0.187712 0.337718
0.968679 0.148170 0.321927
1.000000 0.124980 0.313812
0.000000 0.377923 0.346524
0.000000 0.377918 0.346520
0.085523 0.377854 0.346469
0.227225 0.377631 0.346307
0.401652 0.377416 0.346165
0.599018 0.376095 0.344275
0.800349 0.368967 0.335509
0.965975 0.354378 0.318167
1.000000 0.347025 0.309438
0.000000 0.567182 0.343699
0.000000 0.567173 0.343699
0.064297 0.567070 0.343711
0.221447 0.566659 0.343814
0.400280 0.565990 0.343970
0.597692 0.565434 0.342395
0.797753 0.562877 0.330176
0.963198 0.555733 0.306577
1.000000 0.552128 0.295727
0.000000 0.762020 0.331812
0.000000 0.762006 0.331828
0.000000 0.761843 0.332018
0.199802 0.761172 0.332897
0.392897 0.759994 0.334112
0.594941 0.759003 0.332309
0.794152 0.757779 0.325749
0.958819 0.754900 0.287255
1.000000 0.753067 0.272550
0.000000 0.932081 0.298980
0.000000 0.932058 0.299040
0.000000 0.931793 0.299729
0.131306 0.930712 0.302630
0.371469 0.928910 0.305969
0.584782 0.927714 0.299550
0.789943 0.925784 0.289000
0.953505 0.923758 0.266676
1.000000 0.922968 0.242123
0.000000 1.000000 0.267747
0.000000 1.000000 0.267772
0.000000 1.000000 0.268067
0.000000 1.000000 0.269418
0.347788 1.000000 0.273900
0.573995 1.000000 0.264692
0.784852 1.000000 0.249666
0.950810 1.000000 0.231801
1.000000 1.000000 0.224708
0.000000 0.000000 0.527534
0.002334 0.000000 0.527530
0.087062 0.000000 0.527478
0.228129 0.000000 0.527254
0.403288 0.000000 0.526668
0.601004 0.000000 0.526305
0.803315 0.000000 0.525167
0.969677 0.000000 0.519490
1.000000 0.000000 0.516255
0.000000 0.001104 0.527527
0.002271 0.001074 0.527513
0.087025 0.000531 0.527461
0.228111 0.000000 0.527237
0.403275 0.000000 0.526653
0.600989 0.000000 0.526291
0.803294 0.000000 0.525149
0.969653 0.000000 0.519468
1.000000 0.000000 0.516231
0.000000 0.078119 0.527439
0.001348 0.078100 0.527423
0.086600 0.077878 0.527263
0.227912 0.076475 0.527047
0.403123 0.072739 0.526483
0.600814 0.058599 0.526131
0.803042 0.000000 0.524941
0.969375 0.000000 0.519209
1.000000 0.000000 0.515952
0.000000 0.211652 0.527065
0.000000 0.211643 0.527051
0.084424 0.211543 0.526885
0.227196 0.211185 0.526282
0.402539 0.210005 0.525803
0.600105 0.205879 0.525494
0.801980 0.186007 0.524096
0.968185 0.143345 0.518133
1.000000 0.118468 0.514788
0.000000 0.378005 0.526112
0.000000 0.377998 0.526101
0.078500 0.377916 0.525969
0.225390 0.377617 0.525436
0.401580 0.377195 0.524444
0.598594 0.375953 0.524233
0.799371 0.368797 0.522286
0.965139 0.353350 0.515629
1.000000 0.345820 0.512050
0.000000 0.566936 0.524531
0.000000 0.566928 0.524525
0.060731 0.566832 0.524448
0.220546 0.566455 0.524156
0.400330 0.565725 0.523661
0.597287 0.565289 0.523392
0.795826 0.563331 0.520357
0.960520 0.556645 0.511688
1.000000 0.553261 0.507518
0.000000 0.761914 0.519498
0.000000 0.761900 0.519498
0.000000 0.761739 0.519500
0.196180 0.761078 0.519547
0.392840 0.759586 0.519971
0.595622 0.758134 0.520559
0.793433 0.757384 0.518222
0.956894 0.754776 0.503418
1.000000 0.753087 0.497735
0.000000 0.932025 0.504296
0.000000 0.932010 0.504297
0.000000 0.931840 0.504319
0.113187 0.931028 0.504641
0.370343 0.928506 0.507116
0.587308 0.925977 0.508710
0.790175 0.924557 0.504405
0.952427 0.922988 0.495878
1.000000 0.922310 0.486570
0.000000 1.000000 0.491608
0.000000 1.000000 0.491613
0.000000 1.000000 0.491669
0.000000 1.000000 0.491950
0.346546 1.000000 0.493422
0.577798 1.000000 0.495748
0.785723 1.000000 0.489786
0.950228 1.000000 0.482935
1.000000 1.000000 0.480299
0.000000 0.000000 0.719138
0.000000 0.000000 0.719132
0.077345 0.000000 0.719060
0.225740 0.000000 0.718749
0.403634 0.000000 0.717930
0.601996 0.000000 0.716374
0.801974 0.000000 0.716121
0.968842 0.000000 0.716136
1.000000 0.000000 0.715195
0.000000 0.000000 0.719128
0.000000 0.000000 0.719109
0.077269 0.000000 0.719037
0.225710 0.000000 0.718727
0.403614 0.000000 0.717908
0.601979 0.000000 0.716355
0.801953 0.000000 0.716102
0.968819 0.000000 0.716115
1.000000 0.000000 0.715173
0.000000 0.066936 0.719010
0.000000 0.066899 0.718989
0.076382 0.066432 0.718767
0.225362 0.063297 0.718462
0.403385 0.054474 0.717657
0.601776 0.034801 0.716130
0.801713 0.000000 0.715882
0.968546 0.000000 0.715869
1.000000 0.000000 0.714915
0.000000 0.208300 0.718508
0.000000 0.208285 0.718487
0.071550 0.208118 0.718248
0.224007 0.207438 0.717351
0.402472 0.204884 0.716605
0.600948 0.200051 0.715197
0.800702 0.184477 0.714963
0.967383 0.135138 0.714834
1.000000 0.107093 0.713827
0.000000 0.377213 0.717233
0.000000 0.377203 0.717214
0.057086 0.377086 0.716995
0.219994 0.376637 0.716073
0.400660 0.375802 0.714113
0.599124 0.373972 0.713025
0.798267 0.368279 0.712818
0.964410 0.350711 0.712301
1.000000 0.342723 0.711149
0.000000 0.567308 0.714952
0.000000 0.567298 0.714937
0.018636 0.567182 0.714756
0.211610 0.566717 0.714006
0.397761 0.565775 0.712260
0.597211 0.565019 0.710221
0.794771 0.563373 0.710033
0.959249 0.556042 0.708447
1.000000 0.552547 0.707002
0.000000 0.761704 0.711970
0.000000 0.761690 0.711959
0.000000 0.761532 0.711832
0.189184 0.760883 0.711319
0.390715 0.759429 0.710231
0.595754 0.757716 0.709183
0.792771 0.757154 0.708850
0.953712 0.755251 0.705502
1.000000 0.753592 0.703077
0.000000 0.931203 0.705520
0.000000 0.931189 0.705513
0.000000 0.931026 0.705441
0.101633 0.930337 0.705150
0.364103 0.928613 0.704557
0.587387 0.925174 0.704944
0.790850 0.923097 0.705042
0.951138 0.922165 0.701920
1.000000 0.921635 0.698443
0.000000 1.000000 0.699230
0.000000 1.000000 0.699226
0.000000 1.000000 0.699174
0.000000 1.000000 0.698972
0.342706 1.000000 0.698623
0.578089 1.000000 0.699331
0.787377 1.000000 0.699593
0.949652 1.000000 0.696489
1.000000 1.000000 0.695273
0.000000 0.000000 0.898417
0.000000 0.000000 0.898410
0.049891 0.000000 0.898327
0.218912 0.000000 0.897967
0.402328 0.000000 0.897007
0.603738 0.000000 0.895142
0.803313 0.000000 0.892396
0.967782 0.000000 0.893177
1.000000 0.000000 0.893607
0.000000 0.000000 0.898406
0.000000 0.000000 0.898382
0.049719 0.000000 0.898298
0.218864 0.000000 0.897939
0.402300 0.000000 0.896979
0.603715 0.000000 0.895116
0.803291 0.000000 0.892372
0.967759 0.000000 0.893155
1.000000 0.000000 0.893585
0.000000 0.034029 0.898279
0.000000 0.033947 0.898252
0.047704 0.032900 0.897966
0.218304 0.025598 0.897609
0.401970 0.006186 0.896657
0.603448 0.000000 0.894807
0.803028 0.000000 0.892087
0.967495 0.000000 0.892901
1.000000 0.000000 0.893322
0.000000 0.199724 0.897740
0.000000 0.199701 0.897713
0.035572 0.199442 0.897396
0.216029 0.198322 0.896198
0.400620 0.193639 0.895277
0.602335 0.184285 0.893493
0.801921 0.169823 0.890882
0.966343 0.124130 0.891802
1.000000 0.090835 0.892204
0.000000 0.374159 0.896394
0.000000 0.374145 0.896368
0.000443 0.373982 0.896056
0.208520 0.373347 0.894726
0.397661 0.371995 0.891760
0.599745 0.368340 0.890176
0.799232 0.363094 0.887886
0.962919 0.348665 0.888656
1.000000 0.338749 0.889372
0.000000 0.566988 0.893961
0.000000 0.566975 0.893941
0.000000 0.566830 0.893712
0.191080 0.566216 0.892473
0.391572 0.564913 0.889270
0.596467 0.563591 0.884758
0.795278 0.561625 0.883188
0.957296 0.556098 0.883693
1.000000 0.550966 0.884513
0.000000 0.762287 0.889405
0.000000 0.762275 0.889390
0.000000 0.762135 0.889207
0.159116 0.761548 0.888431
0.379715 0.760138 0.886480
0.592980 0.757899 0.882273
0.792702 0.756920 0.879579
0.952365 0.755299 0.879642
1.000000 0.753701 0.879524
0.000000 0.930159 0.884647
0.000000 0.930146 0.884635
0.000000 0.929993 0.884499
0.087781 0.929346 0.883928
0.361191 0.927734 0.882530
0.584752 0.925037 0.880331
0.791116 0.922426 0.878644
0.950188 0.921763 0.878202
1.000000 0.921430 0.877457
0.000000 1.000000 0.881750
0.000000 1.000000 0.881740
0.000000 1.000000 0.881619
0.000000 1.000000 0.881114
0.338805 1.000000 0.879896
0.575369 1.000000 0.878093
0.787957 1.000000 0.877058
0.949519 1.000000 0.876748
1.000000 1.000000 0.876347
0.000000 0.000000 1.000000
0.000000 0.000000 1.000000
0.004175 0.000000 1.000000
0.209571 0.000000 1.000000
0.399685 0.000000 1.000000
0.604458 0.000000 1.000000
0.806469 0.000000 1.000000
0.968345 0.000000 1.000000
1.000000 0.000000 1.000000
0.000000 0.000000 1.000000
0.000000 0.000000 1.000000
0.003906 0.000000 1.000000
0.209503 0.000000 1.000000
0.399648 0.000000 1.000000
0.604430 0.000000 1.000000
0.806443 0.000000 1.000000
0.968317 0.000000 1.000000
1.000000 0.000000 1.000000
0.000000 0.000000 1.000000
0.000000 0.000000 1.000000
0.000774 0.000000 1.000000
0.208719 0.000000 1.000000
0.399224 0.000000 1.000000
0.604106 0.000000 1.000000
0.806134 0.000000 1.000000
0.967992 0.000000 1.000000
1.000000 0.000000 1.000000
0.000000 0.188284 1.000000
0.000000 0.188248 1.000000
0.000000 0.187848 1.000000
0.205464 0.186274 1.000000
0.397461 0.179148 1.000000
0.602742 0.164149 1.000000
0.804822 0.138354 1.000000
0.966601 0.104056 1.000000
1.000000 0.077220 1.000000
0.000000 0.369832 1.000000
0.000000 0.369812 1.000000
0.000000 0.369589 1.000000
0.193996 0.368674 1.000000
0.393395 0.366837 1.000000
0.599465 0.361260 1.000000
0.801561 0.352777 1.000000
0.963080 0.343625 1.000000
1.000000 0.337913 1.000000
0.000000 0.565615 1.000000
0.000000 0.565600 1.000000
0.000000 0.565430 1.000000
0.168656 0.564724 1.000000
0.383853 0.563083 1.000000
0.594909 0.561279 1.000000
0.796460 0.557821 1.000000
0.957524 0.553929 0.998316
1.000000 0.551436 0.998298
0.000000 0.762567 1.000000
0.000000 0.762553 1.000000
0.000000 0.762396 1.000000
0.117852 0.761737 1.000000
0.368294 0.760131 1.000000
0.588462 0.757652 0.999334
0.792448 0.756073 0.993697
0.952580 0.754389 0.992937
1.000000 0.753445 0.992857
0.000000 0.930615 1.000000
0.000000 0.930602 1.000000
0.000000 0.930443 1.000000
0.000000 0.929774 1.000000
0.349122 0.928103 0.999423
0.579612 0.925357 0.996007
0.789545 0.922548 0.991840
0.950070 0.921634 0.989870
1.000000 0.921401 0.989799
0.000000 1.000000 0.999219
0.000000 1.000000 0.999205
0.000000 1.000000 0.999047
0.000000 1.000000 0.998374
0.335612 1.000000 0.996683
0.574068 1.000000 0.993845
0.787212 1.000000 0.990801
0.949657 1.000000 0.989421
1.000000 1.000000 0.989359
