app/src/main/assets/luts/travel_teal_orange.cube
# V-Cam procedural LUT — travel_teal_orange
# Generated by LutBaker. Do not edit by hand.
TITLE "V-Cam travel_teal_orange"
LUT_3D_SIZE 33
DOMAIN_MIN 0.0 0.0 0.0
DOMAIN_MAX 1.0 1.0 1.0
0.000000 0.092015 0.121399
0.013263 0.091284 0.119628
0.039819 0.090553 0.117858
0.066375 0.089822 0.116087
0.093351 0.089184 0.114200
0.122726 0.089080 0.111647
0.152101 0.088976 0.109093
0.181477 0.088871 0.106540
0.210852 0.088767 0.103986
0.240227 0.088662 0.101432
0.269602 0.088558 0.098879
0.298978 0.088453 0.096325
0.328353 0.088349 0.093772
0.357728 0.088245 0.091218
0.387103 0.088140 0.088664
0.416479 0.088036 0.086111
0.445854 0.087931 0.083557
0.475229 0.087827 0.081004
0.504605 0.087723 0.078450
0.533980 0.087618 0.075897
0.563355 0.087514 0.073343
0.592730 0.087409 0.070789
0.622105 0.087305 0.068236
0.651481 0.087200 0.065682
0.680856 0.087096 0.063129
0.710231 0.086992 0.060575
0.739606 0.086887 0.058022
0.768982 0.086783 0.055468
0.798357 0.086678 0.052914
0.827732 0.086574 0.050361
0.857108 0.086470 0.047807
0.886483 0.086365 0.045254
0.915858 0.086261 0.042700
0.000000 0.116615 0.120012
0.011876 0.115885 0.118242
0.038563 0.115183 0.116435
0.067938 0.115078 0.113881
0.097313 0.114974 0.111328
0.126688 0.114869 0.108774
0.156064 0.114765 0.106220
0.185439 0.114661 0.103667
0.214814 0.114556 0.101113
0.244189 0.114452 0.098560
0.273565 0.114347 0.096006
0.302940 0.114243 0.093453
0.332315 0.114138 0.090899
0.361690 0.114034 0.088345
0.391066 0.113930 0.085792
0.420441 0.113825 0.083238
0.449816 0.113721 0.080685
0.479191 0.113616 0.078131
0.508567 0.113512 0.075578
0.537942 0.113408 0.073024
0.567317 0.113303 0.070470
0.596693 0.113199 0.067917
0.626068 0.113094 0.065363
0.655443 0.112990 0.062810
0.684818 0.112885 0.060256
0.714194 0.112781 0.057702
0.743569 0.112677 0.055149
0.772944 0.112572 0.052595
0.802319 0.112468 0.050042
0.831695 0.112363 0.047488
0.861070 0.112259 0.044935
0.890445 0.112154 0.042381
0.919820 0.112050 0.039827
0.000000 0.141216 0.118625
0.013150 0.141076 0.116116
0.042525 0.140972 0.113562
0.071900 0.140868 0.111009
0.101275 0.140763 0.108455
0.130651 0.140659 0.105901
0.160026 0.140554 0.103348
0.189401 0.140450 0.100794
0.218776 0.140346 0.098241
0.248152 0.140241 0.095687
0.277527 0.140137 0.093134
0.306902 0.140032 0.090580
0.336277 0.139928 0.088026
0.365653 0.139823 0.085473
0.395028 0.139719 0.082919
0.424403 0.139615 0.080366
0.453779 0.139510 0.077812
0.483154 0.139406 0.075258
0.512529 0.139301 0.072705
0.541904 0.139197 0.070151
0.571280 0.139092 0.067598
0.600655 0.138988 0.065044
0.630030 0.138884 0.062491
0.659405 0.138779 0.059937
0.688781 0.138675 0.057383
0.718156 0.138570 0.054830
0.747531 0.138466 0.052276
0.776906 0.138362 0.049723
0.806282 0.138257 0.047169
0.835657 0.138153 0.044616
0.865032 0.138048 0.042062
0.894407 0.137944 0.039508
0.923783 0.137839 0.036955
0.000000 0.166970 0.115797
0.017112 0.166866 0.113243
0.046487 0.166761 0.110690
0.075862 0.166657 0.108136
0.105238 0.166553 0.105582
0.134613 0.166448 0.103029
0.163988 0.166344 0.100475
0.193363 0.166239 0.097922
0.222739 0.166135 0.095368
0.252114 0.166030 0.092814
0.281489 0.165926 0.090261
0.310864 0.165822 0.087707
0.340240 0.165717 0.085154
0.369615 0.165613 0.082600
0.398990 0.165508 0.080047
0.428365 0.165404 0.077493
0.457741 0.165300 0.074939
0.487116 0.165195 0.072386
0.516491 0.165091 0.069832
0.545866 0.164986 0.067279
0.575242 0.164882 0.064725
0.604617 0.164777 0.062172
0.633992 0.164673 0.059618
0.663368 0.164569 0.057064
0.692743 0.164464 0.054511
0.722118 0.164360 0.051957
0.751493 0.164255 0.049404
0.780869 0.164151 0.046850
0.810244 0.164046 0.044296
0.839619 0.163942 0.041743
0.868994 0.163838 0.039189
0.898369 0.163733 0.036636
0.927745 0.163629 0.034082
0.000000 0.192760 0.112924
0.021074 0.192655 0.110370
0.050449 0.192551 0.107817
0.079825 0.192446 0.105263
0.109200 0.192342 0.102710
0.138575 0.192238 0.100156
0.167950 0.192133 0.097603
0.197326 0.192029 0.095049
0.226701 0.191924 0.092495
0.256076 0.191820 0.089942
0.285451 0.191715 0.087388
0.314827 0.191611 0.084835
0.344202 0.191507 0.082281
0.373577 0.191402 0.079728
0.402952 0.191298 0.077174
0.432328 0.191193 0.074620
0.461703 0.191089 0.072067
0.491078 0.190985 0.069513
0.520453 0.190880 0.066960
0.549829 0.190776 0.064406
0.579204 0.190671 0.061852
0.608579 0.190567 0.059299
0.637954 0.190462 0.056745
0.667330 0.190358 0.054192
0.696705 0.190254 0.051638
0.726080 0.190149 0.049085
0.755455 0.190045 0.046531
0.784831 0.189940 0.043977
0.814206 0.189836 0.041424
0.843581 0.189731 0.038870
0.872957 0.189627 0.036317
0.902332 0.189523 0.033763
0.931707 0.189418 0.031210
0.000000 0.218549 0.110051
0.025036 0.218445 0.107498
0.054412 0.218340 0.104944
0.083787 0.218236 0.102391
0.113162 0.218131 0.099837
0.142537 0.218027 0.097284
0.171913 0.217923 0.094730
0.201288 0.217818 0.092176
0.230663 0.217714 0.089623
0.260038 0.217609 0.087069
0.289414 0.217505 0.084516
0.318789 0.217400 0.081962
0.348164 0.217296 0.079408
0.377539 0.217192 0.076855
0.406915 0.217087 0.074301
0.436290 0.216983 0.071748
0.465665 0.216878 0.069194
0.495041 0.216774 0.066641
0.524416 0.216670 0.064087
0.553791 0.216565 0.061533
0.583166 0.216461 0.058980
0.612542 0.216356 0.056426
0.641917 0.216252 0.053873
0.671292 0.216147 0.051319
0.700667 0.216043 0.048766
0.730043 0.215939 0.046212
0.759418 0.215834 0.043658
0.788793 0.215730 0.041105
0.818168 0.215625 0.038551
0.847544 0.215521 0.035998
0.876919 0.215416 0.033444
0.906294 0.215312 0.030891
0.935669 0.215208 0.028337
0.000000 0.244338 0.107179
0.028999 0.244234 0.104625
0.058374 0.244130 0.102072
0.087749 0.244025 0.099518
0.117124 0.243921 0.096964
0.146500 0.243816 0.094411
0.175875 0.243712 0.091857
0.205250 0.243608 0.089304
0.234625 0.243503 0.086750
0.264001 0.243399 0.084197
0.293376 0.243294 0.081643
0.322751 0.243190 0.079089
0.352126 0.243085 0.076536
0.381502 0.242981 0.073982
0.410877 0.242877 0.071429
0.440252 0.242772 0.068875
0.469627 0.242668 0.066322
0.499003 0.242563 0.063768
0.528378 0.242459 0.061214
0.557753 0.242354 0.058661
0.587128 0.242250 0.056107
0.616504 0.242146 0.053554
0.645879 0.242041 0.051000
0.675254 0.241937 0.048446
0.704630 0.241832 0.045893
0.734005 0.241728 0.043339
0.763380 0.241624 0.040786
0.792755 0.241519 0.038232
0.822131 0.241415 0.035679
0.851506 0.241310 0.033125
0.880881 0.241206 0.030571
0.910256 0.241101 0.028018
0.939632 0.240997 0.025464
0.003586 0.270128 0.104306
0.032961 0.270023 0.101753
0.062336 0.269919 0.099199
0.091711 0.269815 0.096645
0.121087 0.269710 0.094092
0.150462 0.269606 0.091538
0.179837 0.269501 0.088985
0.209212 0.269397 0.086431
0.238588 0.269292 0.083878
0.267963 0.269188 0.081324
0.297338 0.269084 0.078770
0.326713 0.268979 0.076217
0.356089 0.268875 0.073663
0.385464 0.268770 0.071110
0.414839 0.268666 0.068556
0.444214 0.268562 0.066002
0.473590 0.268457 0.063449
0.502965 0.268353 0.060895
0.532340 0.268248 0.058342
0.561715 0.268144 0.055788
0.591091 0.268039 0.053235
0.620466 0.267935 0.050681
0.649841 0.267831 0.048127
0.679217 0.267726 0.045574
0.708592 0.267622 0.043020
0.737967 0.267517 0.040467
0.767342 0.267413 0.037913
0.796718 0.267309 0.035360
0.826093 0.267204 0.032806
0.855468 0.267100 0.030252
0.884843 0.266995 0.027699
0.914219 0.266891 0.025145
0.943594 0.266786 0.022592
0.007548 0.295917 0.101433
0.036923 0.295813 0.098880
0.066298 0.295708 0.096326
0.095674 0.295604 0.093773
0.125049 0.295500 0.091219
0.154424 0.295395 0.088666
0.183799 0.295291 0.086112
0.213175 0.295186 0.083558
0.242550 0.295082 0.081005
0.271925 0.294977 0.078451
0.301300 0.294873 0.075898
0.330676 0.294769 0.073344
0.360051 0.294664 0.070791
0.389426 0.294560 0.068237
0.418801 0.294455 0.065683
0.448177 0.294351 0.063130
0.477552 0.294246 0.060576
0.506927 0.294142 0.058023
0.536303 0.294038 0.055469
0.565678 0.293933 0.052916
0.595053 0.293829 0.050362
0.624428 0.293724 0.047808
0.653803 0.293620 0.045255
0.683179 0.293516 0.042701
0.712554 0.293411 0.040148
0.741929 0.293307 0.037594
0.771304 0.293202 0.035041
0.800680 0.293098 0.032487
0.830055 0.292993 0.029933
0.859430 0.292889 0.027380
0.888806 0.292785 0.024826
0.918181 0.292680 0.022273
0.947556 0.292576 0.019719
0.011510 0.321707 0.098561
0.040885 0.321602 0.096007
0.070261 0.321498 0.093454
0.099636 0.321393 0.090900
0.129011 0.321289 0.088347
0.158386 0.321184 0.085793
0.187762 0.321080 0.083239
0.217137 0.320976 0.080686
0.246512 0.320871 0.078132
0.275887 0.320767 0.075579
0.305263 0.320662 0.073025
0.334638 0.320558 0.070472
0.364013 0.320454 0.067918
0.393388 0.320349 0.065364
0.422764 0.320245 0.062811
0.452139 0.320140 0.060257
0.481514 0.320036 0.057704
0.510890 0.319931 0.055150
0.540265 0.319827 0.052596
0.569640 0.319723 0.050043
0.599015 0.319618 0.047489
0.628391 0.319514 0.044936
0.657766 0.319409 0.042382
0.687141 0.319305 0.039829
0.716516 0.319201 0.037275
0.745892 0.319096 0.034721
0.775267 0.318992 0.032168
0.804642 0.318887 0.029614
0.834017 0.318783 0.027061
0.863393 0.318678 0.024507
0.892768 0.318574 0.021954
0.922143 0.318470 0.019400
0.951518 0.318365 0.016846
0.015472 0.347496 0.095688
0.044848 0.347392 0.093135
0.074223 0.347287 0.090581
0.103598 0.347183 0.088028
0.132973 0.347078 0.085474
0.162349 0.346974 0.082920
0.191724 0.346869 0.080367
0.221099 0.346765 0.077813
0.250474 0.346661 0.075260
0.279850 0.346556 0.072706
0.309225 0.346452 0.070152
0.338600 0.346347 0.067599
0.367975 0.346243 0.065045
0.397351 0.346139 0.062492
0.426726 0.346034 0.059938
0.456101 0.345930 0.057385
0.485476 0.345825 0.054831
0.514852 0.345721 0.052277
0.544227 0.345616 0.049724
0.573602 0.345512 0.047170
0.602978 0.345408 0.044617
0.632353 0.345303 0.042063
0.661728 0.345199 0.039510
0.691103 0.345094 0.036956
0.720478 0.344990 0.034402
0.749854 0.344885 0.031849
0.779229 0.344781 0.029295
0.808604 0.344677 0.026742
0.837980 0.344572 0.024188
0.867355 0.344468 0.021635
0.896730 0.344363 0.019081
0.926105 0.344259 0.016527
0.955480 0.344155 0.013974
0.019435 0.373285 0.092816
0.048810 0.373181 0.090262
0.078185 0.373077 0.087708
0.107560 0.372972 0.085155
0.136936 0.372868 0.082601
0.166311 0.372763 0.080048
0.195686 0.372659 0.077494
0.225061 0.372554 0.074941
0.254437 0.372450 0.072387
0.283812 0.372346 0.069833
0.313187 0.372241 0.067280
0.342562 0.372137 0.064726
0.371938 0.372032 0.062173
0.401313 0.371928 0.059619
0.430688 0.371824 0.057066
0.460063 0.371719 0.054512
0.489439 0.371615 0.051958
0.518814 0.371510 0.049405
0.548189 0.371406 0.046851
0.577564 0.371301 0.044298
0.606940 0.371197 0.041744
0.636315 0.371093 0.039190
0.665690 0.370988 0.036637
0.695066 0.370884 0.034083
0.724441 0.370779 0.031530
0.753816 0.370675 0.028976
0.783191 0.370570 0.026423
0.812567 0.370466 0.023869
0.841942 0.370362 0.021315
0.871317 0.370257 0.018762
0.900692 0.370153 0.016208
0.930068 0.370048 0.013655
0.959443 0.369944 0.011101
0.023397 0.399075 0.089943
0.052772 0.398970 0.087389
0.082147 0.398866 0.084836
0.111523 0.398762 0.082282
0.140898 0.398657 0.079729
0.170273 0.398553 0.077175
0.199648 0.398448 0.074622
0.229024 0.398344 0.072068
0.258399 0.398239 0.069514
0.287774 0.398135 0.066961
0.317149 0.398031 0.064407
0.346525 0.397926 0.061854
0.375900 0.397822 0.059300
0.405275 0.397717 0.056746
0.434650 0.397613 0.054193
0.464026 0.397509 0.051639
0.493401 0.397404 0.049086
0.522776 0.397300 0.046532
0.552151 0.397195 0.043979
0.581527 0.397091 0.041425
0.610902 0.396986 0.038871
0.640277 0.396882 0.036318
0.669652 0.396778 0.033764
0.699028 0.396673 0.031211
0.728403 0.396569 0.028657
0.757778 0.396464 0.026104
0.787153 0.396360 0.023550
0.816529 0.396255 0.020996
0.845904 0.396151 0.018443
0.875279 0.396047 0.015889
0.904655 0.395942 0.013336
0.934030 0.395838 0.010782
0.963405 0.395733 0.008228
0.027359 0.424864 0.087070
0.056734 0.424760 0.084517
0.086110 0.424655 0.081963
0.115485 0.424551 0.079410
0.144860 0.424446 0.076856
0.174235 0.424342 0.074302
0.203611 0.424238 0.071749
0.232986 0.424133 0.069195
0.262361 0.424029 0.066642
0.291736 0.423924 0.064088
0.321112 0.423820 0.061535
0.350487 0.423716 0.058981
0.379862 0.423611 0.056427
0.409237 0.423507 0.053874
0.438613 0.423402 0.051320
0.467988 0.423298 0.048767
0.497363 0.423193 0.046213
0.526738 0.423089 0.043660
0.556114 0.422985 0.041106
0.585489 0.422880 0.038552
0.614864 0.422776 0.035999
0.644239 0.422671 0.033445
0.673615 0.422567 0.030892
0.702990 0.422463 0.028338
0.732365 0.422358 0.025784
0.761741 0.422254 0.023231
0.791116 0.422149 0.020677
0.820491 0.422045 0.018124
0.849866 0.421940 0.015570
0.879242 0.421836 0.013017
0.908617 0.421732 0.010463
0.937992 0.421627 0.007909
0.967367 0.421523 0.005356
0.031321 0.450654 0.084198
0.060697 0.450549 0.081644
0.090072 0.450445 0.079091
0.119447 0.450340 0.076537
0.148822 0.450236 0.073983
0.178198 0.450131 0.071430
0.207573 0.450027 0.068876
0.236948 0.449923 0.066323
0.266323 0.449818 0.063769
0.295699 0.449714 0.061216
0.325074 0.449609 0.058662
0.354449 0.449505 0.056108
0.383824 0.449401 0.053555
0.413200 0.449296 0.051001
0.442575 0.449192 0.048448
0.471950 0.449087 0.045894
0.501325 0.448983 0.043340
0.530701 0.448878 0.040787
0.560076 0.448774 0.038233
0.589451 0.448670 0.035680
0.618827 0.448565 0.033126
0.648202 0.448461 0.030573
0.677577 0.448356 0.028019
0.706952 0.448252 0.025465
0.736328 0.448147 0.022912
0.765703 0.448043 0.020358
0.795078 0.447939 0.017805
0.824453 0.447834 0.015251
0.853829 0.447730 0.012698
0.883204 0.447625 0.010144
0.912579 0.447521 0.007590
0.941954 0.447417 0.005037
0.971329 0.447312 0.002483
0.035284 0.476443 0.081325
0.064659 0.476338 0.078772
0.094034 0.476234 0.076218
0.123409 0.476130 0.073664
0.152785 0.476025 0.071111
0.182160 0.475921 0.068557
0.211535 0.475816 0.066004
0.240910 0.475712 0.063450
0.270286 0.475608 0.060896
0.299661 0.475503 0.058343
0.329036 0.475399 0.055789
0.358411 0.475294 0.053236
0.387787 0.475190 0.050682
0.417162 0.475085 0.048129
0.446537 0.474981 0.045575
0.475912 0.474877 0.043021
0.505288 0.474772 0.040468
0.534663 0.474668 0.037914
0.564038 0.474563 0.035361
0.593413 0.474459 0.032807
0.622789 0.474355 0.030254
0.652164 0.474250 0.027700
0.681539 0.474146 0.025146
0.710915 0.474041 0.022593
0.740290 0.473937 0.020039
0.769665 0.473832 0.017486
0.799040 0.473728 0.014932
0.828416 0.473624 0.012378
0.857791 0.473519 0.009825
0.887166 0.473415 0.007271
0.916541 0.473310 0.004718
0.945916 0.473206 0.002164
0.975292 0.473102 0.000000
0.039246 0.502232 0.078452
0.068621 0.502128 0.075899
0.097996 0.502023 0.073345
0.127372 0.501919 0.070792
0.156747 0.501815 0.068238
0.186122 0.501710 0.065685
0.215497 0.501606 0.063131
0.244873 0.501501 0.060577
0.274248 0.501397 0.058024
0.303623 0.501293 0.055470
0.332998 0.501188 0.052917
0.362374 0.501084 0.050363
0.391749 0.500979 0.047810
0.421124 0.500875 0.045256
0.450499 0.500770 0.042702
0.479875 0.500666 0.040149
0.509250 0.500562 0.037595
0.538625 0.500457 0.035042
0.568000 0.500353 0.032488
0.597376 0.500248 0.029934
0.626751 0.500144 0.027381
0.656126 0.500040 0.024827
0.685502 0.499935 0.022274
0.714877 0.499831 0.019720
0.744252 0.499726 0.017167
0.773627 0.499622 0.014613
0.803003 0.499517 0.012059
0.832378 0.499413 0.009506
0.861753 0.499309 0.006952
0.891128 0.499204 0.004399
0.920504 0.499100 0.001845
0.949879 0.498995 0.000000
0.979254 0.498891 0.000000
0.043208 0.528022 0.075580
0.072583 0.527917 0.073026
0.101959 0.527813 0.070473
0.131334 0.527708 0.067919
0.160709 0.527604 0.065366
0.190084 0.527500 0.062812
0.219460 0.527395 0.060258
0.248835 0.527291 0.057705
0.278210 0.527186 0.055151
0.307585 0.527082 0.052598
0.336961 0.526977 0.050044
0.366336 0.526873 0.047490
0.395711 0.526769 0.044937
0.425086 0.526664 0.042383
0.454462 0.526560 0.039830
0.483837 0.526455 0.037276
0.513212 0.526351 0.034723
0.542588 0.526247 0.032169
0.571963 0.526142 0.029615
0.601338 0.526038 0.027062
0.630713 0.525933 0.024508
0.660088 0.525829 0.021955
0.689464 0.525724 0.019401
0.718839 0.525620 0.016848
0.748214 0.525516 0.014294
0.777590 0.525411 0.011740
0.806965 0.525307 0.009187
0.836340 0.525202 0.006633
0.865715 0.525098 0.004080
0.895091 0.524993 0.001526
0.924466 0.524889 0.000000
0.953841 0.524785 0.000000
0.983216 0.524680 0.000000
0.047170 0.553811 0.072707
0.076546 0.553707 0.070154
0.105921 0.553602 0.067600
0.135296 0.553498 0.065046
0.164671 0.553393 0.062493
0.194047 0.553289 0.059939
0.223422 0.553185 0.057386
0.252797 0.553080 0.054832
0.282172 0.552976 0.052279
0.311548 0.552871 0.049725
0.340923 0.552767 0.047171
0.370298 0.552662 0.044618
0.399673 0.552558 0.042064
0.429049 0.552454 0.039511
0.458424 0.552349 0.036957
0.487799 0.552245 0.034404
0.517174 0.552140 0.031850
0.546550 0.552036 0.029296
0.575925 0.551932 0.026743
0.605300 0.551827 0.024189
0.634675 0.551723 0.021636
0.664051 0.551618 0.019082
0.693426 0.551514 0.016529
0.722801 0.551409 0.013975
0.752176 0.551305 0.011421
0.781552 0.551201 0.008868
0.810927 0.551096 0.006314
0.840302 0.550992 0.003761
0.869678 0.550887 0.001207
0.899053 0.550783 0.000000
0.928428 0.550679 0.000000
0.957803 0.550574 0.000000
0.987179 0.550470 0.000000
0.051133 0.579601 0.069835
0.080508 0.579496 0.067281
0.109883 0.579392 0.064727
0.139258 0.579287 0.062174
0.168634 0.579183 0.059620
0.198009 0.579078 0.057067
0.227384 0.578974 0.054513
0.256759 0.578870 0.051959
0.286135 0.578765 0.049406
0.315510 0.578661 0.046852
0.344885 0.578556 0.044299
0.374260 0.578452 0.041745
0.403636 0.578347 0.039192
0.433011 0.578243 0.036638
0.462386 0.578139 0.034084
0.491761 0.578034 0.031531
0.521137 0.577930 0.028977
0.550512 0.577825 0.026424
0.579887 0.577721 0.023870
0.609262 0.577617 0.021317
0.638638 0.577512 0.018763
0.668013 0.577408 0.016209
0.697388 0.577303 0.013656
0.726764 0.577199 0.011102
0.756139 0.577094 0.008549
0.785514 0.576990 0.005995
0.814889 0.576886 0.003442
0.844265 0.576781 0.000888
0.873640 0.576677 0.000000
0.903015 0.576572 0.000000
0.932390 0.576468 0.000000
0.961766 0.576364 0.000000
0.991141 0.576259 0.000000
0.055095 0.605390 0.066962
0.084470 0.605285 0.064408
0.113845 0.605181 0.061855
0.143221 0.605077 0.059301
0.172596 0.604972 0.056748
0.201971 0.604868 0.054194
0.231346 0.604763 0.051640
0.260722 0.604659 0.049087
0.290097 0.604555 0.046533
0.319472 0.604450 0.043980
0.348847 0.604346 0.041426
0.378223 0.604241 0.038873
0.407598 0.604137 0.036319
0.436973 0.604032 0.033765
0.466348 0.603928 0.031212
0.495724 0.603824 0.028658
0.525099 0.603719 0.026105
0.554474 0.603615 0.023551
0.583849 0.603510 0.020998
0.613225 0.603406 0.018444
0.642600 0.603301 0.015890
0.671975 0.603197 0.013337
0.701350 0.603093 0.010783
0.730726 0.602988 0.008230
0.760101 0.602884 0.005676
0.789476 0.602779 0.003122
0.818851 0.602675 0.000569
0.848227 0.602571 0.000000
0.877602 0.602466 0.000000
0.906977 0.602362 0.000000
0.936352 0.602257 0.000000
0.965728 0.602153 0.000000
0.995103 0.602048 0.000000
0.059057 0.631179 0.064089
0.088432 0.631075 0.061536
0.117808 0.630970 0.058982
0.147183 0.630866 0.056429
0.176558 0.630762 0.053875
0.205933 0.630657 0.051321
0.235309 0.630553 0.048768
0.264684 0.630448 0.046214
0.294059 0.630344 0.043661
0.323434 0.630239 0.041107
0.352810 0.630135 0.038554
0.382185 0.630031 0.036000
0.411560 0.629926 0.033446
0.440935 0.629822 0.030893
0.470311 0.629717 0.028339
0.499686 0.629613 0.025786
0.529061 0.629508 0.023232
0.558436 0.629404 0.020678
0.587812 0.629300 0.018125
0.617187 0.629195 0.015571
0.646562 0.629091 0.013018
0.675938 0.628986 0.010464
0.705313 0.628882 0.007911
0.734688 0.628778 0.005357
0.764063 0.628673 0.002803
0.793439 0.628569 0.000250
0.822814 0.628464 0.000000
0.852189 0.628360 0.000000
0.881564 0.628255 0.000000
0.910940 0.628151 0.000000
0.940315 0.628047 0.000000
0.969690 0.627942 0.000000
0.999065 0.627838 0.000000
0.063019 0.656969 0.061217
0.092395 0.656864 0.058663
0.121770 0.656760 0.056109
0.151145 0.656655 0.053556
0.180520 0.656551 0.051002
0.209896 0.656447 0.048449
0.239271 0.656342 0.045895
0.268646 0.656238 0.043342
0.298021 0.656133 0.040788
0.327397 0.656029 0.038234
0.356772 0.655924 0.035681
0.386147 0.655820 0.033127
0.415522 0.655716 0.030574
0.444898 0.655611 0.028020
0.474273 0.655507 0.025467
0.503648 0.655402 0.022913
0.533023 0.655298 0.020359
0.562399 0.655194 0.017806
0.591774 0.655089 0.015252
0.621149 0.654985 0.012699
0.650524 0.654880 0.010145
0.679900 0.654776 0.007592
0.709275 0.654671 0.005038
0.738650 0.654567 0.002484
0.768025 0.654463 0.000000
0.797401 0.654358 0.000000
0.826776 0.654254 0.000000
0.856151 0.654149 0.000000
0.885527 0.654045 0.000000
0.914902 0.653940 0.000000
0.944277 0.653836 0.000000
0.973652 0.653732 0.000000
1.000000 0.653627 0.000000
0.066982 0.682758 0.058344
0.096357 0.682654 0.055790
0.125732 0.682549 0.053237
0.155107 0.682445 0.050683
0.184483 0.682340 0.048130
0.213858 0.682236 0.045576
0.243233 0.682132 0.043023
0.272608 0.682027 0.040469
0.301984 0.681923 0.037915
0.331359 0.681818 0.035362
0.360734 0.681714 0.032808
0.390109 0.681609 0.030255
0.419485 0.681505 0.027701
0.448860 0.681401 0.025147
0.478235 0.681296 0.022594
0.507610 0.681192 0.020040
0.536986 0.681087 0.017487
0.566361 0.680983 0.014933
0.595736 0.680878 0.012380
0.625112 0.680774 0.009826
0.654487 0.680670 0.007272
0.683862 0.680565 0.004719
0.713237 0.680461 0.002165
0.742613 0.680356 0.000000
0.771988 0.680252 0.000000
0.801363 0.680148 0.000000
0.830738 0.680043 0.000000
0.860114 0.679939 0.000000
0.889489 0.679834 0.000000
0.918864 0.679730 0.000000
0.948239 0.679625 0.000000
0.977615 0.679521 0.000000
1.000000 0.679417 0.000000
0.070944 0.708547 0.055471
0.100319 0.708443 0.052918
0.129694 0.708338 0.050364
0.159070 0.708234 0.047811
0.188445 0.708130 0.045257
0.217820 0.708025 0.042703
0.247195 0.707921 0.040150
0.276571 0.707816 0.037596
0.305946 0.707712 0.035043
0.335321 0.707608 0.032489
0.364696 0.707503 0.029936
0.394072 0.707399 0.027382
0.423447 0.707294 0.024828
0.452822 0.707190 0.022275
0.482197 0.707085 0.019721
0.511573 0.706981 0.017168
0.540948 0.706877 0.014614
0.570323 0.706772 0.012061
0.599698 0.706668 0.009507
0.629074 0.706563 0.006953
0.658449 0.706459 0.004400
0.687824 0.706355 0.001846
0.717200 0.706250 0.000000
0.746575 0.706146 0.000000
0.775950 0.706041 0.000000
0.805325 0.705937 0.000000
0.834700 0.705832 0.000000
0.864076 0.705728 0.000000
0.893451 0.705624 0.000000
0.922826 0.705519 0.000000
0.952202 0.705415 0.000000
0.981577 0.705310 0.000000
1.000000 0.705206 0.000000
0.074906 0.734337 0.052599
0.104281 0.734232 0.050045
0.133657 0.734128 0.047492
0.163032 0.734024 0.044938
0.192407 0.733919 0.042384
0.221782 0.733815 0.039831
0.251158 0.733710 0.037277
0.280533 0.733606 0.034724
0.309908 0.733501 0.032170
0.339283 0.733397 0.029617
0.368659 0.733293 0.027063
0.398034 0.733188 0.024509
0.427409 0.733084 0.021956
0.456784 0.732979 0.019402
0.486160 0.732875 0.016849
0.515535 0.732771 0.014295
0.544910 0.732666 0.011741
0.574286 0.732562 0.009188
0.603661 0.732457 0.006634
0.633036 0.732353 0.004081
0.662411 0.732248 0.001527
0.691787 0.732144 0.000000
0.721162 0.732040 0.000000
0.750537 0.731935 0.000000
0.779912 0.731831 0.000000
0.809288 0.731726 0.000000
0.838663 0.731622 0.000000
0.868038 0.731517 0.000000
0.897413 0.731413 0.000000
0.926789 0.731309 0.000000
0.956164 0.731204 0.000000
0.985539 0.731100 0.000000
1.000000 0.730995 0.000000
0.078868 0.760126 0.049726
0.108244 0.760022 0.047173
0.137619 0.759917 0.044619
0.166994 0.759813 0.042065
0.196369 0.759708 0.039512
0.225745 0.759604 0.036958
0.255120 0.759500 0.034405
0.284495 0.759395 0.031851
0.313870 0.759291 0.029298
0.343246 0.759186 0.026744
0.372621 0.759082 0.024190
0.401996 0.758978 0.021637
0.431371 0.758873 0.019083
0.460747 0.758769 0.016530
0.490122 0.758664 0.013976
0.519497 0.758560 0.011422
0.548872 0.758455 0.008869
0.578248 0.758351 0.006315
0.607623 0.758247 0.003762
0.636998 0.758142 0.001208
0.666373 0.758038 0.000000
0.695749 0.757933 0.000000
0.725124 0.757829 0.000000
0.754499 0.757725 0.000000
