app/src/main/assets/luts/travel_golden_hour.cube
# V-Cam procedural LUT — travel_golden_hour
# Generated by LutBaker. Do not edit by hand.
TITLE "V-Cam travel_golden_hour"
LUT_3D_SIZE 5
DOMAIN_MIN 0.0 0.0 0.0
DOMAIN_MAX 1.0 1.0 1.0
0.000000 0.000000 0.000000
0.089867 0.000000 0.000000
0.402980 0.000000 0.000000
0.804204 0.000000 0.000000
1.000000 0.000000 0.000000
0.000000 0.081576 0.000000
0.089846 0.081565 0.000000
0.402911 0.078585 0.000000
0.804084 0.000000 0.000000
1.000000 0.000000 0.000000
0.000000 0.378074 0.000000
0.085878 0.378038 0.000000
0.401940 0.377550 0.000000
0.802288 0.367985 0.000000
1.000000 0.345049 0.000000
0.000000 0.762088 0.000000
0.000000 0.762023 0.000000
0.390751 0.761092 0.000000
0.794868 0.758224 0.000000
1.000000 0.753189 0.000000
0.000000 1.000000 0.000000
0.000000 1.000000 0.000000
0.339861 1.000000 0.000000
0.784307 1.000000 0.000000
1.000000 1.000000 0.000000
0.000000 0.000000 0.071040
0.089864 0.000000 0.071034
0.402969 0.000000 0.067879
0.804185 0.000000 0.000000
1.000000 0.000000 0.000000
0.000000 0.081573 0.071023
0.089840 0.081562 0.071015
0.402841 0.078671 0.067658
0.803948 0.000000 0.000000
1.000000 0.000000 0.000000
0.000000 0.378065 0.066109
0.086051 0.377997 0.066199
0.401916 0.377534 0.062515
0.802170 0.368033 0.000000
1.000000 0.345163 0.000000
0.000000 0.762084 0.000000
0.000000 0.761937 0.000000
0.390883 0.761018 0.000000
0.794819 0.758192 0.000000
1.000000 0.753178 0.000000
0.000000 1.000000 0.000000
0.000000 1.000000 0.000000
0.340369 1.000000 0.000000
0.784339 1.000000 0.000000
1.000000 1.000000 0.000000
0.000000 0.000000 0.347406
0.089551 0.000000 0.347369
0.402796 0.000000 0.347070
0.803894 0.000000 0.338940
1.000000 0.000000 0.315810
0.000000 0.081076 0.347343
0.089354 0.080974 0.347228
0.402666 0.077949 0.346951
0.803635 0.000000 0.338678
1.000000 0.000000 0.315393
0.000000 0.377923 0.346524
0.085523 0.377854 0.346469
0.401652 0.377416 0.346165
0.800349 0.368967 0.335509
1.000000 0.347025 0.309438
0.000000 0.762020 0.331812
0.000000 0.761843 0.332018
0.392897 0.759994 0.334112
0.794152 0.757779 0.325749
1.000000 0.753067 0.272550
0.000000 1.000000 0.267747
0.000000 1.000000 0.268067
0.347788 1.000000 0.273900
0.784852 1.000000 0.249666
1.000000 1.000000 0.224708
0.000000 0.000000 0.719138
0.077345 0.000000 0.719060
0.403634 0.000000 0.717930
0.801974 0.000000 0.716121
1.000000 0.000000 0.715195
0.000000 0.066936 0.719010
0.076382 0.066432 0.718767
0.403385 0.054474 0.717657
0.801713 0.000000 0.715882
1.000000 0.000000 0.714915
0.000000 0.377213 0.717233
0.057086 0.377086 0.716995
0.400660 0.375802 0.714113
0.798267 0.368279 0.712818
1.000000 0.342723 0.711149
0.000000 0.761704 0.711970
0.000000 0.761532 0.711832
0.390715 0.759429 0.710231
0.792771 0.757154 0.708850
1.000000 0.753592 0.703077
0.000000 1.000000 0.699230
0.000000 1.000000 0.699174
0.342706 1.000000 0.698623
0.787377 1.000000 0.699593
1.000000 1.000000 0.695273
0.000000 0.000000 1.000000
0.004175 0.000000 1.000000
0.399685 0.000000 1.000000
0.806469 0.000000 1.000000
1.000000 0.000000 1.000000
0.000000 0.000000 1.000000
0.000774 0.000000 1.000000
0.399224 0.000000 1.000000
0.806134 0.000000 1.000000
1.000000 0.000000 1.000000
0.000000 0.369832 1.000000
0.000000 0.369589 1.000000
0.393395 0.366837 1.000000
0.801561 0.352777 1.000000
1.000000 0.337913 1.000000
0.000000 0.762567 1.000000
0.000000 0.762396 1.000000
0.368294 0.760131 1.000000
0.792448 0.756073 0.993697
1.000000 0.753445 0.992857
0.000000 1.000000 0.999219
0.000000 1.000000 0.999047
0.335612 1.000000 0.996683
0.787212 1.000000 0.990801
1.000000 1.000000 0.989359
