app/src/main/assets/luts/travel_beach_bright.cube
# V-Cam procedural LUT — travel_beach_bright
# Generated by LutBaker. Do not edit by hand.
TITLE "V-Cam travel_beach_bright"
LUT_3D_SIZE 9
DOMAIN_MIN 0.0 0.0 0.0
DOMAIN_MAX 1.0 1.0 1.0
0.057926 0.059326 0.059787
0.090937 0.059322 0.059784
0.167885 0.059240 0.059703
0.289230 0.058408 0.058876
0.447308 0.053150 0.053655
0.629857 0.027413 0.028034
0.817228 0.000000 0.000000
0.972178 0.000000 0.000000
1.000000 0.000000 0.000000
0.057918 0.092646 0.059779
0.090931 0.092643 0.059776
0.167871 0.092600 0.059668
0.289204 0.092062 0.058763
0.447266 0.088564 0.053355
0.629798 0.072410 0.027275
0.817161 0.002093 0.000000
0.972099 0.000000 0.000000
1.000000 0.000000 0.000000
0.057743 0.170309 0.059610
0.090834 0.170301 0.059594
0.167817 0.170274 0.059526
0.289106 0.170062 0.058330
0.447110 0.168358 0.052208
0.629574 0.160530 0.024382
0.816904 0.134041 0.000000
0.971800 0.072481 0.000000
1.000000 0.019944 0.000000
0.056015 0.292697 0.057929
0.089707 0.292684 0.057878
0.167340 0.292636 0.057664
0.288835 0.292501 0.057059
0.446674 0.291881 0.048970
0.628935 0.288334 0.016381
0.816167 0.276202 0.000000
0.970943 0.254142 0.000000
1.000000 0.242646 0.000000
0.045190 0.451806 0.047407
0.082655 0.451786 0.047277
0.163877 0.451715 0.046719
0.287445 0.451513 0.045129
0.445775 0.451077 0.041605
0.627533 0.449783 0.000294
0.814495 0.443969 0.000000
0.969000 0.433134 0.000000
1.000000 0.427646 0.000000
0.000000 0.634622 0.000086
0.049313 0.634595 0.000000
0.149177 0.634498 0.000000
0.280696 0.634224 0.000000
0.442929 0.633626 0.000000
0.625312 0.632612 0.000000
0.811035 0.630557 0.000000
0.965438 0.624979 0.000000
1.000000 0.622078 0.000000
0.000000 0.820633 0.000000
0.000000 0.820598 0.000000
0.095464 0.820475 0.000000
0.259012 0.820124 0.000000
0.432563 0.819347 0.000000
0.620702 0.817985 0.000000
0.806618 0.816230 0.000000
0.960198 0.814159 0.000000
1.000000 0.812657 0.000000
0.000000 0.975136 0.000000
0.000000 0.975094 0.000000
0.000000 0.974956 0.000000
0.201289 0.974557 0.000000
0.406568 0.973649 0.000000
0.607515 0.971974 0.000000
0.800642 0.969483 0.000000
0.954593 0.966782 0.000000
1.000000 0.966028 0.000000
0.000000 1.000000 0.000000
0.000000 1.000000 0.000000
0.000000 1.000000 0.000000
0.171502 1.000000 0.000000
0.395425 1.000000 0.000000
0.601991 1.000000 0.000000
0.797829 1.000000 0.000000
0.953127 1.000000 0.000000
1.000000 1.000000 0.000000
0.057924 0.059324 0.093149
0.090936 0.059320 0.093146
0.167882 0.059233 0.093119
0.289225 0.058385 0.092629
0.447299 0.053092 0.089251
0.629844 0.027279 0.073445
0.817215 0.000000 0.004280
0.972163 0.000000 0.000000
1.000000 0.000000 0.000000
0.057916 0.092645 0.093143
0.090931 0.092642 0.093140
0.167855 0.092605 0.093104
0.289172 0.092085 0.092588
0.447215 0.088630 0.089154
0.629725 0.072589 0.073215
0.817069 0.002553 0.003534
0.971992 0.000000 0.000000
1.000000 0.000000 0.000000
0.057736 0.170306 0.093056
0.090849 0.170291 0.093063
0.167813 0.170269 0.093027
0.289079 0.170067 0.092307
0.447063 0.168386 0.088406
0.629503 0.160609 0.071339
0.816813 0.134210 0.000000
0.971693 0.072917 0.000000
1.000000 0.020695 0.000000
0.055992 0.292692 0.091973
0.089764 0.292664 0.092009
0.167361 0.292618 0.091876
0.288827 0.292492 0.091484
0.446638 0.291884 0.086323
0.628871 0.288362 0.065923
0.816080 0.276265 0.000000
0.970840 0.254253 0.000000
1.000000 0.242781 0.000000
0.045122 0.451799 0.085120
0.082819 0.451756 0.085236
0.163959 0.451684 0.084903
0.287468 0.451488 0.083914
0.445763 0.451063 0.081766
0.627486 0.449783 0.053853
0.814420 0.443987 0.000000
0.968905 0.433175 0.000000
1.000000 0.427696 0.000000
0.000000 0.634615 0.052934
0.049849 0.634553 0.053395
0.149395 0.634454 0.052541
0.280783 0.634184 0.049921
0.442952 0.633594 0.043962
0.625295 0.632594 0.033264
0.810971 0.630551 0.000000
0.965360 0.624984 0.000000
1.000000 0.622089 0.000000
0.000000 0.820634 0.000000
0.000000 0.820537 0.000000
0.096224 0.820410 0.000000
0.259258 0.820062 0.000000
0.432663 0.819291 0.000000
0.620727 0.817940 0.000000
0.806595 0.816204 0.000000
0.960143 0.814142 0.000000
1.000000 0.812643 0.000000
0.000000 0.975150 0.000000
0.000000 0.975007 0.000000
0.000000 0.974861 0.000000
0.201919 0.974466 0.000000
0.406793 0.973565 0.000000
0.607598 0.971904 0.000000
0.800650 0.969431 0.000000
0.954561 0.966747 0.000000
1.000000 0.965999 0.000000
0.000000 1.000000 0.000000
0.000000 1.000000 0.000000
0.000000 1.000000 0.000000
0.172345 1.000000 0.000000
0.395691 1.000000 0.000000
0.602091 1.000000 0.000000
0.797846 1.000000 0.000000
0.953102 1.000000 0.000000
1.000000 1.000000 0.000000
0.057888 0.059291 0.170967
0.090936 0.059272 0.170959
0.167874 0.059202 0.170931
0.289206 0.058300 0.170838
0.447267 0.052872 0.169400
0.629791 0.026771 0.162132
0.817165 0.000000 0.137025
0.972104 0.000000 0.079267
1.000000 0.000000 0.031724
0.057850 0.092636 0.170952
0.090913 0.092627 0.170928
0.167849 0.092588 0.170905
0.289153 0.092029 0.170797
0.447184 0.088486 0.169330
0.629673 0.072260 0.162003
0.817019 0.001433 0.136727
0.971934 0.000000 0.078565
1.000000 0.000000 0.030448
0.057706 0.170296 0.170896
0.090832 0.170283 0.170883
0.167806 0.170260 0.170860
0.288985 0.170096 0.170698
0.446886 0.168503 0.169116
0.629234 0.160917 0.161569
0.816467 0.134855 0.135652
0.971288 0.074564 0.075947
1.000000 0.023556 0.025748
0.055903 0.292674 0.170478
0.089707 0.292646 0.170482
0.167448 0.292556 0.170519
0.288800 0.292461 0.170364
0.446503 0.291900 0.168109
0.628630 0.288476 0.159188
0.815751 0.276513 0.129539
0.970446 0.254686 0.059603
1.000000 0.243301 0.000000
0.044864 0.451773 0.167175
0.082658 0.451730 0.167219
0.164257 0.451576 0.167411
0.287562 0.451395 0.166961
0.445719 0.451014 0.165952
0.627311 0.449785 0.154268
0.814133 0.444061 0.114512
0.968545 0.433335 0.009102
1.000000 0.427892 0.000000
0.000000 0.634590 0.152859
0.049212 0.634528 0.153023
0.150178 0.634298 0.153672
0.281121 0.634034 0.152748
0.443043 0.633473 0.150630
0.625235 0.632527 0.147116
0.810730 0.630534 0.090353
0.965061 0.625006 0.000000
1.000000 0.622131 0.000000
0.000000 0.820637 0.100602
0.000000 0.820540 0.101334
0.098877 0.820176 0.104132
0.260194 0.819827 0.101760
0.433046 0.819079 0.095925
0.620823 0.817772 0.085153
0.806507 0.816105 0.056399
0.959936 0.814076 0.000000
1.000000 0.812592 0.000000
0.000000 0.975202 0.000000
0.000000 0.975059 0.000000
0.000000 0.974524 0.000000
0.204298 0.974121 0.000000
0.407651 0.973250 0.000000
0.607912 0.971638 0.000000
0.800679 0.969233 0.000000
0.954443 0.966614 0.000000
1.000000 0.965888 0.000000
0.000000 1.000000 0.000000
0.000000 1.000000 0.000000
0.000000 1.000000 0.000000
0.175516 1.000000 0.000000
0.396705 1.000000 0.000000
0.602473 1.000000 0.000000
0.797913 1.000000 0.000000
0.953011 1.000000 0.000000
1.000000 1.000000 0.000000
0.057537 0.058950 0.293826
0.090761 0.058891 0.293811
0.167925 0.058662 0.293760
0.289162 0.058013 0.293615
0.447175 0.052246 0.293444
0.629639 0.025347 0.290768
0.817022 0.000000 0.280358
0.971937 0.000000 0.260375
1.000000 0.000000 0.249870
0.057413 0.092441 0.293799
0.090690 0.092414 0.293750
0.167873 0.092265 0.293700
0.289113 0.091844 0.293565
0.447094 0.088078 0.293378
0.629523 0.071333 0.290672
0.816876 0.000000 0.280194
0.971767 0.000000 0.260132
1.000000 0.000000 0.249590
0.056945 0.170275 0.293696
0.090384 0.170253 0.293654
0.167729 0.170192 0.293508
0.288956 0.170022 0.293405
0.446806 0.168307 0.293157
0.629090 0.160501 0.290338
0.816328 0.133674 0.279593
0.971125 0.071550 0.259234
1.000000 0.018363 0.248552
0.055635 0.292621 0.293413
0.089534 0.292597 0.293389
0.167377 0.292520 0.293310
0.288772 0.292422 0.293211
0.446150 0.291993 0.292788
0.627966 0.288843 0.289659
0.814826 0.277268 0.278143
0.969334 0.255967 0.256947
1.000000 0.244830 0.245870
0.044109 0.451698 0.292214
0.082191 0.451658 0.292211
0.164039 0.451511 0.292214
0.287852 0.451168 0.292337
0.445621 0.450901 0.291972
0.626833 0.449819 0.287469
0.813280 0.444339 0.272479
0.967521 0.433827 0.247229
1.000000 0.428485 0.234265
0.000000 0.634518 0.285715
0.047310 0.634457 0.285767
0.149496 0.634230 0.285980
0.282051 0.633643 0.286694
0.443321 0.633152 0.285839
0.625083 0.632354 0.284357
0.810067 0.630506 0.264671
0.964214 0.625091 0.228223
1.000000 0.622274 0.211163
0.000000 0.820644 0.264079
0.000000 0.820547 0.264305
0.095405 0.820184 0.265182
0.262675 0.819210 0.267796
0.434143 0.818499 0.266121
0.621108 0.817317 0.262970
0.806276 0.815842 0.255509
0.959351 0.813902 0.196689
1.000000 0.812458 0.171183
0.000000 0.975343 0.207127
0.000000 0.975199 0.207788
0.000000 0.974660 0.210281
0.210394 0.973219 0.217112
0.410070 0.972378 0.211473
0.608812 0.970905 0.199661
0.800777 0.968688 0.180416
0.954120 0.966249 0.156521
1.000000 0.965583 0.113138
0.000000 1.000000 0.182824
0.000000 1.000000 0.183084
0.000000 1.000000 0.184099
0.183571 1.000000 0.191398
0.399561 1.000000 0.184268
0.603563 1.000000 0.169142
0.798115 1.000000 0.143759
0.952762 1.000000 0.110069
1.000000 1.000000 0.094247
0.055368 0.056831 0.454246
0.089421 0.056678 0.454222
0.167520 0.056084 0.454138
0.289451 0.054384 0.453903
0.447013 0.050581 0.453390
0.629293 0.022326 0.453296
0.816696 0.000000 0.449870
0.971559 0.000000 0.441479
1.000000 0.000000 0.436989
0.055049 0.091069 0.454202
0.089242 0.091003 0.454125
0.167410 0.090608 0.454040
0.289369 0.089480 0.453812
0.446937 0.087002 0.453314
0.629180 0.069335 0.453202
0.816553 0.000000 0.449741
0.971391 0.000000 0.441313
1.000000 0.000000 0.436808
0.053827 0.169722 0.454037
0.088428 0.169678 0.453964
0.167044 0.169537 0.453694
0.289090 0.168989 0.453482
0.446666 0.167793 0.453039
0.628763 0.159616 0.452863
0.816013 0.130963 0.449262
0.970754 0.064328 0.440695
1.000000 0.006612 0.436132
0.050320 0.292625 0.453580
0.086127 0.292589 0.453518
0.165919 0.292467 0.453293
0.288565 0.292245 0.452728
0.446060 0.291806 0.452422
0.627686 0.288457 0.452060
0.814490 0.276223 0.448062
0.968982 0.254091 0.439077
1.000000 0.242599 0.434351
0.042234 0.451534 0.452624
0.081042 0.451498 0.452587
0.163507 0.451367 0.452455
0.287660 0.451070 0.452155
0.445548 0.450796 0.451875
0.625901 0.450033 0.451126
0.811309 0.445260 0.446393
0.965280 0.435095 0.436287
1.000000 0.429979 0.431199
0.000000 0.634353 0.450117
0.042548 0.634294 0.450108
0.147854 0.634076 0.450080
0.281394 0.633512 0.450073
0.443992 0.632575 0.450414
0.624845 0.632072 0.449898
0.808722 0.630551 0.442939
0.962359 0.625393 0.428148
1.000000 0.622710 0.421702
0.000000 0.820654 0.439627
0.000000 0.820558 0.439694
0.086584 0.820195 0.439963
0.260092 0.819221 0.440814
0.436427 0.817394 0.443085
0.621800 0.816429 0.441992
0.805852 0.815352 0.438730
0.958054 0.813592 0.416072
1.000000 0.812236 0.407282
0.000000 0.975098 0.415281
0.000000 0.975007 0.415332
0.000000 0.974660 0.415534
0.202332 0.973451 0.417058
0.414928 0.970676 0.422190
0.610830 0.969397 0.418099
0.801059 0.967571 0.411200
0.953475 0.965513 0.403364
1.000000 0.964927 0.392216
0.000000 1.000000 0.406491
0.000000 1.000000 0.406553
0.000000 1.000000 0.406801
0.175977 1.000000 0.407599
0.405303 1.000000 0.412838
0.606000 1.000000 0.408124
0.798625 1.000000 0.400244
0.952276 1.000000 0.391389
1.000000 1.000000 0.387894
0.045940 0.047618 0.640190
0.083452 0.047261 0.640155
0.164936 0.045862 0.640033
0.288988 0.041750 0.639684
0.447947 0.032211 0.638917
0.628794 0.016029 0.637593
0.815695 0.000000 0.638291
0.970867 0.000000 0.636099
1.000000 0.000000 0.634408
0.045188 0.085099 0.640127
0.083063 0.084960 0.640017
0.164722 0.084081 0.639891
0.288850 0.081533 0.639547
0.447836 0.075732 0.638790
0.628688 0.065021 0.637485
0.815545 0.000000 0.638162
0.970702 0.000000 0.635952
1.000000 0.000000 0.634251
0.042254 0.166893 0.639889
0.081232 0.166812 0.639781
0.163954 0.166530 0.639375
0.288357 0.165287 0.639037
0.447433 0.162526 0.638321
0.628294 0.157760 0.637087
0.814979 0.128208 0.637683
0.970077 0.049267 0.635398
1.000000 0.000000 0.633665
0.033499 0.291666 0.639229
0.075883 0.291610 0.639129
0.161375 0.291412 0.638751
0.287231 0.290980 0.637729
0.446455 0.289750 0.637098
0.627290 0.287661 0.636068
0.813438 0.275302 0.636424
0.968339 0.250623 0.633907
1.000000 0.238462 0.632080
0.014123 0.451704 0.637851
0.062908 0.451654 0.637767
0.155584 0.451473 0.637451
0.284660 0.451037 0.636608
0.445168 0.450485 0.635053
0.625676 0.449750 0.634413
0.810445 0.444874 0.634231
0.964713 0.433509 0.631078
1.000000 0.428133 0.629040
0.000000 0.634054 0.635584
0.031669 0.633999 0.635528
0.144308 0.633794 0.635322
0.279992 0.633271 0.634795
0.443557 0.632423 0.633937
0.624722 0.631883 0.633382
0.806817 0.630945 0.632469
0.959212 0.626324 0.627904
1.000000 0.623882 0.625483
0.000000 0.820645 0.631306
0.000000 0.820548 0.631281
0.065695 0.820185 0.631193
0.254713 0.819212 0.631013
0.434458 0.817389 0.630964
0.622945 0.815360 0.631745
0.805382 0.814775 0.630774
0.955675 0.813388 0.623243
1.000000 0.812114 0.618818
0.000000 0.974391 0.620221
0.000000 0.974302 0.620208
0.000000 0.973967 0.620164
0.195077 0.973032 0.620088
0.409964 0.970864 0.620536
0.614136 0.967242 0.623317
0.801773 0.965903 0.620576
0.952576 0.964454 0.617072
1.000000 0.963997 0.612486
0.000000 1.000000 0.615862
0.000000 1.000000 0.615856
0.000000 1.000000 0.615835
0.170018 1.000000 0.615828
0.400216 1.000000 0.616092
0.609986 1.000000 0.619318
0.799731 1.000000 0.616049
0.951643 1.000000 0.611931
1.000000 1.000000 0.610293
0.015669 0.017574 0.831894
0.064199 0.016863 0.831850
0.156509 0.014106 0.831694
0.285976 0.006257 0.831250
0.448037 0.000000 0.830259
0.631038 0.000000 0.828505
0.814367 0.000000 0.826067
0.969853 0.000000 0.828336
1.000000 0.000000 0.828301
0.014197 0.066032 0.831819
0.063356 0.065746 0.831671
0.156122 0.063803 0.831509
0.285754 0.057967 0.831068
0.447876 0.043246 0.830084
0.630895 0.013185 0.828341
0.814223 0.000000 0.825921
0.969693 0.000000 0.828187
1.000000 0.000000 0.828146
0.008569 0.158114 0.831532
0.059190 0.157976 0.831385
0.154690 0.157481 0.830828
0.284940 0.155055 0.830380
0.447282 0.149502 0.829420
0.630364 0.139276 0.827723
0.813682 0.124096 0.825373
0.969085 0.022007 0.827623
1.000000 0.000000 0.827560
0.000000 0.287899 0.830743
0.045882 0.287815 0.830600
0.149535 0.287510 0.830055
0.282897 0.286791 0.828530
0.445765 0.284291 0.827600
0.628963 0.279859 0.826040
0.812227 0.273793 0.823896
0.967396 0.245443 0.826073
1.000000 0.232253 0.825948
0.000000 0.450633 0.829118
0.009510 0.450564 0.828982
0.137028 0.450312 0.828465
0.277496 0.449685 0.827030
0.443327 0.448773 0.824069
0.626481 0.446845 0.822749
0.809476 0.444289 0.821088
0.963777 0.431350 0.822897
1.000000 0.425411 0.822684
0.000000 0.634830 0.826520
0.000000 0.634757 0.826397
0.108031 0.634483 0.825933
0.266627 0.633768 0.824659
0.438889 0.632536 0.822117
0.624256 0.631530 0.818757
0.806357 0.630747 0.817856
0.957837 0.625970 0.818425
1.000000 0.622573 0.818120
0.000000 0.819854 0.822045
0.000000 0.819786 0.821977
0.042471 0.819530 0.821719
0.247868 0.818829 0.821013
0.430839 0.817309 0.819478
0.621938 0.815324 0.817462
0.805217 0.814493 0.816599
0.953214 0.813679 0.815824
1.000000 0.812736 0.814904
0.000000 0.973354 0.817430
0.000000 0.973270 0.817377
0.000000 0.972951 0.817177
0.187941 0.972065 0.816636
0.406376 0.970209 0.815606
0.611617 0.967157 0.814532
0.803058 0.964269 0.814699
0.951826 0.963482 0.813697
1.000000 0.963208 0.812168
0.000000 1.000000 0.815307
0.000000 1.000000 0.815257
0.000000 1.000000 0.815073
0.160870 1.000000 0.814578
0.397241 1.000000 0.813653
0.607122 1.000000 0.812736
0.801519 1.000000 0.813270
0.951252 1.000000 0.811890
1.000000 1.000000 0.811245
0.000000 0.000000 0.992967
0.015940 0.000000 0.992920
0.139531 0.000000 0.992761
0.279266 0.000000 0.992305
0.446349 0.000000 0.991275
0.632624 0.000000 0.989406
0.818522 0.000000 0.986700
0.968728 0.000000 0.983861
1.000000 0.000000 0.984864
0.000000 0.018152 0.992898
0.014163 0.017573 0.992714
0.138879 0.013381 0.992546
0.278936 0.001269 0.992091
0.446129 0.000000 0.991062
0.632441 0.000000 0.989197
0.818343 0.000000 0.986499
0.968539 0.000000 0.983670
1.000000 0.000000 0.984703
0.000000 0.140659 0.992639
0.005408 0.140440 0.992454
0.136408 0.139645 0.991750
0.277708 0.135313 0.991275
0.445308 0.124942 0.990253
0.631755 0.103732 0.988404
0.817668 0.063473 0.985735
0.967825 0.000000 0.982944
1.000000 0.000000 0.984091
0.000000 0.280189 0.991937
0.000000 0.280071 0.991752
0.126863 0.279640 0.991045
0.274467 0.278592 0.989029
0.443138 0.274348 0.987973
0.629904 0.266449 0.986178
0.815820 0.254705 0.983605
0.965850 0.241936 0.980937
1.000000 0.225399 0.982390
0.000000 0.447513 0.990050
0.000000 0.447419 0.989909
0.101853 0.447067 0.989372
0.264927 0.446181 0.987627
0.439262 0.444898 0.983237
0.626418 0.441324 0.981470
0.812159 0.436205 0.979175
0.961836 0.431005 0.976841
1.000000 0.424155 0.978124
0.000000 0.634274 0.986466
0.000000 0.634194 0.986340
0.031728 0.633893 0.985861
0.246451 0.633077 0.984510
0.430607 0.631507 0.981246
0.622613 0.630063 0.974593
0.807475 0.628057 0.972728
0.956859 0.625420 0.971734
1.000000 0.622582 0.972515
0.000000 0.820939 0.981194
0.000000 0.820862 0.981091
0.000000 0.820568 0.980696
0.216662 0.819760 0.979588
0.417409 0.818122 0.977229
0.616638 0.815725 0.972933
0.804748 0.814189 0.968366
0.952997 0.813284 0.967707
1.000000 0.812382 0.967903
0.000000 0.972309 0.975536
0.000000 0.972229 0.975456
0.000000 0.971928 0.975152
0.178833 0.971090 0.974307
0.403169 0.969346 0.972547
0.609467 0.966712 0.969880
0.802328 0.964066 0.967176
0.951659 0.963112 0.966163
1.000000 0.963033 0.966096
0.000000 1.000000 0.974560
0.000000 1.000000 0.974483
0.000000 1.000000 0.974193
0.150447 1.000000 0.973388
0.394028 1.000000 0.971718
0.605320 1.000000 0.969218
0.800655 1.000000 0.966817
0.951425 1.000000 0.966018
1.000000 1.000000 0.965966
0.000000 0.000000 1.000000
0.000000 0.000000 1.000000
0.133282 0.000000 1.000000
0.276837 0.000000 1.000000
0.445576 0.000000 1.000000
0.632885 0.000000 1.000000
0.819592 0.000000 1.000000
0.970433 0.000000 1.000000
1.000000 0.000000 1.000000
0.000000 0.000306 1.000000
0.000000 0.000000 1.000000
0.132532 0.000000 1.000000
0.276473 0.000000 1.000000
0.445339 0.000000 1.000000
0.632691 0.000000 1.000000
0.819404 0.000000 1.000000
0.970235 0.000000 1.000000
1.000000 0.000000 1.000000
0.000000 0.134342 1.000000
0.000000 0.134045 1.000000
0.129675 0.133096 1.000000
0.275117 0.128048 1.000000
0.444450 0.115759 1.000000
0.631960 0.089482 1.000000
0.818693 0.030872 1.000000
0.969484 0.000000 1.000000
1.000000 0.000000 1.000000
0.000000 0.277616 1.000000
0.000000 0.277468 1.000000
0.118662 0.276916 1.000000
0.271500 0.275705 1.000000
0.442087 0.270902 1.000000
0.629983 0.261852 1.000000
0.816739 0.248107 1.000000
0.967403 0.232721 1.000000
1.000000 0.226644 1.000000
0.000000 0.446393 1.000000
0.000000 0.446293 1.000000
0.089737 0.445919 1.000000
0.260894 0.444918 1.000000
0.437778 0.443474 1.000000
0.626210 0.439383 1.000000
0.812832 0.433417 1.000000
0.963134 0.427216 1.000000
1.000000 0.424736 1.000000
0.000000 0.633924 1.000000
0.000000 0.633840 1.000000
0.000000 0.633526 1.000000
0.240657 0.632670 1.000000
0.427941 0.631000 1.000000
0.621931 0.629437 1.000000
0.807732 0.626988 1.000000
0.957683 0.623870 1.000000
1.000000 0.622616 1.000000
0.000000 0.821074 1.000000
0.000000 0.820994 1.000000
0.000000 0.820691 1.000000
0.206989 0.819855 1.000000
0.413701 0.818155 1.000000
0.614827 0.815696 1.000000
0.804485 0.813980 1.000000
0.953299 0.812800 1.000000
1.000000 0.812293 1.000000
0.000000 0.972745 1.000000
0.000000 0.972664 1.000000
0.000000 0.972355 1.000000
0.162719 0.971495 1.000000
0.397830 0.969701 1.000000
0.607061 0.966976 1.000000
0.801407 0.964207 1.000000
0.951581 0.963098 1.000000
1.000000 0.963008 1.000000
0.000000 1.000000 1.000000
0.000000 1.000000 1.000000
0.000000 1.000000 1.000000
0.147640 1.000000 1.000000
0.393196 1.000000 1.000000
0.604941 1.000000 1.000000
0.800439 1.000000 1.000000
0.951389 1.000000 1.000000
1.000000 1.000000 1.000000
