app/src/main/assets/luts/travel_summer_pop.cube
# V-Cam procedural LUT — travel_summer_pop
# Generated by LutBaker. Do not edit by hand.
TITLE "V-Cam travel_summer_pop"
LUT_3D_SIZE 5
DOMAIN_MIN 0.0 0.0 0.0
DOMAIN_MAX 1.0 1.0 1.0
0.010783 0.000000 0.000000
0.333977 0.000000 0.000000
0.657171 0.000000 0.000000
0.980364 0.000000 0.000000
1.000000 0.000000 0.000000
0.000000 0.272927 0.000000
0.293621 0.252371 0.000000
0.616814 0.231815 0.000000
0.940008 0.211258 0.000000
1.000000 0.190702 0.000000
0.000000 0.576321 0.000000
0.253265 0.555764 0.000000
0.576458 0.535208 0.000000
0.899652 0.514652 0.000000
1.000000 0.494096 0.000000
0.000000 0.879714 0.000000
0.212908 0.859158 0.000000
0.536102 0.838602 0.000000
0.859296 0.818046 0.000000
1.000000 0.797490 0.000000
0.000000 1.000000 0.000000
0.172552 1.000000 0.000000
0.495746 1.000000 0.000000
0.818939 1.000000 0.000000
1.000000 1.000000 0.000000
0.003886 0.000000 0.265136
0.327080 0.000000 0.244580
0.650274 0.000000 0.224024
0.973467 0.000000 0.203468
1.000000 0.000000 0.182911
0.000000 0.266030 0.224780
0.286724 0.245474 0.204224
0.609917 0.224918 0.183668
0.933111 0.204361 0.163111
1.000000 0.183805 0.142555
0.000000 0.569424 0.184424
0.246368 0.548867 0.163868
0.569561 0.528311 0.143311
0.892755 0.507755 0.122755
1.000000 0.487199 0.102199
0.000000 0.872818 0.144068
0.206011 0.852261 0.123511
0.529205 0.831705 0.102955
0.852399 0.811149 0.082399
1.000000 0.790592 0.061843
0.000000 1.000000 0.103711
0.165655 1.000000 0.083155
0.488849 1.000000 0.062599
0.812042 1.000000 0.042043
1.000000 1.000000 0.021486
0.000000 0.000000 0.601049
0.319243 0.000000 0.580492
0.642436 0.000000 0.559936
0.965630 0.000000 0.539380
1.000000 0.000000 0.518824
0.000000 0.258193 0.560692
0.278886 0.237636 0.540136
0.602080 0.217080 0.519580
0.925274 0.196524 0.499024
1.000000 0.175968 0.478468
0.000000 0.561586 0.520336
0.238530 0.541030 0.499780
0.561724 0.520474 0.479224
0.884917 0.499917 0.458668
1.000000 0.479361 0.438111
0.000000 0.864980 0.479980
0.198174 0.844424 0.459424
0.521367 0.823867 0.438868
0.844561 0.803311 0.418311
1.000000 0.782755 0.397755
0.000000 1.000000 0.439624
0.157817 1.000000 0.419068
0.481011 1.000000 0.398511
0.804205 1.000000 0.377955
1.000000 1.000000 0.357399
0.000000 0.000000 0.936961
0.311405 0.000000 0.916405
0.634599 0.000000 0.895849
0.957792 0.000000 0.875293
1.000000 0.000000 0.854736
0.000000 0.250355 0.896605
0.271049 0.229799 0.876049
0.594242 0.209243 0.855493
0.917436 0.188686 0.834936
1.000000 0.168130 0.814380
0.000000 0.553749 0.856249
0.230693 0.533192 0.835693
0.553886 0.512636 0.815136
0.877080 0.492080 0.794580
1.000000 0.471524 0.774024
0.000000 0.857143 0.815893
0.190336 0.836586 0.795336
0.513530 0.816030 0.774780
0.836724 0.795474 0.754224
1.000000 0.774917 0.733668
0.000000 1.000000 0.775536
0.149980 1.000000 0.754980
0.473174 1.000000 0.734424
0.796367 1.000000 0.713868
1.000000 1.000000 0.693311
0.000000 0.000000 1.000000
0.303567 0.000000 1.000000
0.626761 0.000000 1.000000
0.949955 0.000000 1.000000
1.000000 0.000000 1.000000
0.000000 0.242518 1.000000
0.263211 0.221961 1.000000
0.586405 0.201405 1.000000
0.909599 0.180849 1.000000
1.000000 0.160293 1.000000
0.000000 0.545911 1.000000
0.222855 0.525355 1.000000
0.546049 0.504799 1.000000
0.869242 0.484242 1.000000
1.000000 0.463686 1.000000
0.000000 0.849305 1.000000
0.182499 0.828749 1.000000
0.505692 0.808192 1.000000
0.828886 0.787636 1.000000
1.000000 0.767080 1.000000
0.000000 1.000000 1.000000
0.142142 1.000000 1.000000
0.465336 1.000000 1.000000
0.788530 1.000000 1.000000
1.000000 1.000000 1.000000
