app/src/main/assets/luts/travel_city_clear.cube
# V-Cam procedural LUT — travel_city_clear
# Generated by LutBaker. Do not edit by hand.
TITLE "V-Cam travel_city_clear"
LUT_3D_SIZE 5
DOMAIN_MIN 0.0 0.0 0.0
DOMAIN_MAX 1.0 1.0 1.0
0.000000 0.000000 0.000000
0.081256 0.000000 0.000000
0.382889 0.000000 0.000000
0.769173 0.000000 0.000000
1.000000 0.000000 0.000000
0.000000 0.081427 0.000000
0.081251 0.081424 0.000000
0.382872 0.080827 0.000000
0.769144 0.066718 0.000000
1.000000 0.018847 0.000000
0.000000 0.383264 0.000000
0.080102 0.383256 0.000000
0.382634 0.383140 0.000000
0.768673 0.381221 0.000000
1.000000 0.375514 0.000000
0.000000 0.768576 0.000000
0.055774 0.768562 0.000000
0.379395 0.768347 0.000000
0.766858 0.767611 0.000000
1.000000 0.766396 0.000000
0.000000 1.000000 0.000000
0.000000 1.000000 0.000000
0.367071 1.000000 0.000000
0.764015 1.000000 0.000000
1.000000 1.000000 0.000000
0.000000 0.000000 0.081604
0.081255 0.000000 0.081601
0.382885 0.000000 0.081062
0.769167 0.000000 0.067267
1.000000 0.000000 0.020044
0.000000 0.081426 0.081599
0.081250 0.081423 0.081596
0.382852 0.080850 0.081024
0.769103 0.066850 0.067054
1.000000 0.019195 0.019491
0.000000 0.383261 0.080474
0.080160 0.383244 0.080510
0.382629 0.383135 0.080020
0.768634 0.381236 0.060488
1.000000 0.375545 0.002336
0.000000 0.768575 0.056238
0.056210 0.768535 0.056674
0.379441 0.768323 0.054283
0.766848 0.767601 0.045990
1.000000 0.766392 0.000000
0.000000 1.000000 0.000000
0.000000 1.000000 0.000000
0.367215 1.000000 0.000000
0.764029 1.000000 0.000000
1.000000 1.000000 0.000000
0.000000 0.000000 0.383988
0.081089 0.000000 0.383979
0.382836 0.000000 0.383848
0.769065 0.000000 0.382676
1.000000 0.000000 0.377802
0.000000 0.081224 0.383970
0.081025 0.081199 0.383940
0.382806 0.080640 0.383817
0.768998 0.065688 0.382620
1.000000 0.015853 0.377714
0.000000 0.383217 0.383723
0.079945 0.383203 0.383708
0.382590 0.383095 0.383600
0.768071 0.381519 0.382030
1.000000 0.376069 0.376594
0.000000 0.768559 0.380504
0.053525 0.768519 0.380539
0.380156 0.767997 0.381180
0.766714 0.767465 0.380378
1.000000 0.766353 0.369732
0.000000 1.000000 0.368858
0.000000 1.000000 0.368900
0.369356 1.000000 0.370427
0.764252 1.000000 0.366758
1.000000 1.000000 0.362671
0.000000 0.000000 0.771265
0.076396 0.000000 0.771247
0.382935 0.000000 0.770967
0.768485 0.000000 0.769988
1.000000 0.000000 0.770390
0.000000 0.076399 0.771231
0.076109 0.076294 0.771167
0.382863 0.073522 0.770890
0.768424 0.063410 0.769926
1.000000 0.003298 0.770319
0.000000 0.382895 0.770742
0.070445 0.382864 0.770683
0.382026 0.382535 0.769838
0.767614 0.381270 0.769115
1.000000 0.374742 0.769328
0.000000 0.768420 0.769173
0.041554 0.768390 0.769143
0.378948 0.767930 0.768681
0.766546 0.767293 0.768039
1.000000 0.766566 0.767319
0.000000 1.000000 0.766809
0.000000 1.000000 0.766790
0.367247 1.000000 0.766561
0.765233 1.000000 0.766741
1.000000 1.000000 0.765888
0.000000 0.000000 1.000000
0.062716 0.000000 1.000000
0.381709 0.000000 1.000000
0.769913 0.000000 1.000000
1.000000 0.000000 1.000000
0.000000 0.062529 1.000000
0.062074 0.062292 1.000000
0.381587 0.055623 1.000000
0.769826 0.024960 1.000000
1.000000 0.000000 1.000000
0.000000 0.381166 1.000000
0.048253 0.381115 1.000000
0.380004 0.380522 1.000000
0.768617 0.377321 1.000000
1.000000 0.374046 1.000000
0.000000 0.768701 1.000000
0.000000 0.768663 1.000000
0.373123 0.768135 1.000000
0.766329 0.767081 1.000000
1.000000 0.766431 1.000000
0.000000 1.000000 1.000000
0.000000 1.000000 1.000000
0.365818 1.000000 1.000000
0.764789 1.000000 1.000000
1.000000 1.000000 1.000000
