app/src/main/assets/luts/travel_teal_orange.cube
# V-Cam procedural LUT — travel_teal_orange
# Generated by LutBaker. Do not edit by hand.
TITLE "V-Cam travel_teal_orange"
LUT_3D_SIZE 9
DOMAIN_MIN 0.0 0.0 0.0
DOMAIN_MAX 1.0 1.0 1.0
0.000000 0.092015 0.121399
0.093351 0.089184 0.114200
0.210852 0.088767 0.103986
0.328353 0.088349 0.093772
0.445854 0.087931 0.083557
0.563355 0.087514 0.073343
0.680856 0.087096 0.063129
0.798357 0.086678 0.052914
0.915858 0.086261 0.042700
0.000000 0.192760 0.112924
0.109200 0.192342 0.102710
0.226701 0.191924 0.092495
0.344202 0.191507 0.082281
0.461703 0.191089 0.072067
0.579204 0.190671 0.061852
0.696705 0.190254 0.051638
0.814206 0.189836 0.041424
0.931707 0.189418 0.031210
0.007548 0.295917 0.101433
0.125049 0.295500 0.091219
0.242550 0.295082 0.081005
0.360051 0.294664 0.070791
0.477552 0.294246 0.060576
0.595053 0.293829 0.050362
0.712554 0.293411 0.040148
0.830055 0.292993 0.029933
0.947556 0.292576 0.019719
0.023397 0.399075 0.089943
0.140898 0.398657 0.079729
0.258399 0.398239 0.069514
0.375900 0.397822 0.059300
0.493401 0.397404 0.049086
0.610902 0.396986 0.038871
0.728403 0.396569 0.028657
0.845904 0.396151 0.018443
0.963405 0.395733 0.008228
0.039246 0.502232 0.078452
0.156747 0.501815 0.068238
0.274248 0.501397 0.058024
0.391749 0.500979 0.047810
0.509250 0.500562 0.037595
0.626751 0.500144 0.027381
0.744252 0.499726 0.017167
0.861753 0.499309 0.006952
0.979254 0.498891 0.000000
0.055095 0.605390 0.066962
0.172596 0.604972 0.056748
0.290097 0.604555 0.046533
0.407598 0.604137 0.036319
0.525099 0.603719 0.026105
0.642600 0.603301 0.015890
0.760101 0.602884 0.005676
0.877602 0.602466 0.000000
0.995103 0.602048 0.000000
0.070944 0.708547 0.055471
0.188445 0.708130 0.045257
0.305946 0.707712 0.035043
0.423447 0.707294 0.024828
0.540948 0.706877 0.014614
0.658449 0.706459 0.004400
0.775950 0.706041 0.000000
0.893451 0.705624 0.000000
1.000000 0.705206 0.000000
0.086793 0.811705 0.043981
0.204294 0.811287 0.033767
0.321795 0.810870 0.023552
0.439296 0.810452 0.013338
0.556797 0.810034 0.003124
0.674298 0.809617 0.000000
0.791799 0.809199 0.000000
0.909300 0.808781 0.000000
1.000000 0.808364 0.000000
0.102642 0.914862 0.032490
0.220143 0.914445 0.022276
0.337644 0.914027 0.012062
0.455145 0.913609 0.001847
0.572646 0.913192 0.000000
0.690147 0.912774 0.000000
0.807648 0.912356 0.000000
0.925149 0.911939 0.000000
1.000000 0.911521 0.000000
0.000000 0.090986 0.230557
0.092133 0.089037 0.222256
0.209634 0.088620 0.212042
0.327135 0.088202 0.201827
0.444636 0.087784 0.191613
0.562137 0.087367 0.181399
0.679638 0.086949 0.171184
0.797139 0.086531 0.160970
0.914640 0.086114 0.150756
0.000000 0.192613 0.220980
0.107982 0.192195 0.210765
0.225483 0.191777 0.200551
0.342984 0.191360 0.190337
0.460485 0.190942 0.180122
0.577986 0.190524 0.169908
0.695487 0.190107 0.159694
0.812988 0.189689 0.149480
0.930489 0.189271 0.139265
0.006330 0.295770 0.209489
0.123831 0.295353 0.199275
0.241332 0.294935 0.189061
0.358833 0.294517 0.178846
0.476334 0.294100 0.168632
0.593835 0.293682 0.158418
0.711336 0.293264 0.148203
0.828837 0.292846 0.137989
0.946338 0.292429 0.127775
0.022179 0.398928 0.197999
0.139680 0.398510 0.187784
0.257181 0.398092 0.177570
0.374682 0.397675 0.167356
0.492183 0.397257 0.157141
0.609684 0.396839 0.146927
0.727185 0.396422 0.136713
0.844686 0.396004 0.126498
0.962187 0.395586 0.116284
0.038028 0.502085 0.186508
0.155529 0.501668 0.176294
0.273030 0.501250 0.166079
0.390531 0.500832 0.155865
0.508032 0.500415 0.145651
0.625533 0.499997 0.135437
0.743034 0.499579 0.125222
0.860535 0.499162 0.115008
0.978036 0.498744 0.104794
0.053877 0.605243 0.175018
0.171378 0.604825 0.164803
0.288879 0.604407 0.154589
0.406380 0.603990 0.144375
0.523881 0.603572 0.134160
0.641382 0.603155 0.123946
0.758883 0.602737 0.113732
0.876384 0.602319 0.103517
0.993885 0.601901 0.093303
0.069726 0.708400 0.163527
0.187227 0.707983 0.153313
0.304728 0.707565 0.143098
0.422229 0.707147 0.132884
0.539730 0.706730 0.122670
0.657231 0.706312 0.112456
0.774732 0.705894 0.102241
0.892233 0.705477 0.092027
1.000000 0.705059 0.081813
0.085575 0.811558 0.152037
0.203076 0.811140 0.141822
0.320577 0.810723 0.131608
0.438078 0.810305 0.121394
0.555579 0.809887 0.111179
0.673080 0.809470 0.100965
0.790581 0.809052 0.090751
0.908082 0.808634 0.080536
1.000000 0.808217 0.070322
0.101424 0.914715 0.140546
0.218925 0.914298 0.130332
0.336426 0.913880 0.120117
0.453927 0.913462 0.109903
0.571428 0.913045 0.099689
0.688929 0.912627 0.089474
0.806430 0.912209 0.079260
0.923931 0.911792 0.069046
1.000000 0.911374 0.058832
0.000000 0.089957 0.339715
0.090914 0.088890 0.330312
0.208415 0.088473 0.320097
0.325916 0.088055 0.309883
0.443417 0.087637 0.299669
0.560919 0.087220 0.289454
0.678419 0.086802 0.279240
0.795921 0.086384 0.269026
0.913422 0.085967 0.258811
0.000000 0.192466 0.329035
0.106763 0.192048 0.318821
0.224264 0.191630 0.308607
0.341765 0.191213 0.298392
0.459266 0.190795 0.288178
0.576768 0.190377 0.277964
0.694269 0.189960 0.267749
0.811770 0.189542 0.257535
0.929271 0.189124 0.247321
0.005111 0.295623 0.317545
0.122612 0.295206 0.307331
0.240113 0.294788 0.297116
0.357614 0.294370 0.286902
0.475115 0.293953 0.276688
0.592616 0.293535 0.266473
0.710118 0.293117 0.256259
0.827619 0.292699 0.246045
0.945120 0.292282 0.235830
0.020960 0.398781 0.306054
0.138461 0.398363 0.295840
0.255962 0.397945 0.285626
0.373463 0.397528 0.275411
0.490965 0.397110 0.265197
0.608466 0.396692 0.254983
0.725967 0.396275 0.244768
0.843468 0.395857 0.234554
0.960969 0.395439 0.224340
0.036809 0.501938 0.294564
0.154310 0.501521 0.284350
0.271811 0.501103 0.274135
0.389312 0.500685 0.263921
0.506813 0.500268 0.253707
0.624314 0.499850 0.243492
0.741816 0.499432 0.233278
0.859317 0.499015 0.223064
0.976817 0.498597 0.212849
0.052658 0.605096 0.283073
0.170159 0.604678 0.272859
0.287660 0.604261 0.262645
0.405161 0.603843 0.252430
0.522663 0.603425 0.242216
0.640163 0.603007 0.232002
0.757665 0.602590 0.221787
0.875166 0.602172 0.211573
0.992667 0.601754 0.201359
0.068507 0.708253 0.271583
0.186008 0.707836 0.261368
0.303509 0.707418 0.251154
0.421010 0.707000 0.240940
0.538511 0.706583 0.230725
0.656013 0.706165 0.220511
0.773513 0.705747 0.210297
0.891015 0.705330 0.200083
1.000000 0.704912 0.189868
0.084356 0.811411 0.260092
0.201857 0.810993 0.249878
0.319358 0.810576 0.239664
0.436859 0.810158 0.229449
0.554361 0.809740 0.219235
0.671861 0.809323 0.209021
0.789362 0.808905 0.198806
0.906864 0.808487 0.188592
1.000000 0.808070 0.178378
0.100205 0.914569 0.248602
0.217706 0.914151 0.238387
0.335207 0.913733 0.228173
0.452708 0.913315 0.217959
0.570210 0.912898 0.207744
0.687710 0.912480 0.197530
0.805211 0.912062 0.187316
0.922713 0.911645 0.177102
1.000000 0.911227 0.166887
0.000000 0.089161 0.448582
0.089696 0.088743 0.438367
0.207197 0.088326 0.428153
0.324698 0.087908 0.417939
0.442199 0.087490 0.407724
0.559700 0.087073 0.397510
0.677201 0.086655 0.387296
0.794702 0.086237 0.377081
0.912203 0.085820 0.366867
0.000000 0.192319 0.437091
0.105545 0.191901 0.426877
0.223046 0.191483 0.416662
0.340547 0.191066 0.406448
0.458048 0.190648 0.396234
0.575549 0.190230 0.386019
0.693050 0.189813 0.375805
0.810551 0.189395 0.365591
0.928052 0.188977 0.355377
0.003893 0.295476 0.425601
0.121394 0.295059 0.415386
0.238895 0.294641 0.405172
0.356396 0.294223 0.394958
0.473897 0.293806 0.384743
0.591398 0.293388 0.374529
0.708899 0.292970 0.364315
0.826400 0.292553 0.354100
0.943901 0.292135 0.343886
0.019742 0.398634 0.414110
0.137243 0.398216 0.403896
0.254744 0.397798 0.393681
0.372245 0.397381 0.383467
0.489746 0.396963 0.373253
0.607247 0.396545 0.363038
0.724748 0.396128 0.352824
0.842249 0.395710 0.342610
0.959750 0.395292 0.332396
0.035591 0.501791 0.402619
0.153092 0.501374 0.392405
0.270593 0.500956 0.382191
0.388094 0.500538 0.371977
0.505595 0.500121 0.361762
0.623096 0.499703 0.351548
0.740597 0.499285 0.341334
0.858098 0.498868 0.331119
0.975599 0.498450 0.320905
0.051440 0.604949 0.391129
0.168941 0.604531 0.380915
0.286442 0.604114 0.370700
0.403943 0.603696 0.360486
0.521444 0.603278 0.350272
0.638945 0.602861 0.340057
0.756446 0.602443 0.329843
0.873947 0.602025 0.319629
0.991448 0.601607 0.309414
0.067289 0.708106 0.379638
0.184790 0.707689 0.369424
0.302291 0.707271 0.359210
0.419792 0.706853 0.348995
0.537293 0.706436 0.338781
0.654794 0.706018 0.328567
0.772295 0.705600 0.318353
0.889796 0.705183 0.308138
1.000000 0.704765 0.297924
0.083138 0.811264 0.368148
0.200639 0.810846 0.357934
0.318140 0.810429 0.347719
0.435641 0.810011 0.337505
0.553142 0.809593 0.327291
0.670643 0.809176 0.317076
0.788144 0.808758 0.306862
0.905645 0.808340 0.296648
1.000000 0.807923 0.286433
0.098987 0.914421 0.356657
0.216488 0.914004 0.346443
0.333989 0.913586 0.336229
0.451490 0.913168 0.326014
0.568991 0.912751 0.315800
0.686492 0.912333 0.305586
0.803993 0.911915 0.295372
0.921494 0.911498 0.285157
1.000000 0.911080 0.274943
0.000000 0.089014 0.556637
0.088478 0.088596 0.546423
0.205979 0.088179 0.536209
0.323480 0.087761 0.525994
0.440981 0.087343 0.515780
0.558482 0.086926 0.505566
0.675983 0.086508 0.495351
0.793484 0.086090 0.485137
0.910985 0.085673 0.474923
0.000000 0.192172 0.545147
0.104327 0.191754 0.534932
0.221828 0.191336 0.524718
0.339329 0.190919 0.514504
0.456830 0.190501 0.504290
0.574331 0.190083 0.494075
0.691832 0.189666 0.483861
0.809333 0.189248 0.473647
0.926834 0.188830 0.463432
0.002675 0.295329 0.533656
0.120176 0.294912 0.523442
0.237677 0.294494 0.513228
0.355178 0.294076 0.503013
0.472679 0.293659 0.492799
0.590180 0.293241 0.482585
0.707681 0.292823 0.472370
0.825182 0.292406 0.462156
0.942683 0.291988 0.451942
0.018524 0.398487 0.522166
0.136025 0.398069 0.511951
0.253526 0.397651 0.501737
0.371027 0.397234 0.491523
0.488528 0.396816 0.481308
0.606029 0.396398 0.471094
0.723530 0.395981 0.460880
0.841031 0.395563 0.450666
0.958532 0.395145 0.440451
0.034373 0.501644 0.510675
0.151874 0.501227 0.500461
0.269375 0.500809 0.490247
0.386876 0.500391 0.480032
0.504377 0.499974 0.469818
0.621878 0.499556 0.459604
0.739379 0.499138 0.449389
0.856880 0.498721 0.439175
0.974381 0.498303 0.428961
0.050222 0.604802 0.499185
0.167723 0.604384 0.488970
0.285224 0.603967 0.478756
0.402725 0.603549 0.468542
0.520226 0.603131 0.458327
0.637727 0.602713 0.448113
0.755228 0.602296 0.437899
0.872729 0.601878 0.427684
0.990230 0.601461 0.417470
0.066071 0.707959 0.487694
0.183572 0.707542 0.477480
0.301073 0.707124 0.467266
0.418574 0.706706 0.457051
0.536075 0.706289 0.446837
0.653576 0.705871 0.436623
0.771077 0.705453 0.426408
0.888578 0.705036 0.416194
1.000000 0.704618 0.405980
0.081920 0.811117 0.476204
0.199421 0.810699 0.465989
0.316922 0.810282 0.455775
0.434423 0.809864 0.445561
0.551924 0.809446 0.435346
0.669425 0.809029 0.425132
0.786926 0.808611 0.414918
0.904427 0.808193 0.404703
1.000000 0.807776 0.394489
0.097769 0.914274 0.464713
0.215270 0.913857 0.454499
0.332771 0.913439 0.444284
0.450272 0.913022 0.434070
0.567773 0.912604 0.423856
0.685274 0.912186 0.413642
0.802775 0.911768 0.403427
0.920276 0.911351 0.393213
1.000000 0.910933 0.382999
0.000000 0.088867 0.664693
0.087260 0.088449 0.654479
0.204761 0.088032 0.644264
0.322262 0.087614 0.634050
0.439763 0.087196 0.623836
0.557264 0.086779 0.613621
0.674765 0.086361 0.603407
0.792266 0.085943 0.593193
0.909767 0.085526 0.582978
0.000000 0.192025 0.653202
0.103109 0.191607 0.642988
0.220610 0.191189 0.632774
0.338111 0.190772 0.622559
0.455612 0.190354 0.612345
0.573113 0.189936 0.602131
0.690614 0.189519 0.591917
0.808115 0.189101 0.581702
0.925616 0.188683 0.571488
0.001457 0.295182 0.641712
0.118958 0.294765 0.631498
0.236459 0.294347 0.621283
0.353960 0.293929 0.611069
0.471461 0.293512 0.600855
0.588962 0.293094 0.590640
0.706463 0.292676 0.580426
0.823964 0.292259 0.570212
0.941465 0.291841 0.559997
0.017306 0.398340 0.630221
0.134807 0.397922 0.620007
0.252308 0.397504 0.609793
0.369809 0.397087 0.599578
0.487310 0.396669 0.589364
0.604811 0.396251 0.579150
0.722312 0.395834 0.568935
0.839813 0.395416 0.558721
0.957314 0.394998 0.548507
0.033155 0.501497 0.618731
0.150656 0.501080 0.608516
0.268157 0.500662 0.598302
0.385658 0.500244 0.588088
0.503159 0.499827 0.577874
0.620660 0.499409 0.567659
0.738161 0.498991 0.557445
0.855662 0.498574 0.547231
0.973163 0.498156 0.537016
0.049004 0.604655 0.607240
0.166505 0.604237 0.597026
0.284006 0.603820 0.586812
0.401507 0.603402 0.576597
0.519008 0.602984 0.566383
0.636509 0.602567 0.556169
0.754010 0.602149 0.545954
0.871511 0.601731 0.535740
0.989012 0.601313 0.525526
0.064853 0.707812 0.595750
0.182354 0.707395 0.585535
0.299855 0.706977 0.575321
0.417356 0.706559 0.565107
0.534857 0.706142 0.554893
0.652358 0.705724 0.544678
0.769859 0.705306 0.534464
0.887360 0.704889 0.524250
1.000000 0.704471 0.514035
0.080702 0.810970 0.584259
0.198203 0.810552 0.574045
0.315704 0.810135 0.563831
0.433205 0.809717 0.553616
0.550706 0.809299 0.543402
0.668207 0.808882 0.533188
0.785708 0.808464 0.522973
0.903209 0.808046 0.512759
1.000000 0.807629 0.502545
0.096551 0.914128 0.572769
0.214052 0.913710 0.562554
0.331553 0.913292 0.552340
0.449054 0.912874 0.542126
0.566555 0.912457 0.531911
0.684056 0.912039 0.521697
0.801557 0.911621 0.511483
0.919058 0.911204 0.501269
1.000000 0.910703 0.491158
0.000000 0.088720 0.772749
0.086041 0.088302 0.762534
0.203542 0.087885 0.752320
0.321043 0.087467 0.742106
0.438545 0.087049 0.731891
0.556046 0.086632 0.721677
0.673547 0.086214 0.711463
0.791048 0.085796 0.701248
0.908549 0.085379 0.691034
0.000000 0.191878 0.761258
0.101890 0.191460 0.751044
0.219391 0.191042 0.740829
0.336892 0.190625 0.730615
0.454394 0.190207 0.720401
0.571895 0.189789 0.710186
0.689396 0.189372 0.699972
0.806897 0.188954 0.689758
0.924398 0.188536 0.679544
0.000238 0.295035 0.749768
0.117739 0.294618 0.739553
0.235240 0.294200 0.729339
0.352741 0.293782 0.719125
0.470243 0.293365 0.708910
0.587744 0.292947 0.698696
0.705244 0.292529 0.688482
0.822746 0.292112 0.678267
0.940247 0.291694 0.668053
0.016087 0.398193 0.738277
0.133588 0.397775 0.728063
0.251089 0.397357 0.717848
0.368591 0.396940 0.707634
0.486092 0.396522 0.697420
0.603593 0.396104 0.687205
0.721094 0.395687 0.676991
0.838595 0.395269 0.666777
0.956096 0.394851 0.656563
0.031936 0.501350 0.726786
0.149437 0.500933 0.716572
0.266938 0.500515 0.706358
0.384439 0.500097 0.696144
0.501941 0.499680 0.685929
0.619442 0.499262 0.675715
0.736943 0.498844 0.665501
0.854444 0.498427 0.655286
0.971945 0.498009 0.645072
0.047785 0.604508 0.715296
0.165286 0.604090 0.705082
0.282787 0.603673 0.694867
0.400288 0.603255 0.684653
0.517789 0.602837 0.674439
0.635291 0.602419 0.664224
0.752791 0.602002 0.654010
0.870293 0.601584 0.643796
0.987794 0.601167 0.633582
0.063634 0.707666 0.703805
0.181135 0.707248 0.693591
0.298636 0.706830 0.683377
0.416137 0.706412 0.673163
0.533638 0.705995 0.662948
0.651139 0.705577 0.652734
0.768641 0.705159 0.642520
0.886142 0.704742 0.632305
1.000000 0.704324 0.622091
0.079483 0.810823 0.692315
0.196984 0.810405 0.682101
0.314485 0.809988 0.671886
0.431987 0.809570 0.661672
0.549488 0.809152 0.651458
0.666989 0.808735 0.641243
0.784490 0.808317 0.631029
0.901991 0.807899 0.620815
1.000000 0.807482 0.610600
0.095332 0.913981 0.680824
0.212833 0.913563 0.670610
0.330334 0.913145 0.660396
0.447836 0.912728 0.650181
0.565337 0.912310 0.639967
0.682838 0.911892 0.629753
0.800339 0.911474 0.619539
0.917840 0.911057 0.609324
1.000000 0.909674 0.600316
0.000000 0.088573 0.880804
0.084823 0.088156 0.870590
0.202324 0.087738 0.860376
0.319825 0.087320 0.850161
0.437326 0.086902 0.839947
0.554827 0.086485 0.829733
0.672328 0.086067 0.819518
0.789829 0.085649 0.809304
0.907330 0.085232 0.799090
0.000000 0.191731 0.869314
0.100672 0.191313 0.859100
0.218173 0.190895 0.848885
0.335674 0.190478 0.838671
0.453175 0.190060 0.828457
0.570676 0.189642 0.818242
0.688177 0.189225 0.808028
0.805678 0.188807 0.797814
0.923179 0.188389 0.787599
0.000000 0.294888 0.857823
0.116521 0.294471 0.847609
0.234022 0.294053 0.837395
0.351523 0.293635 0.827180
0.469024 0.293218 0.816966
0.586525 0.292800 0.806752
0.704026 0.292382 0.796537
0.821527 0.291965 0.786323
0.939028 0.291547 0.776109
0.014869 0.398046 0.846333
0.132370 0.397628 0.836118
0.249871 0.397210 0.825904
0.367372 0.396793 0.815690
0.484873 0.396375 0.805475
0.602374 0.395957 0.795261
0.719875 0.395540 0.785047
0.837376 0.395122 0.774833
0.954877 0.394704 0.764618
0.030718 0.501203 0.834842
0.148219 0.500786 0.824628
0.265720 0.500368 0.814414
0.383221 0.499950 0.804199
0.500722 0.499533 0.793985
0.618223 0.499115 0.783771
0.735724 0.498697 0.773556
0.853225 0.498280 0.763342
0.970726 0.497862 0.753128
0.046567 0.604361 0.823352
0.164068 0.603943 0.813137
0.281569 0.603526 0.802923
0.399070 0.603108 0.792709
0.516571 0.602690 0.782494
0.634072 0.602273 0.772280
0.751573 0.601855 0.762066
0.869074 0.601437 0.751851
0.986575 0.601020 0.741637
0.062416 0.707518 0.811861
0.179917 0.707101 0.801647
0.297418 0.706683 0.791432
0.414919 0.706265 0.781218
0.532420 0.705848 0.771004
0.649921 0.705430 0.760790
0.767422 0.705012 0.750575
0.884923 0.704595 0.740361
1.000000 0.704177 0.730147
0.078265 0.810676 0.800371
0.195766 0.810258 0.790156
0.313267 0.809841 0.779942
0.430768 0.809423 0.769728
0.548269 0.809005 0.759513
0.665770 0.808588 0.749299
0.783271 0.808170 0.739085
0.900772 0.807752 0.728870
1.000000 0.807335 0.718656
0.094114 0.913834 0.788880
0.211615 0.913416 0.778666
0.329116 0.912998 0.768451
0.446617 0.912580 0.758237
0.564118 0.912163 0.748023
0.681619 0.911745 0.737808
0.799120 0.911327 0.727594
0.916621 0.910910 0.717380
1.000000 0.908645 0.709474
0.000000 0.088426 0.988860
0.083605 0.088009 0.978646
0.201106 0.087591 0.968431
0.318607 0.087173 0.958217
0.436108 0.086755 0.948003
0.553609 0.086338 0.937788
0.671110 0.085920 0.927574
0.788611 0.085502 0.917360
0.906112 0.085085 0.907145
0.000000 0.191584 0.977369
0.099454 0.191166 0.967155
0.216955 0.190748 0.956941
0.334456 0.190331 0.946726
0.451957 0.189913 0.936512
0.569458 0.189495 0.926298
0.686959 0.189078 0.916083
0.804460 0.188660 0.905869
0.921961 0.188242 0.895655
0.000000 0.294741 0.965879
0.115303 0.294324 0.955664
0.232804 0.293906 0.945450
0.350305 0.293488 0.935236
0.467806 0.293071 0.925022
0.585307 0.292653 0.914807
0.702808 0.292235 0.904593
0.820309 0.291818 0.894379
0.937810 0.291400 0.884164
0.013651 0.397899 0.954388
0.131152 0.397481 0.944174
0.248653 0.397064 0.933960
0.366154 0.396646 0.923745
0.483655 0.396228 0.913531
0.601156 0.395810 0.903317
0.718657 0.395393 0.893103
0.836158 0.394975 0.882888
0.953659 0.394557 0.872674
0.029500 0.501056 0.942898
0.147001 0.500639 0.932683
0.264502 0.500221 0.922469
0.382003 0.499803 0.912255
0.499504 0.499386 0.902041
0.617005 0.498968 0.891826
0.734506 0.498550 0.881612
0.852007 0.498133 0.871398
0.969508 0.497715 0.861183
0.045349 0.604214 0.931407
0.162850 0.603796 0.921193
0.280351 0.603379 0.910979
0.397852 0.602961 0.900764
0.515353 0.602543 0.890550
0.632854 0.602126 0.880336
0.750355 0.601708 0.870121
0.867856 0.601290 0.859907
0.985357 0.600873 0.849693
0.061198 0.707371 0.919917
0.178699 0.706954 0.909703
0.296200 0.706536 0.899488
0.413701 0.706118 0.889274
0.531202 0.705701 0.879060
0.648703 0.705283 0.868845
0.766204 0.704865 0.858631
0.883705 0.704448 0.848417
1.000000 0.704030 0.838202
0.077047 0.810529 0.908426
0.194548 0.810111 0.898212
0.312049 0.809694 0.887998
0.429550 0.809276 0.877783
0.547051 0.808858 0.867569
0.664552 0.808441 0.857355
0.782053 0.808023 0.847140
0.899554 0.807605 0.836926
1.000000 0.807188 0.826712
0.092896 0.913687 0.896936
0.210397 0.913269 0.886721
0.327898 0.912851 0.876507
0.445399 0.912434 0.866293
0.562900 0.912016 0.856079
0.680401 0.911598 0.845864
0.797902 0.911180 0.835650
0.914401 0.910540 0.825714
1.000000 0.907616 0.818632
